E_HEAD(3678207,0,0,0,300,300,-40,71,17,1,20,0,1,20,,1,7,6,100,1,,1);*RO*
;*************************************
;Projekt 07_01_felge
;Erstellt mit Estlcam Version 11 Build 11,244
;Laufzeit ca. 00:20:02 Stunden
;*************************************

T="Fräser 5mm" 
L6
S20000 F1500 M3


G00 Z5.0000
;*************************************
;Nr. 1 Konturfolgend schruppen: 
;*************************************
X15.6000 Y13.2000
G01 Z0.5000 F1500 S20000
Z-2.0000 F900
X21.0000 Y9.6000 F1500
X26.8000 Y7.6000
X34.0000 Y7.2000
X38.8000 Y8.0000
X44.4000 Y10.4000
X50.6000 Y15.4000
X54.4000 Y21.0000
X56.6000 Y27.4000
X56.8000 Y35.2000
X55.2000 Y41.2000
X51.4000 Y47.6000
X46.8000 Y52.0000
X40.6000 Y55.4000
X34.0000 Y56.8000
X26.8000 Y56.4000
X23.4000 Y55.4000
X17.2000 Y52.0000
X13.4000 Y48.6000
X10.6000 Y44.8000
X7.4000 Y36.6000
X7.2000 Y28.8000
X7.8000 Y25.8000
X10.6000 Y19.2000
X15.6000 Y13.2000
X16.6000 Y14.6000
X12.2000 Y19.8000
X9.4000 Y26.6000
X8.8000 Y30.0000
X9.0000 Y35.4000
X10.4000 Y40.6000
X13.0000 Y45.4000
X16.8000 Y49.6000
X20.8000 Y52.4000
X24.4000 Y54.0000
X30.2000 Y55.2000
X37.4000 Y54.6000
X43.2000 Y52.4000
X47.2000 Y49.6000
X51.8000 Y44.2000
X54.6000 Y37.4000
X55.2000 Y30.0000
X54.2000 Y25.0000
X51.4000 Y19.2000
X47.4000 Y14.6000
X42.4000 Y11.2000
X35.4000 Y9.0000
X28.6000
X21.6000 Y11.2000
X16.6000 Y14.6000
Z1.0000
X22.4000 Y20.0000
Z0.5000
Z-2.0000 F900
X28.4000 Y17.0000 F1500
X34.6000 Y16.8000
X37.0000 Y17.4000
X40.8000 Y19.4000
X44.0000 Y22.4000
X46.0000 Y25.6000
X47.2000 Y29.4000
Y34.6000
X46.4000 Y37.4000
X44.6000 Y40.8000
X41.6000 Y44.0000
X38.4000 Y46.0000
X34.6000 Y47.2000
X29.4000
X26.6000 Y46.4000
X23.2000 Y44.6000
X20.0000 Y41.6000
X17.0000 Y35.6000
X17.2000 Y27.8000
X19.0000 Y23.8000
X22.4000 Y20.0000
X24.0000 Y21.8000
X29.4000 Y19.2000
X36.0000 Y19.6000
X39.2000 Y21.2000
X42.2000 Y24.0000
X43.6000 Y26.2000
X44.8000 Y30.0000
Y34.0000
X44.0000 Y36.8000
X42.8000 Y39.2000
X40.0000 Y42.2000
X34.6000 Y44.8000
X29.4000
X27.6000 Y44.2000
X24.8000 Y42.8000
X21.8000 Y40.0000
X20.4000 Y37.8000
X19.2000 Y34.0000
Y30.0000
X20.4000 Y26.2000
X24.0000 Y21.8000
X25.6000 Y23.6000
X29.8000 Y21.6000
X35.0000 Y21.8000
X37.6000 Y23.0000
X40.4000 Y25.6000
X42.4000 Y30.6000
X41.6000 Y36.2000
X38.4000 Y40.4000
X34.2000 Y42.4000
X28.6000 Y42.0000
X26.4000 Y41.0000
X23.6000 Y38.4000
X21.6000 Y33.4000
X22.2000 Y28.4000
X23.0000 Y26.4000
X25.6000 Y23.6000
X27.2000 Y25.4000
X30.2000 Y24.0000
X34.0000
X36.8000 Y25.4000
X38.6000 Y27.2000
X40.0000 Y31.2000
X39.2000 Y35.6000
X36.8000 Y38.6000
X33.8000 Y40.0000
X29.6000 Y39.8000
X27.2000 Y38.6000
X25.4000 Y36.8000
X24.0000 Y32.8000
X25.2000 Y27.6000
X27.2000 Y25.4000
X28.2000 Y27.8000
X30.6000 Y26.4000
X33.4000
X36.6000 Y28.6000
X37.6000 Y31.8000
X36.8000 Y35.0000
X35.2000 Y36.8000
X33.4000 Y37.6000
X30.6000
X27.4000 Y35.4000
X26.4000 Y32.2000
X26.8000 Y30.2000
X28.2000 Y27.8000
X30.0000 Y29.4000
X32.8000 Y28.8000
X34.6000 Y30.2000
Y33.8000
X32.8000 Y35.2000
X30.6000 Y35.0000
X29.4000 Y33.8000
X29.0000 Y31.4000
X30.0000 Y29.4000
Z-4.0000 F900
X32.8000 Y28.8000 F1500
X34.6000 Y30.2000
Y33.8000
X32.8000 Y35.2000
X30.6000 Y35.0000
X29.4000 Y33.8000
X29.0000 Y31.4000
X30.0000 Y29.4000
X28.2000 Y27.8000
X30.6000 Y26.4000
X33.4000
X36.6000 Y28.6000
X37.6000 Y31.8000
X36.8000 Y35.0000
X35.2000 Y36.8000
X33.4000 Y37.6000
X30.6000
X27.4000 Y35.4000
X26.4000 Y32.2000
X26.8000 Y30.2000
X28.2000 Y27.8000
X27.2000 Y25.4000
X30.2000 Y24.0000
X34.0000
X36.8000 Y25.4000
X38.6000 Y27.2000
X40.0000 Y31.2000
X39.2000 Y35.6000
X36.8000 Y38.6000
X33.8000 Y40.0000
X29.6000 Y39.8000
X27.2000 Y38.6000
X25.4000 Y36.8000
X24.0000 Y32.8000
X25.2000 Y27.6000
X27.2000 Y25.4000
X25.6000 Y23.6000
X29.8000 Y21.6000
X35.0000 Y21.8000
X37.6000 Y23.0000
X40.4000 Y25.6000
X42.4000 Y30.6000
X41.6000 Y36.2000
X38.4000 Y40.4000
X34.2000 Y42.4000
X28.6000 Y42.0000
X26.4000 Y41.0000
X23.6000 Y38.4000
X21.6000 Y33.4000
X22.2000 Y28.4000
X23.0000 Y26.4000
X25.6000 Y23.6000
X24.0000 Y21.8000
X29.4000 Y19.2000
X36.0000 Y19.6000
X39.2000 Y21.2000
X42.2000 Y24.0000
X43.6000 Y26.2000
X44.8000 Y30.0000
Y34.0000
X44.0000 Y36.8000
X42.8000 Y39.2000
X40.0000 Y42.2000
X34.6000 Y44.8000
X29.4000
X27.6000 Y44.2000
X24.8000 Y42.8000
X21.8000 Y40.0000
X20.4000 Y37.8000
X19.2000 Y34.0000
Y30.0000
X20.4000 Y26.2000
X24.0000 Y21.8000
X22.4000 Y20.0000
X28.4000 Y17.0000
X34.6000 Y16.8000
X37.0000 Y17.4000
X40.8000 Y19.4000
X44.0000 Y22.4000
X46.0000 Y25.6000
X47.2000 Y29.4000
Y34.6000
X46.4000 Y37.4000
X44.6000 Y40.8000
X41.6000 Y44.0000
X38.4000 Y46.0000
X34.6000 Y47.2000
X29.4000
X26.6000 Y46.4000
X23.2000 Y44.6000
X20.0000 Y41.6000
X17.0000 Y35.6000
X17.2000 Y27.8000
X19.0000 Y23.8000
X22.4000 Y20.0000
Z1.0000
X16.6000 Y14.6000
Z-1.5000
Z-4.0000 F900
X12.2000 Y19.8000 F1500
X9.4000 Y26.6000
X8.8000 Y30.0000
X9.0000 Y35.4000
X10.4000 Y40.6000
X13.0000 Y45.4000
X16.8000 Y49.6000
X20.8000 Y52.4000
X24.4000 Y54.0000
X30.2000 Y55.2000
X37.4000 Y54.6000
X43.2000 Y52.4000
X47.2000 Y49.6000
X51.8000 Y44.2000
X54.6000 Y37.4000
X55.2000 Y30.0000
X54.2000 Y25.0000
X51.4000 Y19.2000
X47.4000 Y14.6000
X42.4000 Y11.2000
X35.4000 Y9.0000
X28.6000
X21.6000 Y11.2000
X16.6000 Y14.6000
X15.6000 Y13.2000
X21.0000 Y9.6000
X26.8000 Y7.6000
X34.0000 Y7.2000
X38.8000 Y8.0000
X44.4000 Y10.4000
X50.6000 Y15.4000
X54.4000 Y21.0000
X56.6000 Y27.4000
X56.8000 Y35.2000
X55.2000 Y41.2000
X51.4000 Y47.6000
X46.8000 Y52.0000
X40.6000 Y55.4000
X34.0000 Y56.8000
X26.8000 Y56.4000
X23.4000 Y55.4000
X17.2000 Y52.0000
X13.4000 Y48.6000
X10.6000 Y44.8000
X7.4000 Y36.6000
X7.2000 Y28.8000
X7.8000 Y25.8000
X10.6000 Y19.2000
X15.6000 Y13.2000
Z-6.0000 F900
X21.0000 Y9.6000 F1500
X26.8000 Y7.6000
X34.0000 Y7.2000
X38.8000 Y8.0000
X44.4000 Y10.4000
X50.6000 Y15.4000
X54.4000 Y21.0000
X56.6000 Y27.4000
X56.8000 Y35.2000
X55.2000 Y41.2000
X51.4000 Y47.6000
X46.8000 Y52.0000
X40.6000 Y55.4000
X34.0000 Y56.8000
X26.8000 Y56.4000
X23.4000 Y55.4000
X17.2000 Y52.0000
X13.4000 Y48.6000
X10.6000 Y44.8000
X7.4000 Y36.6000
X7.2000 Y28.8000
X7.8000 Y25.8000
X10.6000 Y19.2000
X15.6000 Y13.2000
X16.6000 Y14.6000
X12.2000 Y19.8000
X9.4000 Y26.6000
X8.8000 Y30.0000
X9.0000 Y35.4000
X10.4000 Y40.6000
X13.0000 Y45.4000
X16.8000 Y49.6000
X20.8000 Y52.4000
X24.4000 Y54.0000
X30.2000 Y55.2000
X37.4000 Y54.6000
X43.2000 Y52.4000
X47.2000 Y49.6000
X51.8000 Y44.2000
X54.6000 Y37.4000
X55.2000 Y30.0000
X54.2000 Y25.0000
X51.4000 Y19.2000
X47.4000 Y14.6000
X42.4000 Y11.2000
X35.4000 Y9.0000
X28.6000
X21.6000 Y11.2000
X16.6000 Y14.6000
Z1.0000
X22.4000 Y20.0000
Z-3.5000
Z-6.0000 F900
X28.4000 Y17.0000 F1500
X34.6000 Y16.8000
X37.0000 Y17.4000
X40.8000 Y19.4000
X44.0000 Y22.4000
X46.0000 Y25.6000
X47.2000 Y29.4000
Y34.6000
X46.4000 Y37.4000
X44.6000 Y40.8000
X41.6000 Y44.0000
X38.4000 Y46.0000
X34.6000 Y47.2000
X29.4000
X26.6000 Y46.4000
X23.2000 Y44.6000
X20.0000 Y41.6000
X17.0000 Y35.6000
X17.2000 Y27.8000
X19.0000 Y23.8000
X22.4000 Y20.0000
X24.0000 Y21.8000
X29.4000 Y19.2000
X36.0000 Y19.6000
X39.2000 Y21.2000
X42.2000 Y24.0000
X43.6000 Y26.2000
X44.8000 Y30.0000
Y34.0000
X44.0000 Y36.8000
X42.8000 Y39.2000
X40.0000 Y42.2000
X34.6000 Y44.8000
X29.4000
X27.6000 Y44.2000
X24.8000 Y42.8000
X21.8000 Y40.0000
X20.4000 Y37.8000
X19.2000 Y34.0000
Y30.0000
X20.4000 Y26.2000
X24.0000 Y21.8000
X25.6000 Y23.6000
X29.8000 Y21.6000
X35.0000 Y21.8000
X37.6000 Y23.0000
X40.4000 Y25.6000
X42.4000 Y30.6000
X41.6000 Y36.2000
X38.4000 Y40.4000
X34.2000 Y42.4000
X28.6000 Y42.0000
X26.4000 Y41.0000
X23.6000 Y38.4000
X21.6000 Y33.4000
X22.2000 Y28.4000
X23.0000 Y26.4000
X25.6000 Y23.6000
X27.2000 Y25.4000
X30.2000 Y24.0000
X34.0000
X36.8000 Y25.4000
X38.6000 Y27.2000
X40.0000 Y31.2000
X39.2000 Y35.6000
X36.8000 Y38.6000
X33.8000 Y40.0000
X29.6000 Y39.8000
X27.2000 Y38.6000
X25.4000 Y36.8000
X24.0000 Y32.8000
X25.2000 Y27.6000
X27.2000 Y25.4000
X28.2000 Y27.8000
X30.6000 Y26.4000
X33.4000
X36.6000 Y28.6000
X37.6000 Y31.8000
X36.8000 Y35.0000
X35.2000 Y36.8000
X33.4000 Y37.6000
X30.6000
X27.4000 Y35.4000
X26.4000 Y32.2000
X26.8000 Y30.2000
X28.2000 Y27.8000
X30.0000 Y29.4000
X32.8000 Y28.8000
X34.6000 Y30.2000
Y33.8000
X32.8000 Y35.2000
X30.6000 Y35.0000
X29.4000 Y33.8000
X29.0000 Y31.4000
X30.0000 Y29.4000
Z-8.0000 F900
X32.8000 Y28.8000 F1500
X34.6000 Y30.2000
Y33.8000
X32.8000 Y35.2000
X30.6000 Y35.0000
X29.4000 Y33.8000
X29.0000 Y31.4000
X30.0000 Y29.4000
X28.2000 Y27.8000
X30.6000 Y26.4000
X33.4000
X36.6000 Y28.6000
X37.6000 Y31.8000
X36.8000 Y35.0000
X35.2000 Y36.8000
X33.4000 Y37.6000
X30.6000
X27.4000 Y35.4000
X26.4000 Y32.2000
X26.8000 Y30.2000
X28.2000 Y27.8000
X27.2000 Y25.4000
X30.2000 Y24.0000
X34.0000
X36.8000 Y25.4000
X38.6000 Y27.2000
X40.0000 Y31.2000
X39.2000 Y35.6000
X36.8000 Y38.6000
X33.8000 Y40.0000
X29.6000 Y39.8000
X27.2000 Y38.6000
X25.4000 Y36.8000
X24.0000 Y32.8000
X25.2000 Y27.6000
X27.2000 Y25.4000
X25.6000 Y23.6000
X29.8000 Y21.6000
X35.0000 Y21.8000
X37.6000 Y23.0000
X40.4000 Y25.6000
X42.4000 Y30.6000
X41.6000 Y36.2000
X38.4000 Y40.4000
X34.2000 Y42.4000
X28.6000 Y42.0000
X26.4000 Y41.0000
X23.6000 Y38.4000
X21.6000 Y33.4000
X22.2000 Y28.4000
X23.0000 Y26.4000
X25.6000 Y23.6000
X24.0000 Y21.8000
X29.4000 Y19.2000
X36.0000 Y19.6000
X39.2000 Y21.2000
X42.2000 Y24.0000
X43.6000 Y26.2000
X44.8000 Y30.0000
Y34.0000
X44.0000 Y36.8000
X42.8000 Y39.2000
X40.0000 Y42.2000
X34.6000 Y44.8000
X29.4000
X27.6000 Y44.2000
X24.8000 Y42.8000
X21.8000 Y40.0000
X20.4000 Y37.8000
X19.2000 Y34.0000
Y30.0000
X20.4000 Y26.2000
X24.0000 Y21.8000
X22.4000 Y20.0000
X28.4000 Y17.0000
X34.6000 Y16.8000
X37.0000 Y17.4000
X40.8000 Y19.4000
X44.0000 Y22.4000
X46.0000 Y25.6000
X47.2000 Y29.4000
Y34.6000
X46.4000 Y37.4000
X44.6000 Y40.8000
X41.6000 Y44.0000
X38.4000 Y46.0000
X34.6000 Y47.2000
X29.4000
X26.6000 Y46.4000
X23.2000 Y44.6000
X20.0000 Y41.6000
X17.0000 Y35.6000
X17.2000 Y27.8000
X19.0000 Y23.8000
X22.4000 Y20.0000
Z1.0000
X16.6000 Y14.6000
Z-5.5000
Z-8.0000 F900
X12.2000 Y19.8000 F1500
X9.4000 Y26.6000
X8.8000 Y30.0000
X9.0000 Y35.4000
X10.4000 Y40.6000
X13.0000 Y45.4000
X16.8000 Y49.6000
X20.8000 Y52.4000
X24.4000 Y54.0000
X30.2000 Y55.2000
X37.4000 Y54.6000
X43.2000 Y52.4000
X47.2000 Y49.6000
X51.8000 Y44.2000
X54.6000 Y37.4000
X55.2000 Y30.0000
X54.2000 Y25.0000
X51.4000 Y19.2000
X47.4000 Y14.6000
X42.4000 Y11.2000
X35.4000 Y9.0000
X28.6000
X21.6000 Y11.2000
X16.6000 Y14.6000
X15.6000 Y13.2000
X21.0000 Y9.6000
X26.8000 Y7.6000
X34.0000 Y7.2000
X38.8000 Y8.0000
X44.4000 Y10.4000
X50.6000 Y15.4000
X54.4000 Y21.0000
X56.6000 Y27.4000
X56.8000 Y35.2000
X55.2000 Y41.2000
X51.4000 Y47.6000
X46.8000 Y52.0000
X40.6000 Y55.4000
X34.0000 Y56.8000
X26.8000 Y56.4000
X23.4000 Y55.4000
X17.2000 Y52.0000
X13.4000 Y48.6000
X10.6000 Y44.8000
X7.4000 Y36.6000
X7.2000 Y28.8000
X7.8000 Y25.8000
X10.6000 Y19.2000
X15.6000 Y13.2000
Z-10.0000 F900
X21.0000 Y9.6000 F1500
X26.8000 Y7.6000
X34.0000 Y7.2000
X38.8000 Y8.0000
X44.4000 Y10.4000
X50.6000 Y15.4000
X54.4000 Y21.0000
X56.6000 Y27.4000
X56.8000 Y35.2000
X55.2000 Y41.2000
X51.4000 Y47.6000
X46.8000 Y52.0000
X40.6000 Y55.4000
X34.0000 Y56.8000
X26.8000 Y56.4000
X23.4000 Y55.4000
X17.2000 Y52.0000
X13.4000 Y48.6000
X10.6000 Y44.8000
X7.4000 Y36.6000
X7.2000 Y28.8000
X7.8000 Y25.8000
X10.6000 Y19.2000
X15.6000 Y13.2000
X16.6000 Y14.6000
X12.2000 Y19.8000
X9.4000 Y26.6000
X8.8000 Y30.0000
X9.0000 Y35.4000
X10.4000 Y40.6000
X13.0000 Y45.4000
X16.8000 Y49.6000
X20.8000 Y52.4000
X24.4000 Y54.0000
X30.2000 Y55.2000
X37.4000 Y54.6000
X43.2000 Y52.4000
X47.2000 Y49.6000
X51.8000 Y44.2000
X54.6000 Y37.4000
X55.2000 Y30.0000
X54.2000 Y25.0000
X51.4000 Y19.2000
X47.4000 Y14.6000
X42.4000 Y11.2000
X35.4000 Y9.0000
X28.6000
X21.6000 Y11.2000
X16.6000 Y14.6000
Z1.0000
X22.4000 Y20.0000
Z-7.5000
Z-10.0000 F900
X28.4000 Y17.0000 F1500
X34.6000 Y16.8000
X37.0000 Y17.4000
X40.8000 Y19.4000
X44.0000 Y22.4000
X46.0000 Y25.6000
X47.2000 Y29.4000
Y34.6000
X46.4000 Y37.4000
X44.6000 Y40.8000
X41.6000 Y44.0000
X38.4000 Y46.0000
X34.6000 Y47.2000
X29.4000
X26.6000 Y46.4000
X23.2000 Y44.6000
X20.0000 Y41.6000
X17.0000 Y35.6000
X17.2000 Y27.8000
X19.0000 Y23.8000
X22.4000 Y20.0000
X24.0000 Y21.8000
X29.4000 Y19.2000
X36.0000 Y19.6000
X39.2000 Y21.2000
X42.2000 Y24.0000
X43.6000 Y26.2000
X44.8000 Y30.0000
Y34.0000
X44.0000 Y36.8000
X42.8000 Y39.2000
X40.0000 Y42.2000
X34.6000 Y44.8000
X29.4000
X27.6000 Y44.2000
X24.8000 Y42.8000
X21.8000 Y40.0000
X20.4000 Y37.8000
X19.2000 Y34.0000
Y30.0000
X20.4000 Y26.2000
X24.0000 Y21.8000
X25.6000 Y23.6000
X29.8000 Y21.6000
X35.0000 Y21.8000
X37.6000 Y23.0000
X40.4000 Y25.6000
X42.4000 Y30.6000
X41.6000 Y36.2000
X38.4000 Y40.4000
X34.2000 Y42.4000
X28.6000 Y42.0000
X26.4000 Y41.0000
X23.6000 Y38.4000
X21.6000 Y33.4000
X22.2000 Y28.4000
X23.0000 Y26.4000
X25.6000 Y23.6000
X27.2000 Y25.4000
X30.2000 Y24.0000
X34.0000
X36.8000 Y25.4000
X38.6000 Y27.2000
X40.0000 Y31.2000
X39.2000 Y35.6000
X36.8000 Y38.6000
X33.8000 Y40.0000
X29.6000 Y39.8000
X27.2000 Y38.6000
X25.4000 Y36.8000
X24.0000 Y32.8000
X25.2000 Y27.6000
X27.2000 Y25.4000
X28.2000 Y27.8000
X30.6000 Y26.4000
X33.4000
X36.6000 Y28.6000
X37.6000 Y31.8000
X36.8000 Y35.0000
X35.2000 Y36.8000
X33.4000 Y37.6000
X30.6000
X27.4000 Y35.4000
X26.4000 Y32.2000
X26.8000 Y30.2000
X28.2000 Y27.8000
X30.0000 Y29.4000
X32.8000 Y28.8000
X34.6000 Y30.2000
Y33.8000
X32.8000 Y35.2000
X30.6000 Y35.0000
X29.4000 Y33.8000
X29.0000 Y31.4000
X30.0000 Y29.4000
Z-12.0000 F900
X32.8000 Y28.8000 F1500
X34.6000 Y30.2000
Y33.8000
X32.8000 Y35.2000
X30.6000 Y35.0000
X29.4000 Y33.8000
X29.0000 Y31.4000
X30.0000 Y29.4000
X28.2000 Y27.8000
X30.6000 Y26.4000
X33.4000
X36.6000 Y28.6000
X37.6000 Y31.8000
X36.8000 Y35.0000
X35.2000 Y36.8000
X33.4000 Y37.6000
X30.6000
X27.4000 Y35.4000
X26.4000 Y32.2000
X26.8000 Y30.2000
X28.2000 Y27.8000
X27.2000 Y25.4000
X30.2000 Y24.0000
X34.0000
X36.8000 Y25.4000
X38.6000 Y27.2000
X40.0000 Y31.2000
X39.2000 Y35.6000
X36.8000 Y38.6000
X33.8000 Y40.0000
X29.6000 Y39.8000
X27.2000 Y38.6000
X25.4000 Y36.8000
X24.0000 Y32.8000
X25.2000 Y27.6000
X27.2000 Y25.4000
X25.6000 Y23.6000
X29.8000 Y21.6000
X35.0000 Y21.8000
X37.6000 Y23.0000
X40.4000 Y25.6000
X42.4000 Y30.6000
X41.6000 Y36.2000
X38.4000 Y40.4000
X34.2000 Y42.4000
X28.6000 Y42.0000
X26.4000 Y41.0000
X23.6000 Y38.4000
X21.6000 Y33.4000
X22.2000 Y28.4000
X23.0000 Y26.4000
X25.6000 Y23.6000
X24.0000 Y21.8000
X29.4000 Y19.2000
X36.0000 Y19.6000
X39.2000 Y21.2000
X42.2000 Y24.0000
X43.6000 Y26.2000
X44.8000 Y30.0000
Y34.0000
X44.0000 Y36.8000
X42.8000 Y39.2000
X40.0000 Y42.2000
X34.6000 Y44.8000
X29.4000
X27.6000 Y44.2000
X24.8000 Y42.8000
X21.8000 Y40.0000
X20.4000 Y37.8000
X19.2000 Y34.0000
Y30.0000
X20.4000 Y26.2000
X24.0000 Y21.8000
X22.4000 Y20.0000
X28.4000 Y17.0000
X34.6000 Y16.8000
X37.0000 Y17.4000
X40.8000 Y19.4000
X44.0000 Y22.4000
X46.0000 Y25.6000
X47.2000 Y29.4000
Y34.6000
X46.4000 Y37.4000
X44.6000 Y40.8000
X41.6000 Y44.0000
X38.4000 Y46.0000
X34.6000 Y47.2000
X29.4000
X26.6000 Y46.4000
X23.2000 Y44.6000
X20.0000 Y41.6000
X17.0000 Y35.6000
X17.2000 Y27.8000
X19.0000 Y23.8000
X22.4000 Y20.0000
Z1.0000
X16.6000 Y14.6000
Z-9.5000
Z-12.0000 F900
X12.2000 Y19.8000 F1500
X9.4000 Y26.6000
X8.8000 Y30.0000
X9.0000 Y35.4000
X10.4000 Y40.6000
X13.0000 Y45.4000
X16.8000 Y49.6000
X20.8000 Y52.4000
X24.4000 Y54.0000
X30.2000 Y55.2000
X37.4000 Y54.6000
X43.2000 Y52.4000
X47.2000 Y49.6000
X51.8000 Y44.2000
X54.6000 Y37.4000
X55.2000 Y30.0000
X54.2000 Y25.0000
X51.4000 Y19.2000
X47.4000 Y14.6000
X42.4000 Y11.2000
X35.4000 Y9.0000
X28.6000
X21.6000 Y11.2000
X16.6000 Y14.6000
X15.6000 Y13.2000
X21.0000 Y9.6000
X26.8000 Y7.6000
X34.0000 Y7.2000
X38.8000 Y8.0000
X44.4000 Y10.4000
X50.6000 Y15.4000
X54.4000 Y21.0000
X56.6000 Y27.4000
X56.8000 Y35.2000
X55.2000 Y41.2000
X51.4000 Y47.6000
X46.8000 Y52.0000
X40.6000 Y55.4000
X34.0000 Y56.8000
X26.8000 Y56.4000
X23.4000 Y55.4000
X17.2000 Y52.0000
X13.4000 Y48.6000
X10.6000 Y44.8000
X7.4000 Y36.6000
X7.2000 Y28.8000
X7.8000 Y25.8000
X10.6000 Y19.2000
X15.6000 Y13.2000
Z-14.0000 F900
X21.0000 Y9.6000 F1500
X26.8000 Y7.6000
X34.0000 Y7.2000
X38.8000 Y8.0000
X44.4000 Y10.4000
X50.6000 Y15.4000
X54.4000 Y21.0000
X56.6000 Y27.4000
X56.8000 Y35.2000
X55.2000 Y41.2000
X51.4000 Y47.6000
X46.8000 Y52.0000
X40.6000 Y55.4000
X34.0000 Y56.8000
X26.8000 Y56.4000
X23.4000 Y55.4000
X17.2000 Y52.0000
X13.4000 Y48.6000
X10.6000 Y44.8000
X7.4000 Y36.6000
X7.2000 Y28.8000
X7.8000 Y25.8000
X10.6000 Y19.2000
X15.6000 Y13.2000
X16.6000 Y14.6000
X12.2000 Y19.8000
X9.4000 Y26.6000
X8.8000 Y30.0000
X9.0000 Y35.4000
X10.4000 Y40.6000
X13.0000 Y45.4000
X16.8000 Y49.6000
X20.8000 Y52.4000
X24.4000 Y54.0000
X30.2000 Y55.2000
X37.4000 Y54.6000
X43.2000 Y52.4000
X47.2000 Y49.6000
X51.8000 Y44.2000
X54.6000 Y37.4000
X55.2000 Y30.0000
X54.2000 Y25.0000
X51.4000 Y19.2000
X47.4000 Y14.6000
X42.4000 Y11.2000
X35.4000 Y9.0000
X28.6000
X21.6000 Y11.2000
X16.6000 Y14.6000
Z1.0000
X22.4000 Y20.0000
Z-11.5000
Z-14.0000 F900
X28.4000 Y17.0000 F1500
X34.6000 Y16.8000
X37.0000 Y17.4000
X40.8000 Y19.4000
X44.0000 Y22.4000
X46.0000 Y25.6000
X47.2000 Y29.4000
Y34.6000
X46.4000 Y37.4000
X44.6000 Y40.8000
X41.6000 Y44.0000
X38.4000 Y46.0000
X34.6000 Y47.2000
X29.4000
X26.6000 Y46.4000
X23.2000 Y44.6000
X20.0000 Y41.6000
X17.0000 Y35.6000
X17.2000 Y27.8000
X19.0000 Y23.8000
X22.4000 Y20.0000
X24.0000 Y21.8000
X29.4000 Y19.2000
X36.0000 Y19.6000
X39.2000 Y21.2000
X42.2000 Y24.0000
X43.6000 Y26.2000
X44.8000 Y30.0000
Y34.0000
X44.0000 Y36.8000
X42.8000 Y39.2000
X40.0000 Y42.2000
X34.6000 Y44.8000
X29.4000
X27.6000 Y44.2000
X24.8000 Y42.8000
X21.8000 Y40.0000
X20.4000 Y37.8000
X19.2000 Y34.0000
Y30.0000
X20.4000 Y26.2000
X24.0000 Y21.8000
X25.6000 Y23.6000
X29.8000 Y21.6000
X35.0000 Y21.8000
X37.6000 Y23.0000
X40.4000 Y25.6000
X42.4000 Y30.6000
X41.6000 Y36.2000
X38.4000 Y40.4000
X34.2000 Y42.4000
X28.6000 Y42.0000
X26.4000 Y41.0000
X23.6000 Y38.4000
X21.6000 Y33.4000
X22.2000 Y28.4000
X23.0000 Y26.4000
X25.6000 Y23.6000
X27.2000 Y25.4000
X30.2000 Y24.0000
X34.0000
X36.8000 Y25.4000
X38.6000 Y27.2000
X40.0000 Y31.2000
X39.2000 Y35.6000
X36.8000 Y38.6000
X33.8000 Y40.0000
X29.6000 Y39.8000
X27.2000 Y38.6000
X25.4000 Y36.8000
X24.0000 Y32.8000
X25.2000 Y27.6000
X27.2000 Y25.4000
X28.2000 Y27.8000
X30.6000 Y26.4000
X33.4000
X36.6000 Y28.6000
X37.6000 Y31.8000
X36.8000 Y35.0000
X35.2000 Y36.8000
X33.4000 Y37.6000
X30.6000
X27.4000 Y35.4000
X26.4000 Y32.2000
X26.8000 Y30.2000
X28.2000 Y27.8000
X30.0000 Y29.4000
X32.8000 Y28.8000
X34.6000 Y30.2000
Y33.8000
X32.8000 Y35.2000
X30.6000 Y35.0000
X29.4000 Y33.8000
X29.0000 Y31.4000
X30.0000 Y29.4000
Z-16.0000 F900
X32.8000 Y28.8000 F1500
X34.6000 Y30.2000
Y33.8000
X32.8000 Y35.2000
X30.6000 Y35.0000
X29.4000 Y33.8000
X29.0000 Y31.4000
X30.0000 Y29.4000
X28.2000 Y27.8000
X30.6000 Y26.4000
X33.4000
X36.6000 Y28.6000
X37.6000 Y31.8000
X36.8000 Y35.0000
X35.2000 Y36.8000
X33.4000 Y37.6000
X30.6000
X27.4000 Y35.4000
X26.4000 Y32.2000
X26.8000 Y30.2000
X28.2000 Y27.8000
X27.2000 Y25.4000
X30.2000 Y24.0000
X34.0000
X36.8000 Y25.4000
X38.6000 Y27.2000
X40.0000 Y31.2000
X39.2000 Y35.6000
X36.8000 Y38.6000
X33.8000 Y40.0000
X29.6000 Y39.8000
X27.2000 Y38.6000
X25.4000 Y36.8000
X24.0000 Y32.8000
X25.2000 Y27.6000
X27.2000 Y25.4000
X25.6000 Y23.6000
X29.8000 Y21.6000
X35.0000 Y21.8000
X37.6000 Y23.0000
X40.4000 Y25.6000
X42.4000 Y30.6000
X41.6000 Y36.2000
X38.4000 Y40.4000
X34.2000 Y42.4000
X28.6000 Y42.0000
X26.4000 Y41.0000
X23.6000 Y38.4000
X21.6000 Y33.4000
X22.2000 Y28.4000
X23.0000 Y26.4000
X25.6000 Y23.6000
X24.0000 Y21.8000
X29.4000 Y19.2000
X36.0000 Y19.6000
X39.2000 Y21.2000
X42.2000 Y24.0000
X43.6000 Y26.2000
X44.8000 Y30.0000
Y34.0000
X44.0000 Y36.8000
X42.8000 Y39.2000
X40.0000 Y42.2000
X34.6000 Y44.8000
X29.4000
X27.6000 Y44.2000
X24.8000 Y42.8000
X21.8000 Y40.0000
X20.4000 Y37.8000
X19.2000 Y34.0000
Y30.0000
X20.4000 Y26.2000
X24.0000 Y21.8000
X22.4000 Y20.0000
X28.4000 Y17.0000
X34.6000 Y16.8000
X37.0000 Y17.4000
X40.8000 Y19.4000
X44.0000 Y22.4000
X46.0000 Y25.6000
X47.2000 Y29.4000
Y34.6000
X46.4000 Y37.4000
X44.6000 Y40.8000
X41.6000 Y44.0000
X38.4000 Y46.0000
X34.6000 Y47.2000
X29.4000
X26.6000 Y46.4000
X23.2000 Y44.6000
X20.0000 Y41.6000
X17.0000 Y35.6000
X17.2000 Y27.8000
X19.0000 Y23.8000
X22.4000 Y20.0000
Z1.0000
X16.6000 Y14.6000
Z-13.5000
Z-16.0000 F900
X12.2000 Y19.8000 F1500
X9.4000 Y26.6000
X8.8000 Y30.0000
X9.0000 Y35.4000
X10.4000 Y40.6000
X13.0000 Y45.4000
X16.8000 Y49.6000
X20.8000 Y52.4000
X24.4000 Y54.0000
X30.2000 Y55.2000
X37.4000 Y54.6000
X43.2000 Y52.4000
X47.2000 Y49.6000
X51.8000 Y44.2000
X54.6000 Y37.4000
X55.2000 Y30.0000
X54.2000 Y25.0000
X51.4000 Y19.2000
X47.4000 Y14.6000
X42.4000 Y11.2000
X35.4000 Y9.0000
X28.6000
X21.6000 Y11.2000
X16.6000 Y14.6000
X15.6000 Y13.2000
X21.0000 Y9.6000
X26.8000 Y7.6000
X34.0000 Y7.2000
X38.8000 Y8.0000
X44.4000 Y10.4000
X50.6000 Y15.4000
X54.4000 Y21.0000
X56.6000 Y27.4000
X56.8000 Y35.2000
X55.2000 Y41.2000
X51.4000 Y47.6000
X46.8000 Y52.0000
X40.6000 Y55.4000
X34.0000 Y56.8000
X26.8000 Y56.4000
X23.4000 Y55.4000
X17.2000 Y52.0000
X13.4000 Y48.6000
X10.6000 Y44.8000
X7.4000 Y36.6000
X7.2000 Y28.8000
X7.8000 Y25.8000
X10.6000 Y19.2000
X15.6000 Y13.2000
Z-18.0000 F900
X21.0000 Y9.6000 F1500
X26.8000 Y7.6000
X34.0000 Y7.2000
X38.8000 Y8.0000
X44.4000 Y10.4000
X50.6000 Y15.4000
X54.4000 Y21.0000
X56.6000 Y27.4000
X56.8000 Y35.2000
X55.2000 Y41.2000
X51.4000 Y47.6000
X46.8000 Y52.0000
X40.6000 Y55.4000
X34.0000 Y56.8000
X26.8000 Y56.4000
X23.4000 Y55.4000
X17.2000 Y52.0000
X13.4000 Y48.6000
X10.6000 Y44.8000
X7.4000 Y36.6000
X7.2000 Y28.8000
X7.8000 Y25.8000
X10.6000 Y19.2000
X15.6000 Y13.2000
X16.6000 Y14.6000
X12.2000 Y19.8000
X9.4000 Y26.6000
X8.8000 Y30.0000
X9.0000 Y35.4000
X10.4000 Y40.6000
X13.0000 Y45.4000
X16.8000 Y49.6000
X20.8000 Y52.4000
X24.4000 Y54.0000
X30.2000 Y55.2000
X37.4000 Y54.6000
X43.2000 Y52.4000
X47.2000 Y49.6000
X51.8000 Y44.2000
X54.6000 Y37.4000
X55.2000 Y30.0000
X54.2000 Y25.0000
X51.4000 Y19.2000
X47.4000 Y14.6000
X42.4000 Y11.2000
X35.4000 Y9.0000
X28.6000
X21.6000 Y11.2000
X16.6000 Y14.6000
Z1.0000
X22.4000 Y20.0000
Z-15.5000
Z-18.0000 F900
X28.4000 Y17.0000 F1500
X34.6000 Y16.8000
X37.0000 Y17.4000
X40.8000 Y19.4000
X44.0000 Y22.4000
X46.0000 Y25.6000
X47.2000 Y29.4000
Y34.6000
X46.4000 Y37.4000
X44.6000 Y40.8000
X41.6000 Y44.0000
X38.4000 Y46.0000
X34.6000 Y47.2000
X29.4000
X26.6000 Y46.4000
X23.2000 Y44.6000
X20.0000 Y41.6000
X17.0000 Y35.6000
X17.2000 Y27.8000
X19.0000 Y23.8000
X22.4000 Y20.0000
X24.0000 Y21.8000
X29.4000 Y19.2000
X36.0000 Y19.6000
X39.2000 Y21.2000
X42.2000 Y24.0000
X43.6000 Y26.2000
X44.8000 Y30.0000
Y34.0000
X44.0000 Y36.8000
X42.8000 Y39.2000
X40.0000 Y42.2000
X34.6000 Y44.8000
X29.4000
X27.6000 Y44.2000
X24.8000 Y42.8000
X21.8000 Y40.0000
X20.4000 Y37.8000
X19.2000 Y34.0000
Y30.0000
X20.4000 Y26.2000
X24.0000 Y21.8000
X25.6000 Y23.6000
X29.8000 Y21.6000
X35.0000 Y21.8000
X37.6000 Y23.0000
X40.4000 Y25.6000
X42.4000 Y30.6000
X41.6000 Y36.2000
X38.4000 Y40.4000
X34.2000 Y42.4000
X28.6000 Y42.0000
X26.4000 Y41.0000
X23.6000 Y38.4000
X21.6000 Y33.4000
X22.2000 Y28.4000
X23.0000 Y26.4000
X25.6000 Y23.6000
X27.2000 Y25.4000
X30.2000 Y24.0000
X34.0000
X36.8000 Y25.4000
X38.6000 Y27.2000
X40.0000 Y31.2000
X39.2000 Y35.6000
X36.8000 Y38.6000
X33.8000 Y40.0000
X29.6000 Y39.8000
X27.2000 Y38.6000
X25.4000 Y36.8000
X24.0000 Y32.8000
X25.2000 Y27.6000
X27.2000 Y25.4000
X28.2000 Y27.8000
X30.6000 Y26.4000
X33.4000
X36.6000 Y28.6000
X37.6000 Y31.8000
X36.8000 Y35.0000
X35.2000 Y36.8000
X33.4000 Y37.6000
X30.6000
X27.4000 Y35.4000
X26.4000 Y32.2000
X26.8000 Y30.2000
X28.2000 Y27.8000
X30.0000 Y29.4000
X32.8000 Y28.8000
X34.6000 Y30.2000
Y33.8000
X32.8000 Y35.2000
X30.6000 Y35.0000
X29.4000 Y33.8000
X29.0000 Y31.4000
X30.0000 Y29.4000
X27.4000 Y25.8000
Z-20.0000 F900
X24.6000 Y29.6000 F1500
Y34.4000
X25.6000 Y36.4000
X27.6000 Y38.4000
X29.6000 Y39.4000
X33.4000 Y39.6000
X37.2000 Y37.6000
X38.4000 Y36.4000
X39.6000 Y33.4000
X39.4000 Y29.6000
X36.6000 Y25.8000
Y19.0000
X39.2000 Y20.0000
X43.0000 Y23.4000
X44.8000 Y26.4000
X45.8000 Y29.8000
Y34.2000
X44.8000 Y37.6000
X43.0000 Y40.6000
X40.6000 Y43.0000
X37.6000 Y44.8000
X34.2000 Y45.8000
X29.8000
X26.4000 Y44.8000
X23.4000 Y43.0000
X21.0000 Y40.6000
X19.2000 Y37.6000
X18.2000 Y34.2000
Y29.8000
X19.0000 Y27.0000
X20.4000 Y24.2000
X23.4000 Y21.0000
X27.4000 Y19.0000
Y25.8000
X25.0000 Y24.8000
X23.4000 Y26.6000
X22.0000 Y30.0000
Y34.0000
X23.4000 Y37.4000
X26.0000 Y40.2000
X28.6000 Y41.6000
X35.4000
X38.0000 Y40.2000
X40.2000 Y38.0000
X41.8000 Y35.0000
Y29.0000
X39.0000 Y24.8000
X39.4000 Y23.2000
X41.2000 Y25.0000
X43.0000 Y28.6000
X43.4000 Y30.4000
X43.0000 Y35.4000
X41.2000 Y39.0000
X39.0000 Y41.2000
X34.2000 Y43.4000
X29.8000
X25.0000 Y41.2000
X21.6000 Y37.0000
X20.6000 Y33.6000
Y30.4000
X22.0000 Y26.2000
X25.0000 Y23.2000
Y24.8000
Z1.0000
X16.6000 Y14.6000
Z-17.5000
Z-20.0000 F900
X12.2000 Y19.8000 F1500
X9.4000 Y26.6000
X8.8000 Y30.0000
X9.0000 Y35.4000
X10.4000 Y40.6000
X13.0000 Y45.4000
X16.8000 Y49.6000
X20.8000 Y52.4000
X24.4000 Y54.0000
X30.2000 Y55.2000
X37.4000 Y54.6000
X43.2000 Y52.4000
X47.2000 Y49.6000
X51.8000 Y44.2000
X54.6000 Y37.4000
X55.2000 Y30.0000
X54.2000 Y25.0000
X51.4000 Y19.2000
X47.4000 Y14.6000
X42.4000 Y11.2000
X35.4000 Y9.0000
X28.6000
X21.6000 Y11.2000
X16.6000 Y14.6000
X15.6000 Y13.2000
X21.0000 Y9.6000
X26.8000 Y7.6000
X34.0000 Y7.2000
X38.8000 Y8.0000
X44.4000 Y10.4000
X50.6000 Y15.4000
X54.4000 Y21.0000
X56.6000 Y27.4000
X56.8000 Y35.2000
X55.2000 Y41.2000
X51.4000 Y47.6000
X46.8000 Y52.0000
X40.6000 Y55.4000
X34.0000 Y56.8000
X26.8000 Y56.4000
X23.4000 Y55.4000
X17.2000 Y52.0000
X13.4000 Y48.6000
X10.6000 Y44.8000
X7.4000 Y36.6000
X7.2000 Y28.8000
X7.8000 Y25.8000
X10.6000 Y19.2000
X15.6000 Y13.2000
Z-22.0000 F900
X21.0000 Y9.6000 F1500
X26.8000 Y7.6000
X34.0000 Y7.2000
X38.8000 Y8.0000
X44.4000 Y10.4000
X50.6000 Y15.4000
X54.4000 Y21.0000
X56.6000 Y27.4000
X56.8000 Y35.2000
X55.2000 Y41.2000
X51.4000 Y47.6000
X46.8000 Y52.0000
X40.6000 Y55.4000
X34.0000 Y56.8000
X26.8000 Y56.4000
X23.4000 Y55.4000
X17.2000 Y52.0000
X13.4000 Y48.6000
X10.6000 Y44.8000
X7.4000 Y36.6000
X7.2000 Y28.8000
X7.8000 Y25.8000
X10.6000 Y19.2000
X15.6000 Y13.2000
X17.0000 Y14.2000
X12.2000 Y19.8000
X9.4000 Y26.6000
X8.8000 Y30.0000
X9.0000 Y35.4000
X10.4000 Y40.6000
X13.0000 Y45.4000
X16.8000 Y49.6000
X20.8000 Y52.4000
X24.4000 Y54.0000
X30.2000 Y55.2000
X37.4000 Y54.6000
X43.2000 Y52.4000
X47.2000 Y49.6000
X51.8000 Y44.2000
X54.6000 Y37.4000
X55.2000 Y30.0000
X54.2000 Y25.0000
X51.0000 Y18.6000
X46.0000 Y13.4000
X40.6000 Y10.4000
X34.0000 Y8.8000
X28.6000 Y9.0000
X22.0000 Y11.0000
X17.0000 Y14.2000
Z-24.0000 F900
X12.2000 Y19.8000 F1500
X9.4000 Y26.6000
X8.8000 Y30.0000
X9.0000 Y35.4000
X10.4000 Y40.6000
X13.0000 Y45.4000
X16.8000 Y49.6000
X20.8000 Y52.4000
X24.4000 Y54.0000
X30.2000 Y55.2000
X37.4000 Y54.6000
X43.2000 Y52.4000
X47.2000 Y49.6000
X51.8000 Y44.2000
X54.6000 Y37.4000
X55.2000 Y30.0000
X54.2000 Y25.0000
X51.0000 Y18.6000
X46.0000 Y13.4000
X40.6000 Y10.4000
X34.0000 Y8.8000
X28.6000 Y9.0000
X22.0000 Y11.0000
X17.0000 Y14.2000
X15.6000 Y13.2000
X21.0000 Y9.6000
X26.8000 Y7.6000
X34.0000 Y7.2000
X38.8000 Y8.0000
X44.4000 Y10.4000
X50.6000 Y15.4000
X54.4000 Y21.0000
X56.6000 Y27.4000
X56.8000 Y35.2000
X55.2000 Y41.2000
X51.4000 Y47.6000
X46.8000 Y52.0000
X40.6000 Y55.4000
X34.0000 Y56.8000
X26.8000 Y56.4000
X23.4000 Y55.4000
X17.2000 Y52.0000
X13.4000 Y48.6000
X10.6000 Y44.8000
X7.4000 Y36.6000
X7.2000 Y28.8000
X7.8000 Y25.8000
X10.6000 Y19.2000
X15.6000 Y13.2000
G00 Z5.0000
X12.0000 Y12.0000
;*************************************
;Nr. 2 Konturfolgend schlichten: 
;*************************************
T="Fräser 3mm"
L6
S24000 F1200 M3
G01 X12.0000 Y12.0000 Z5.5000 F1200 S24000
X16.2750 Y18.1875
Z0.9500
Z0.0000 F600
X18.5250 Y15.9375 F1200
X22.0125 Y13.5750
X27.1875 Y11.5500
X30.2250 Y11.1000
X33.8250
X39.3375 Y12.3375
X44.0625 Y14.8125
X48.2250 Y18.7500
X51.0375 Y23.2500
X52.7250 Y28.8750
X52.9500 Y31.4625
X52.7250 Y35.1750
X51.0375 Y40.8000
X48.0000 Y45.5250
X43.6125 Y49.4625
X38.8875 Y51.8250
X35.9625 Y52.6125
X32.8125 Y52.9500
X27.5250 Y52.5000
X22.9125 Y50.9250
X18.8625 Y48.3375
X15.7125 Y45.1875
X13.2375 Y41.3625
X11.6625 Y37.0875
X11.1000 Y33.4875
Y30.6750
X11.6625 Y26.9625
X12.9000 Y23.3625
X14.1375 Y21.0000
X16.2750 Y18.1875
Z0.5000
X16.0500 Y19.3125
Z0.0000 F600
X20.3250 Y15.2625 F1200
X25.2750 Y12.6750
X30.2250 Y11.6625
X33.8250
X37.2000 Y12.2250
X40.3500 Y13.3500
X43.0500 Y14.8125
X46.9875 Y18.1875
X50.0250 Y22.4625
X52.0500 Y28.3125
X52.3875 Y31.5750
X52.1625 Y35.0625
X50.7000 Y40.1250
X49.5750 Y42.3750
X47.5500 Y45.1875
X43.2750 Y49.0125
X38.8875 Y51.2625
X35.9625 Y52.0500
X32.8125 Y52.3875
X28.6500 Y52.1625
X24.8250 Y51.1500
X20.4375 Y48.7875
X16.9500 Y45.7500
X14.3625 Y42.2625
X12.6750 Y38.4375
X11.7750 Y34.6125
X11.6625 Y30.5625
X12.1125 Y27.5250
X13.0125 Y24.6000
X14.5875 Y21.3375
X16.0500 Y19.3125
Z0.5000
X17.1750 Y18.8625
Z0.0000 F600
X19.2000 Y16.8375 F1200
X21.6750 Y15.0375
X24.4875 Y13.5750
X27.1875 Y12.6750
X30.2250 Y12.2250
X33.8250
X38.6625 Y13.2375
X43.3875 Y15.7125
X47.3250 Y19.4250
X49.9125 Y23.4750
X51.6000 Y29.1000
X51.8250 Y31.6875
X51.6000 Y34.9500
X50.1375 Y40.0125
X47.1000 Y44.8500
X42.9375 Y48.5625
X37.7625 Y51.0375
X32.8125 Y51.8250
X28.6500 Y51.6000
X23.5875 Y50.0250
X19.5375 Y47.4375
X16.6125 Y44.5125
X14.3625 Y41.0250
X12.7875 Y36.8625
X12.2250 Y33.2625
X12.5625 Y28.3125
X14.0250 Y23.5875
X17.1750 Y18.8625
Z0.5000
X18.3000 Y19.2000
Z0.0000 F600
X15.7125 Y22.6875 F1200
X14.2500 Y25.8375
X13.4625 Y28.8750
X13.2375 Y33.0375
X13.8000 Y36.6375
X15.6000 Y41.0250
X17.2875 Y43.6125
X19.8750 Y46.3125
X22.6875 Y48.2250
X27.4125 Y50.1375
X30.5625 Y50.7000
X33.4875
X36.0750 Y50.2500
X41.1375 Y48.3375
X44.6250 Y45.8625
X48.1125 Y41.5875
X50.1375 Y36.9750
X50.7000 Y33.7125
Y30.2250
X49.3500 Y24.8250
X46.8750 Y20.5500
X42.7125 Y16.6125
X39.1125 Y14.7000
X33.9375 Y13.3500
X31.5750 Y13.2375
X28.2000 Y13.6875
X22.3500 Y15.9375
X18.3000 Y19.2000
Z0.5000
X19.5375 Y18.7500
Z0.0000 F600
X16.1625 Y23.0250 F1200
X14.3625 Y27.4125
X13.8000 Y31.1250
X14.1375 Y35.6250
X15.1500 Y38.8875
X17.0625 Y42.3750
X20.2125 Y45.8625
X23.0250 Y47.7750
X27.4125 Y49.5750
X30.5625 Y50.1375
X35.0625 Y49.9125
X38.3250 Y49.0125
X40.8000 Y47.8875
X44.2875 Y45.4125
X47.6625 Y41.2500
X49.5750 Y36.8625
X50.1375 Y33.6000
Y30.3375
X48.7875 Y24.9375
X46.7625 Y21.3375
X42.3750 Y17.0625
X38.7750 Y15.1500
X33.9375 Y13.9125
X29.3250 Y14.0250
X23.7000 Y15.8250
X19.5375 Y18.7500
Z0.5000
X20.8875 Y18.3000
Z0.0000 F600
X17.6250 Y21.7875 F1200
X15.3750 Y26.0625
X14.3625 Y31.2375
X14.4750 Y34.1625
X15.2625 Y37.6500
X16.7250 Y40.8000
X18.8625 Y43.7250
X22.0125 Y46.5375
X24.7125 Y48.0000
X27.4125 Y49.0125
X30.5625 Y49.5750
X35.0625 Y49.3500
X37.9875 Y48.5625
X40.4625 Y47.4375
X43.9500 Y44.9625
X47.2125 Y40.9125
X49.0125 Y36.7500
X49.5750 Y33.4875
Y30.4500
X48.2250 Y25.0500
X45.3000 Y20.4375
X41.0250 Y16.8375
X36.3000 Y14.9250
X31.5750 Y14.3625
X25.9500 Y15.4875
X23.0250 Y16.8375
X20.8875 Y18.3000
Z0.5000
X19.6500 Y20.2125
Z-0.4490 F600
X17.0625 Y23.7000 F1200
X15.2625 Y28.6500
X14.9250 Y31.9125
X15.2625 Y35.4000
X16.2750 Y38.6625
X18.6375 Y42.6000
X20.8875 Y44.9625
X23.7000 Y46.8750
X27.4125 Y48.4500
X30.5625 Y49.0125
X35.0625 Y48.7875
X37.6500 Y48.1125
X40.1250 Y46.9875
X43.6125 Y44.5125
X46.7625 Y40.5750
X48.4500 Y36.6375
X49.0125 Y33.3750
Y30.5625
X47.6625 Y25.1625
X45.5250 Y21.5625
X41.7000 Y17.9625
X38.1000 Y16.0500
X32.4750 Y14.9250
X28.2000 Y15.3750
X23.3625 Y17.2875
X19.6500 Y20.2125
Z0.5000
X15.8250 Y17.8500
Z-0.4490 F600
X18.1875 Y15.4875 F1200
X20.6625 Y13.6875
X25.6125 Y11.4375
X30.2250 Y10.5375
X33.8250
X37.2000 Y11.1000
X41.0250 Y12.4500
X43.7250 Y13.9125
X47.8875 Y17.5125
X50.1375 Y20.4375
X51.6000 Y23.1375
X53.2875 Y28.7625
X53.5125 Y31.3500
X53.2875 Y35.2875
X51.6000 Y40.9125
X48.4500 Y45.8625
X43.9500 Y49.9125
X38.8875 Y52.3875
X35.9625 Y53.1750
X32.8125 Y53.5125
X28.6500 Y53.2875
X24.1500 Y52.0500
X19.7625 Y49.6875
X16.0500 Y46.4250
X12.7875 Y41.7000
X11.1000 Y37.2000
X10.5375 Y33.6000
X10.7625 Y28.5375
X12.3375 Y23.2500
X13.6875 Y20.6625
X15.8250 Y17.8500
Z-0.8990 F600
X18.1875 Y15.4875 F1200
X20.6625 Y13.6875
X25.6125 Y11.4375
X30.2250 Y10.5375
X33.8250
X37.2000 Y11.1000
X41.0250 Y12.4500
X43.7250 Y13.9125
X47.8875 Y17.5125
X50.1375 Y20.4375
X51.6000 Y23.1375
X53.2875 Y28.7625
X53.5125 Y31.3500
X53.2875 Y35.2875
X51.6000 Y40.9125
X48.4500 Y45.8625
X43.9500 Y49.9125
X38.8875 Y52.3875
X35.9625 Y53.1750
X32.8125 Y53.5125
X28.6500 Y53.2875
X24.1500 Y52.0500
X19.7625 Y49.6875
X16.0500 Y46.4250
X12.7875 Y41.7000
X11.1000 Y37.2000
X10.5375 Y33.6000
X10.7625 Y28.5375
X12.3375 Y23.2500
X13.6875 Y20.6625
X15.8250 Y17.8500
Z0.5000
X19.6500 Y20.2125
Z0.0510
Z-0.8990 F600
X17.0625 Y23.7000 F1200
X15.2625 Y28.6500
X14.9250 Y31.9125
X15.2625 Y35.4000
X16.2750 Y38.6625
X18.6375 Y42.6000
X20.8875 Y44.9625
X23.7000 Y46.8750
X27.4125 Y48.4500
X30.5625 Y49.0125
X35.0625 Y48.7875
X37.6500 Y48.1125
X40.1250 Y46.9875
X43.6125 Y44.5125
X46.7625 Y40.5750
X48.4500 Y36.6375
X49.0125 Y33.3750
Y30.5625
X47.6625 Y25.1625
X45.5250 Y21.5625
X41.7000 Y17.9625
X38.1000 Y16.0500
X32.4750 Y14.9250
X28.2000 Y15.3750
X23.3625 Y17.2875
X19.6500 Y20.2125
Z-1.3490 F600
X17.0625 Y23.7000 F1200
X15.2625 Y28.6500
X14.9250 Y31.9125
X15.2625 Y35.4000
X16.2750 Y38.6625
X18.6375 Y42.6000
X20.8875 Y44.9625
X23.7000 Y46.8750
X27.4125 Y48.4500
X30.5625 Y49.0125
X35.0625 Y48.7875
X37.6500 Y48.1125
X40.1250 Y46.9875
X43.6125 Y44.5125
X46.7625 Y40.5750
X48.4500 Y36.6375
X49.0125 Y33.3750
Y30.5625
X47.6625 Y25.1625
X45.5250 Y21.5625
X41.7000 Y17.9625
X38.1000 Y16.0500
X32.4750 Y14.9250
X28.2000 Y15.3750
X23.3625 Y17.2875
X19.6500 Y20.2125
Z0.5000
X15.8250 Y17.8500
Z-0.3990
Z-1.3490 F600
X18.1875 Y15.4875 F1200
X20.6625 Y13.6875
X25.6125 Y11.4375
X30.2250 Y10.5375
X33.8250
X37.2000 Y11.1000
X41.0250 Y12.4500
X43.7250 Y13.9125
X47.8875 Y17.5125
X50.1375 Y20.4375
X51.6000 Y23.1375
X53.2875 Y28.7625
X53.5125 Y31.3500
X53.2875 Y35.2875
X51.6000 Y40.9125
X48.4500 Y45.8625
X43.9500 Y49.9125
X38.8875 Y52.3875
X35.9625 Y53.1750
X32.8125 Y53.5125
X28.6500 Y53.2875
X24.1500 Y52.0500
X19.7625 Y49.6875
X16.0500 Y46.4250
X12.7875 Y41.7000
X11.1000 Y37.2000
X10.5375 Y33.6000
X10.7625 Y28.5375
X12.3375 Y23.2500
X13.6875 Y20.6625
X15.8250 Y17.8500
Z-1.7990 F600
X18.1875 Y15.4875 F1200
X20.6625 Y13.6875
X25.6125 Y11.4375
X30.2250 Y10.5375
X33.8250
X37.2000 Y11.1000
X41.0250 Y12.4500
X43.7250 Y13.9125
X47.8875 Y17.5125
X50.1375 Y20.4375
X51.6000 Y23.1375
X53.2875 Y28.7625
X53.5125 Y31.3500
X53.2875 Y35.2875
X51.6000 Y40.9125
X48.4500 Y45.8625
X43.9500 Y49.9125
X38.8875 Y52.3875
X35.9625 Y53.1750
X32.8125 Y53.5125
X28.6500 Y53.2875
X24.1500 Y52.0500
X19.7625 Y49.6875
X16.0500 Y46.4250
X12.7875 Y41.7000
X11.1000 Y37.2000
X10.5375 Y33.6000
X10.7625 Y28.5375
X12.3375 Y23.2500
X13.6875 Y20.6625
X15.8250 Y17.8500
Z0.5000
X19.6500 Y20.2125
Z-0.8490
Z-1.7990 F600
X17.0625 Y23.7000 F1200
X15.2625 Y28.6500
X14.9250 Y31.9125
X15.2625 Y35.4000
X16.2750 Y38.6625
X18.6375 Y42.6000
X20.8875 Y44.9625
X23.7000 Y46.8750
X27.4125 Y48.4500
X30.5625 Y49.0125
X35.0625 Y48.7875
X37.6500 Y48.1125
X40.1250 Y46.9875
X43.6125 Y44.5125
X46.7625 Y40.5750
X48.4500 Y36.6375
X49.0125 Y33.3750
Y30.5625
X47.6625 Y25.1625
X45.5250 Y21.5625
X41.7000 Y17.9625
X38.1000 Y16.0500
X32.4750 Y14.9250
X28.2000 Y15.3750
X23.3625 Y17.2875
X19.6500 Y20.2125
Z-2.2490 F600
X17.0625 Y23.7000 F1200
X15.2625 Y28.6500
X14.9250 Y31.9125
X15.2625 Y35.4000
X16.2750 Y38.6625
X18.6375 Y42.6000
X20.8875 Y44.9625
X23.7000 Y46.8750
X27.4125 Y48.4500
X30.5625 Y49.0125
X35.0625 Y48.7875
X37.6500 Y48.1125
X40.1250 Y46.9875
X43.6125 Y44.5125
X46.7625 Y40.5750
X48.4500 Y36.6375
X49.0125 Y33.3750
Y30.5625
X47.6625 Y25.1625
X45.5250 Y21.5625
X41.7000 Y17.9625
X38.1000 Y16.0500
X32.4750 Y14.9250
X28.2000 Y15.3750
X23.3625 Y17.2875
X19.6500 Y20.2125
Z0.5000
X15.8250 Y17.8500
Z-1.2990
Z-2.2490 F600
X18.1875 Y15.4875 F1200
X20.6625 Y13.6875
X25.6125 Y11.4375
X30.2250 Y10.5375
X33.8250
X37.2000 Y11.1000
X41.0250 Y12.4500
X43.7250 Y13.9125
X47.8875 Y17.5125
X50.1375 Y20.4375
X51.6000 Y23.1375
X53.2875 Y28.7625
X53.5125 Y31.3500
X53.2875 Y35.2875
X51.6000 Y40.9125
X48.4500 Y45.8625
X43.9500 Y49.9125
X38.8875 Y52.3875
X35.9625 Y53.1750
X32.8125 Y53.5125
X28.6500 Y53.2875
X24.1500 Y52.0500
X19.7625 Y49.6875
X16.0500 Y46.4250
X12.7875 Y41.7000
X11.1000 Y37.2000
X10.5375 Y33.6000
X10.7625 Y28.5375
X12.3375 Y23.2500
X13.6875 Y20.6625
X15.8250 Y17.8500
Z-2.6990 F600
X18.1875 Y15.4875 F1200
X20.6625 Y13.6875
X25.6125 Y11.4375
X30.2250 Y10.5375
X33.8250
X37.2000 Y11.1000
X41.0250 Y12.4500
X43.7250 Y13.9125
X47.8875 Y17.5125
X50.1375 Y20.4375
X51.6000 Y23.1375
X53.2875 Y28.7625
X53.5125 Y31.3500
X53.2875 Y35.2875
X51.6000 Y40.9125
X48.4500 Y45.8625
X43.9500 Y49.9125
X38.8875 Y52.3875
X35.9625 Y53.1750
X32.8125 Y53.5125
X28.6500 Y53.2875
X24.1500 Y52.0500
X19.7625 Y49.6875
X16.0500 Y46.4250
X12.7875 Y41.7000
X11.1000 Y37.2000
X10.5375 Y33.6000
X10.7625 Y28.5375
X12.3375 Y23.2500
X13.6875 Y20.6625
X15.8250 Y17.8500
Z0.5000
X19.6500 Y20.2125
Z-1.7490
Z-2.6990 F600
X17.0625 Y23.7000 F1200
X15.2625 Y28.6500
X14.9250 Y31.9125
X15.2625 Y35.4000
X16.2750 Y38.6625
X18.6375 Y42.6000
X20.8875 Y44.9625
X23.7000 Y46.8750
X27.4125 Y48.4500
X30.5625 Y49.0125
X35.0625 Y48.7875
X37.6500 Y48.1125
X40.1250 Y46.9875
X43.6125 Y44.5125
X46.7625 Y40.5750
X48.4500 Y36.6375
X49.0125 Y33.3750
Y30.5625
X47.6625 Y25.1625
X45.5250 Y21.5625
X41.7000 Y17.9625
X38.1000 Y16.0500
X32.4750 Y14.9250
X28.2000 Y15.3750
X23.3625 Y17.2875
X19.6500 Y20.2125
Z-3.1490 F600
X17.0625 Y23.7000 F1200
X15.2625 Y28.6500
X14.9250 Y31.9125
X15.2625 Y35.4000
X16.2750 Y38.6625
X18.6375 Y42.6000
X20.8875 Y44.9625
X23.7000 Y46.8750
X27.4125 Y48.4500
X30.5625 Y49.0125
X35.0625 Y48.7875
X37.6500 Y48.1125
X40.1250 Y46.9875
X43.6125 Y44.5125
X46.7625 Y40.5750
X48.4500 Y36.6375
X49.0125 Y33.3750
Y30.5625
X47.6625 Y25.1625
X45.5250 Y21.5625
X41.7000 Y17.9625
X38.1000 Y16.0500
X32.4750 Y14.9250
X28.2000 Y15.3750
X23.3625 Y17.2875
X19.6500 Y20.2125
Z0.5000
X15.8250 Y17.8500
Z-2.1990
Z-3.1490 F600
X18.1875 Y15.4875 F1200
X20.6625 Y13.6875
X25.6125 Y11.4375
X30.2250 Y10.5375
X33.8250
X37.2000 Y11.1000
X41.0250 Y12.4500
X43.7250 Y13.9125
X47.8875 Y17.5125
X50.1375 Y20.4375
X51.6000 Y23.1375
X53.2875 Y28.7625
X53.5125 Y31.3500
X53.2875 Y35.2875
X51.6000 Y40.9125
X48.4500 Y45.8625
X43.9500 Y49.9125
X38.8875 Y52.3875
X35.9625 Y53.1750
X32.8125 Y53.5125
X28.6500 Y53.2875
X24.1500 Y52.0500
X19.7625 Y49.6875
X16.0500 Y46.4250
X12.7875 Y41.7000
X11.1000 Y37.2000
X10.5375 Y33.6000
X10.7625 Y28.5375
X12.3375 Y23.2500
X13.6875 Y20.6625
X15.8250 Y17.8500
Z-3.5990 F600
X18.1875 Y15.4875 F1200
X20.6625 Y13.6875
X25.6125 Y11.4375
X30.2250 Y10.5375
X33.8250
X37.2000 Y11.1000
X41.0250 Y12.4500
X43.7250 Y13.9125
X47.8875 Y17.5125
X50.1375 Y20.4375
X51.6000 Y23.1375
X53.2875 Y28.7625
X53.5125 Y31.3500
X53.2875 Y35.2875
X51.6000 Y40.9125
X48.4500 Y45.8625
X43.9500 Y49.9125
X38.8875 Y52.3875
X35.9625 Y53.1750
X32.8125 Y53.5125
X28.6500 Y53.2875
X24.1500 Y52.0500
X19.7625 Y49.6875
X16.0500 Y46.4250
X12.7875 Y41.7000
X11.1000 Y37.2000
X10.5375 Y33.6000
X10.7625 Y28.5375
X12.3375 Y23.2500
X13.6875 Y20.6625
X15.8250 Y17.8500
Z0.5000
X19.6500 Y20.2125
Z-2.6490
Z-3.5990 F600
X17.0625 Y23.7000 F1200
X15.2625 Y28.6500
X14.9250 Y31.9125
X15.2625 Y35.4000
X16.2750 Y38.6625
X18.6375 Y42.6000
X20.8875 Y44.9625
X23.7000 Y46.8750
X27.4125 Y48.4500
X30.5625 Y49.0125
X35.0625 Y48.7875
X37.6500 Y48.1125
X40.1250 Y46.9875
X43.6125 Y44.5125
X46.7625 Y40.5750
X48.4500 Y36.6375
X49.0125 Y33.3750
Y30.5625
X47.6625 Y25.1625
X45.5250 Y21.5625
X41.7000 Y17.9625
X38.1000 Y16.0500
X32.4750 Y14.9250
X28.2000 Y15.3750
X23.3625 Y17.2875
X19.6500 Y20.2125
Z-4.0490 F600
X17.0625 Y23.7000 F1200
X15.2625 Y28.6500
X14.9250 Y31.9125
X15.2625 Y35.4000
X16.2750 Y38.6625
X18.6375 Y42.6000
X20.8875 Y44.9625
X23.7000 Y46.8750
X27.4125 Y48.4500
X30.5625 Y49.0125
X35.0625 Y48.7875
X37.6500 Y48.1125
X40.1250 Y46.9875
X43.6125 Y44.5125
X46.7625 Y40.5750
X48.4500 Y36.6375
X49.0125 Y33.3750
Y30.5625
X47.6625 Y25.1625
X45.5250 Y21.5625
X41.7000 Y17.9625
X38.1000 Y16.0500
X32.4750 Y14.9250
X28.2000 Y15.3750
X23.3625 Y17.2875
X19.6500 Y20.2125
Z0.5000
X15.8250 Y17.8500
Z-3.0990
Z-4.0490 F600
X18.1875 Y15.4875 F1200
X20.6625 Y13.6875
X25.6125 Y11.4375
X30.2250 Y10.5375
X33.8250
X37.2000 Y11.1000
X41.0250 Y12.4500
X43.7250 Y13.9125
X47.8875 Y17.5125
X50.1375 Y20.4375
X51.6000 Y23.1375
X53.2875 Y28.7625
X53.5125 Y31.3500
X53.2875 Y35.2875
X51.6000 Y40.9125
X48.4500 Y45.8625
X43.9500 Y49.9125
X38.8875 Y52.3875
X35.9625 Y53.1750
X32.8125 Y53.5125
X28.6500 Y53.2875
X24.1500 Y52.0500
X19.7625 Y49.6875
X16.0500 Y46.4250
X12.7875 Y41.7000
X11.1000 Y37.2000
X10.5375 Y33.6000
X10.7625 Y28.5375
X12.3375 Y23.2500
X13.6875 Y20.6625
X15.8250 Y17.8500
Z-4.4990 F600
X18.1875 Y15.4875 F1200
X20.6625 Y13.6875
X25.6125 Y11.4375
X30.2250 Y10.5375
X33.8250
X37.2000 Y11.1000
X41.0250 Y12.4500
X43.7250 Y13.9125
X47.8875 Y17.5125
X50.1375 Y20.4375
X51.6000 Y23.1375
X53.2875 Y28.7625
X53.5125 Y31.3500
X53.2875 Y35.2875
X51.6000 Y40.9125
X48.4500 Y45.8625
X43.9500 Y49.9125
X38.8875 Y52.3875
X35.9625 Y53.1750
X32.8125 Y53.5125
X28.6500 Y53.2875
X24.1500 Y52.0500
X19.7625 Y49.6875
X16.0500 Y46.4250
X12.7875 Y41.7000
X11.1000 Y37.2000
X10.5375 Y33.6000
X10.7625 Y28.5375
X12.3375 Y23.2500
X13.6875 Y20.6625
X15.8250 Y17.8500
Z0.5000
X19.6500 Y20.2125
Z-3.5490
Z-4.4990 F600
X17.0625 Y23.7000 F1200
X15.2625 Y28.6500
X14.9250 Y31.9125
X15.2625 Y35.4000
X16.2750 Y38.6625
X18.6375 Y42.6000
X20.8875 Y44.9625
X23.7000 Y46.8750
X27.4125 Y48.4500
X30.5625 Y49.0125
X35.0625 Y48.7875
X37.6500 Y48.1125
X40.1250 Y46.9875
X43.6125 Y44.5125
X46.7625 Y40.5750
X48.4500 Y36.6375
X49.0125 Y33.3750
Y30.5625
X47.6625 Y25.1625
X45.5250 Y21.5625
X41.7000 Y17.9625
X38.1000 Y16.0500
X32.4750 Y14.9250
X28.2000 Y15.3750
X23.3625 Y17.2875
X19.6500 Y20.2125
Z-4.9490 F600
X17.0625 Y23.7000 F1200
X15.2625 Y28.6500
X14.9250 Y31.9125
X15.2625 Y35.4000
X16.2750 Y38.6625
X18.6375 Y42.6000
X20.8875 Y44.9625
X23.7000 Y46.8750
X27.4125 Y48.4500
X30.5625 Y49.0125
X35.0625 Y48.7875
X37.6500 Y48.1125
X40.1250 Y46.9875
X43.6125 Y44.5125
X46.7625 Y40.5750
X48.4500 Y36.6375
X49.0125 Y33.3750
Y30.5625
X47.6625 Y25.1625
X45.5250 Y21.5625
X41.7000 Y17.9625
X38.1000 Y16.0500
X32.4750 Y14.9250
X28.2000 Y15.3750
X23.3625 Y17.2875
X19.6500 Y20.2125
Z0.5000
X15.8250 Y17.8500
Z-3.9990
Z-4.9490 F600
X18.1875 Y15.4875 F1200
X20.6625 Y13.6875
X25.6125 Y11.4375
X30.2250 Y10.5375
X33.8250
X37.2000 Y11.1000
X41.0250 Y12.4500
X43.7250 Y13.9125
X47.8875 Y17.5125
X50.1375 Y20.4375
X51.6000 Y23.1375
X53.2875 Y28.7625
X53.5125 Y31.3500
X53.2875 Y35.2875
X51.6000 Y40.9125
X48.4500 Y45.8625
X43.9500 Y49.9125
X38.8875 Y52.3875
X35.9625 Y53.1750
X32.8125 Y53.5125
X28.6500 Y53.2875
X24.1500 Y52.0500
X19.7625 Y49.6875
X16.0500 Y46.4250
X12.7875 Y41.7000
X11.1000 Y37.2000
X10.5375 Y33.6000
X10.7625 Y28.5375
X12.3375 Y23.2500
X13.6875 Y20.6625
X15.8250 Y17.8500
Z-5.3990 F600
X18.1875 Y15.4875 F1200
X20.6625 Y13.6875
X25.6125 Y11.4375
X30.2250 Y10.5375
X33.8250
X37.2000 Y11.1000
X41.0250 Y12.4500
X43.7250 Y13.9125
X47.8875 Y17.5125
X50.1375 Y20.4375
X51.6000 Y23.1375
X53.2875 Y28.7625
X53.5125 Y31.3500
X53.2875 Y35.2875
X51.6000 Y40.9125
X48.4500 Y45.8625
X43.9500 Y49.9125
X38.8875 Y52.3875
X35.9625 Y53.1750
X32.8125 Y53.5125
X28.6500 Y53.2875
X24.1500 Y52.0500
X19.7625 Y49.6875
X16.0500 Y46.4250
X12.7875 Y41.7000
X11.1000 Y37.2000
X10.5375 Y33.6000
X10.7625 Y28.5375
X12.3375 Y23.2500
X13.6875 Y20.6625
X15.8250 Y17.8500
Z0.5000
X19.6500 Y20.2125
Z-4.4490
Z-5.3990 F600
X17.0625 Y23.7000 F1200
X15.2625 Y28.6500
X14.9250 Y31.9125
X15.2625 Y35.4000
X16.2750 Y38.6625
X18.6375 Y42.6000
X20.8875 Y44.9625
X23.7000 Y46.8750
X27.4125 Y48.4500
X30.5625 Y49.0125
X35.0625 Y48.7875
X37.6500 Y48.1125
X40.1250 Y46.9875
X43.6125 Y44.5125
X46.7625 Y40.5750
X48.4500 Y36.6375
X49.0125 Y33.3750
Y30.5625
X47.6625 Y25.1625
X45.5250 Y21.5625
X41.7000 Y17.9625
X38.1000 Y16.0500
X32.4750 Y14.9250
X28.2000 Y15.3750
X23.3625 Y17.2875
X19.6500 Y20.2125
Z-5.8490 F600
X17.0625 Y23.7000 F1200
X15.2625 Y28.6500
X14.9250 Y31.9125
X15.2625 Y35.4000
X16.2750 Y38.6625
X18.6375 Y42.6000
X20.8875 Y44.9625
X23.7000 Y46.8750
X27.4125 Y48.4500
X30.5625 Y49.0125
X35.0625 Y48.7875
X37.6500 Y48.1125
X40.1250 Y46.9875
X43.6125 Y44.5125
X46.7625 Y40.5750
X48.4500 Y36.6375
X49.0125 Y33.3750
Y30.5625
X47.6625 Y25.1625
X45.5250 Y21.5625
X41.7000 Y17.9625
X38.1000 Y16.0500
X32.4750 Y14.9250
X28.2000 Y15.3750
X23.3625 Y17.2875
X19.6500 Y20.2125
Z0.5000
X15.8250 Y17.8500
Z-4.8990
Z-5.8490 F600
X18.1875 Y15.4875 F1200
X20.6625 Y13.6875
X25.6125 Y11.4375
X30.2250 Y10.5375
X33.8250
X37.2000 Y11.1000
X41.0250 Y12.4500
X43.7250 Y13.9125
X47.8875 Y17.5125
X50.1375 Y20.4375
X51.6000 Y23.1375
X53.2875 Y28.7625
X53.5125 Y31.3500
X53.2875 Y35.2875
X51.6000 Y40.9125
X48.4500 Y45.8625
X43.9500 Y49.9125
X38.8875 Y52.3875
X35.9625 Y53.1750
X32.8125 Y53.5125
X28.6500 Y53.2875
X24.1500 Y52.0500
X19.7625 Y49.6875
X16.0500 Y46.4250
X12.7875 Y41.7000
X11.1000 Y37.2000
X10.5375 Y33.6000
X10.7625 Y28.5375
X12.3375 Y23.2500
X13.6875 Y20.6625
X15.8250 Y17.8500
Z-6.2990 F600
X18.1875 Y15.4875 F1200
X20.6625 Y13.6875
X25.6125 Y11.4375
X30.2250 Y10.5375
X33.8250
X37.2000 Y11.1000
X41.0250 Y12.4500
X43.7250 Y13.9125
X47.8875 Y17.5125
X50.1375 Y20.4375
X51.6000 Y23.1375
X53.2875 Y28.7625
X53.5125 Y31.3500
X53.2875 Y35.2875
X51.6000 Y40.9125
X48.4500 Y45.8625
X43.9500 Y49.9125
X38.8875 Y52.3875
X35.9625 Y53.1750
X32.8125 Y53.5125
X28.6500 Y53.2875
X24.1500 Y52.0500
X19.7625 Y49.6875
X16.0500 Y46.4250
X12.7875 Y41.7000
X11.1000 Y37.2000
X10.5375 Y33.6000
X10.7625 Y28.5375
X12.3375 Y23.2500
X13.6875 Y20.6625
X15.8250 Y17.8500
Z0.5000
X19.6500 Y20.2125
Z-5.3490
Z-6.2990 F600
X17.0625 Y23.7000 F1200
X15.2625 Y28.6500
X14.9250 Y31.9125
X15.2625 Y35.4000
X16.2750 Y38.6625
X18.6375 Y42.6000
X20.8875 Y44.9625
X23.7000 Y46.8750
X27.4125 Y48.4500
X30.5625 Y49.0125
X35.0625 Y48.7875
X37.6500 Y48.1125
X40.1250 Y46.9875
X43.6125 Y44.5125
X46.7625 Y40.5750
X48.4500 Y36.6375
X49.0125 Y33.3750
Y30.5625
X47.6625 Y25.1625
X45.5250 Y21.5625
X41.7000 Y17.9625
X38.1000 Y16.0500
X32.4750 Y14.9250
X28.2000 Y15.3750
X23.3625 Y17.2875
X19.6500 Y20.2125
Z-6.7490 F600
X17.0625 Y23.7000 F1200
X15.2625 Y28.6500
X14.9250 Y31.9125
X15.2625 Y35.4000
X16.2750 Y38.6625
X18.6375 Y42.6000
X20.8875 Y44.9625
X23.7000 Y46.8750
X27.4125 Y48.4500
X30.5625 Y49.0125
X35.0625 Y48.7875
X37.6500 Y48.1125
X40.1250 Y46.9875
X43.6125 Y44.5125
X46.7625 Y40.5750
X48.4500 Y36.6375
X49.0125 Y33.3750
Y30.5625
X47.6625 Y25.1625
X45.5250 Y21.5625
X41.7000 Y17.9625
X38.1000 Y16.0500
X32.4750 Y14.9250
X28.2000 Y15.3750
X23.3625 Y17.2875
X19.6500 Y20.2125
Z0.5000
X15.8250 Y17.8500
Z-5.7990
Z-6.7490 F600
X18.1875 Y15.4875 F1200
X20.6625 Y13.6875
X25.6125 Y11.4375
X30.2250 Y10.5375
X33.8250
X37.2000 Y11.1000
X41.0250 Y12.4500
X43.7250 Y13.9125
X47.8875 Y17.5125
X50.1375 Y20.4375
X51.6000 Y23.1375
X53.2875 Y28.7625
X53.5125 Y31.3500
X53.2875 Y35.2875
X51.6000 Y40.9125
X48.4500 Y45.8625
X43.9500 Y49.9125
X38.8875 Y52.3875
X35.9625 Y53.1750
X32.8125 Y53.5125
X28.6500 Y53.2875
X24.1500 Y52.0500
X19.7625 Y49.6875
X16.0500 Y46.4250
X12.7875 Y41.7000
X11.1000 Y37.2000
X10.5375 Y33.6000
X10.7625 Y28.5375
X12.3375 Y23.2500
X13.6875 Y20.6625
X15.8250 Y17.8500
Z-7.1990 F600
X18.1875 Y15.4875 F1200
X20.6625 Y13.6875
X25.6125 Y11.4375
X30.2250 Y10.5375
X33.8250
X37.2000 Y11.1000
X41.0250 Y12.4500
X43.7250 Y13.9125
X47.8875 Y17.5125
X50.1375 Y20.4375
X51.6000 Y23.1375
X53.2875 Y28.7625
X53.5125 Y31.3500
X53.2875 Y35.2875
X51.6000 Y40.9125
X48.4500 Y45.8625
X43.9500 Y49.9125
X38.8875 Y52.3875
X35.9625 Y53.1750
X32.8125 Y53.5125
X28.6500 Y53.2875
X24.1500 Y52.0500
X19.7625 Y49.6875
X16.0500 Y46.4250
X12.7875 Y41.7000
X11.1000 Y37.2000
X10.5375 Y33.6000
X10.7625 Y28.5375
X12.3375 Y23.2500
X13.6875 Y20.6625
X15.8250 Y17.8500
Z0.5000
X19.6500 Y20.2125
Z-6.2490
Z-7.1990 F600
X17.0625 Y23.7000 F1200
X15.2625 Y28.6500
X14.9250 Y31.9125
X15.2625 Y35.4000
X16.2750 Y38.6625
X18.6375 Y42.6000
X20.8875 Y44.9625
X23.7000 Y46.8750
X27.4125 Y48.4500
X30.5625 Y49.0125
X35.0625 Y48.7875
X37.6500 Y48.1125
X40.1250 Y46.9875
X43.6125 Y44.5125
X46.7625 Y40.5750
X48.4500 Y36.6375
X49.0125 Y33.3750
Y30.5625
X47.6625 Y25.1625
X45.5250 Y21.5625
X41.7000 Y17.9625
X38.1000 Y16.0500
X32.4750 Y14.9250
X28.2000 Y15.3750
X23.3625 Y17.2875
X19.6500 Y20.2125
Z-7.6490 F600
X17.0625 Y23.7000 F1200
X15.2625 Y28.6500
X14.9250 Y31.9125
X15.2625 Y35.4000
X16.2750 Y38.6625
X18.6375 Y42.6000
X20.8875 Y44.9625
X23.7000 Y46.8750
X27.4125 Y48.4500
X30.5625 Y49.0125
X35.0625 Y48.7875
X37.6500 Y48.1125
X40.1250 Y46.9875
X43.6125 Y44.5125
X46.7625 Y40.5750
X48.4500 Y36.6375
X49.0125 Y33.3750
Y30.5625
X47.6625 Y25.1625
X45.5250 Y21.5625
X41.7000 Y17.9625
X38.1000 Y16.0500
X32.4750 Y14.9250
X28.2000 Y15.3750
X23.3625 Y17.2875
X19.6500 Y20.2125
Z0.5000
X15.8250 Y17.8500
Z-6.6990
Z-7.6490 F600
X18.1875 Y15.4875 F1200
X20.6625 Y13.6875
X25.6125 Y11.4375
X30.2250 Y10.5375
X33.8250
X37.2000 Y11.1000
X41.0250 Y12.4500
X43.7250 Y13.9125
X47.8875 Y17.5125
X50.1375 Y20.4375
X51.6000 Y23.1375
X53.2875 Y28.7625
X53.5125 Y31.3500
X53.2875 Y35.2875
X51.6000 Y40.9125
X48.4500 Y45.8625
X43.9500 Y49.9125
X38.8875 Y52.3875
X35.9625 Y53.1750
X32.8125 Y53.5125
X28.6500 Y53.2875
X24.1500 Y52.0500
X19.7625 Y49.6875
X16.0500 Y46.4250
X12.7875 Y41.7000
X11.1000 Y37.2000
X10.5375 Y33.6000
X10.7625 Y28.5375
X12.3375 Y23.2500
X13.6875 Y20.6625
X15.8250 Y17.8500
Z-8.0990 F600
X18.1875 Y15.4875 F1200
X20.6625 Y13.6875
X25.6125 Y11.4375
X30.2250 Y10.5375
X33.8250
X37.2000 Y11.1000
X41.0250 Y12.4500
X43.7250 Y13.9125
X47.8875 Y17.5125
X50.1375 Y20.4375
X51.6000 Y23.1375
X53.2875 Y28.7625
X53.5125 Y31.3500
X53.2875 Y35.2875
X51.6000 Y40.9125
X48.4500 Y45.8625
X43.9500 Y49.9125
X38.8875 Y52.3875
X35.9625 Y53.1750
X32.8125 Y53.5125
X28.6500 Y53.2875
X24.1500 Y52.0500
X19.7625 Y49.6875
X16.0500 Y46.4250
X12.7875 Y41.7000
X11.1000 Y37.2000
X10.5375 Y33.6000
X10.7625 Y28.5375
X12.3375 Y23.2500
X13.6875 Y20.6625
X15.8250 Y17.8500
Z0.5000
X19.6500 Y20.2125
Z-7.1490
Z-8.0990 F600
X17.0625 Y23.7000 F1200
X15.2625 Y28.6500
X14.9250 Y31.9125
X15.2625 Y35.4000
X16.2750 Y38.6625
X18.6375 Y42.6000
X20.8875 Y44.9625
X23.7000 Y46.8750
X27.4125 Y48.4500
X30.5625 Y49.0125
X35.0625 Y48.7875
X37.6500 Y48.1125
X40.1250 Y46.9875
X43.6125 Y44.5125
X46.7625 Y40.5750
X48.4500 Y36.6375
X49.0125 Y33.3750
Y30.5625
X47.6625 Y25.1625
X45.5250 Y21.5625
X41.7000 Y17.9625
X38.1000 Y16.0500
X32.4750 Y14.9250
X28.2000 Y15.3750
X23.3625 Y17.2875
X19.6500 Y20.2125
Z-8.5490 F600
X17.0625 Y23.7000 F1200
X15.2625 Y28.6500
X14.9250 Y31.9125
X15.2625 Y35.4000
X16.2750 Y38.6625
X18.6375 Y42.6000
X20.8875 Y44.9625
X23.7000 Y46.8750
X27.4125 Y48.4500
X30.5625 Y49.0125
X35.0625 Y48.7875
X37.6500 Y48.1125
X40.1250 Y46.9875
X43.6125 Y44.5125
X46.7625 Y40.5750
X48.4500 Y36.6375
X49.0125 Y33.3750
Y30.5625
X47.6625 Y25.1625
X45.5250 Y21.5625
X41.7000 Y17.9625
X38.1000 Y16.0500
X32.4750 Y14.9250
X28.2000 Y15.3750
X23.3625 Y17.2875
X19.6500 Y20.2125
Z0.5000
X15.8250 Y17.8500
Z-7.5990
Z-8.5490 F600
X18.1875 Y15.4875 F1200
X20.6625 Y13.6875
X25.6125 Y11.4375
X30.2250 Y10.5375
X33.8250
X37.2000 Y11.1000
X41.0250 Y12.4500
X43.7250 Y13.9125
X47.8875 Y17.5125
X50.1375 Y20.4375
X51.6000 Y23.1375
X53.2875 Y28.7625
X53.5125 Y31.3500
X53.2875 Y35.2875
X51.6000 Y40.9125
X48.4500 Y45.8625
X43.9500 Y49.9125
X38.8875 Y52.3875
X35.9625 Y53.1750
X32.8125 Y53.5125
X28.6500 Y53.2875
X24.1500 Y52.0500
X19.7625 Y49.6875
X16.0500 Y46.4250
X12.7875 Y41.7000
X11.1000 Y37.2000
X10.5375 Y33.6000
X10.7625 Y28.5375
X12.3375 Y23.2500
X13.6875 Y20.6625
X15.8250 Y17.8500
Z-8.9990 F600
X18.1875 Y15.4875 F1200
X20.6625 Y13.6875
X25.6125 Y11.4375
X30.2250 Y10.5375
X33.8250
X37.2000 Y11.1000
X41.0250 Y12.4500
X43.7250 Y13.9125
X47.8875 Y17.5125
X50.1375 Y20.4375
X51.6000 Y23.1375
X53.2875 Y28.7625
X53.5125 Y31.3500
X53.2875 Y35.2875
X51.6000 Y40.9125
X48.4500 Y45.8625
X43.9500 Y49.9125
X38.8875 Y52.3875
X35.9625 Y53.1750
X32.8125 Y53.5125
X28.6500 Y53.2875
X24.1500 Y52.0500
X19.7625 Y49.6875
X16.0500 Y46.4250
X12.7875 Y41.7000
X11.1000 Y37.2000
X10.5375 Y33.6000
X10.7625 Y28.5375
X12.3375 Y23.2500
X13.6875 Y20.6625
X15.8250 Y17.8500
Z0.5000
X19.6500 Y20.2125
Z-8.0490
Z-8.9990 F600
X17.0625 Y23.7000 F1200
X15.2625 Y28.6500
X14.9250 Y31.9125
X15.2625 Y35.4000
X16.2750 Y38.6625
X18.6375 Y42.6000
X20.8875 Y44.9625
X23.7000 Y46.8750
X27.4125 Y48.4500
X30.5625 Y49.0125
X35.0625 Y48.7875
X37.6500 Y48.1125
X40.1250 Y46.9875
X43.6125 Y44.5125
X46.7625 Y40.5750
X48.4500 Y36.6375
X49.0125 Y33.3750
Y30.5625
X47.6625 Y25.1625
X45.5250 Y21.5625
X41.7000 Y17.9625
X38.1000 Y16.0500
X32.4750 Y14.9250
X28.2000 Y15.3750
X23.3625 Y17.2875
X19.6500 Y20.2125
Z-9.4490 F600
X17.0625 Y23.7000 F1200
X15.2625 Y28.6500
X14.9250 Y31.9125
X15.2625 Y35.4000
X16.2750 Y38.6625
X18.6375 Y42.6000
X20.8875 Y44.9625
X23.7000 Y46.8750
X27.4125 Y48.4500
X30.5625 Y49.0125
X35.0625 Y48.7875
X37.6500 Y48.1125
X40.1250 Y46.9875
X43.6125 Y44.5125
X46.7625 Y40.5750
X48.4500 Y36.6375
X49.0125 Y33.3750
Y30.5625
X47.6625 Y25.1625
X45.5250 Y21.5625
X41.7000 Y17.9625
X38.1000 Y16.0500
X32.4750 Y14.9250
X28.2000 Y15.3750
X23.3625 Y17.2875
X19.6500 Y20.2125
Z0.5000
X15.8250 Y17.8500
Z-8.4990
Z-9.4490 F600
X18.1875 Y15.4875 F1200
X20.6625 Y13.6875
X25.6125 Y11.4375
X30.2250 Y10.5375
X33.8250
X37.2000 Y11.1000
X41.0250 Y12.4500
X43.7250 Y13.9125
X47.8875 Y17.5125
X50.1375 Y20.4375
X51.6000 Y23.1375
X53.2875 Y28.7625
X53.5125 Y31.3500
X53.2875 Y35.2875
X51.6000 Y40.9125
X48.4500 Y45.8625
X43.9500 Y49.9125
X38.8875 Y52.3875
X35.9625 Y53.1750
X32.8125 Y53.5125
X28.6500 Y53.2875
X24.1500 Y52.0500
X19.7625 Y49.6875
X16.0500 Y46.4250
X12.7875 Y41.7000
X11.1000 Y37.2000
X10.5375 Y33.6000
X10.7625 Y28.5375
X12.3375 Y23.2500
X13.6875 Y20.6625
X15.8250 Y17.8500
Z-9.8990 F600
X18.1875 Y15.4875 F1200
X20.6625 Y13.6875
X25.6125 Y11.4375
X30.2250 Y10.5375
X33.8250
X37.2000 Y11.1000
X41.0250 Y12.4500
X43.7250 Y13.9125
X47.8875 Y17.5125
X50.1375 Y20.4375
X51.6000 Y23.1375
X53.2875 Y28.7625
X53.5125 Y31.3500
X53.2875 Y35.2875
X51.6000 Y40.9125
X48.4500 Y45.8625
X43.9500 Y49.9125
X38.8875 Y52.3875
X35.9625 Y53.1750
X32.8125 Y53.5125
X28.6500 Y53.2875
X24.1500 Y52.0500
X19.7625 Y49.6875
X16.0500 Y46.4250
X12.7875 Y41.7000
X11.1000 Y37.2000
X10.5375 Y33.6000
X10.7625 Y28.5375
X12.3375 Y23.2500
X13.6875 Y20.6625
X15.8250 Y17.8500
Z0.5000
X19.6500 Y20.2125
Z-8.9490
Z-9.8990 F600
X17.0625 Y23.7000 F1200
X15.2625 Y28.6500
X14.9250 Y31.9125
X15.2625 Y35.4000
X16.2750 Y38.6625
X18.6375 Y42.6000
X20.8875 Y44.9625
X23.7000 Y46.8750
X27.4125 Y48.4500
X30.5625 Y49.0125
X35.0625 Y48.7875
X37.6500 Y48.1125
X40.1250 Y46.9875
X43.6125 Y44.5125
X46.7625 Y40.5750
X48.4500 Y36.6375
X49.0125 Y33.3750
Y30.5625
X47.6625 Y25.1625
X45.5250 Y21.5625
X41.7000 Y17.9625
X38.1000 Y16.0500
X32.4750 Y14.9250
X28.2000 Y15.3750
X23.3625 Y17.2875
X19.6500 Y20.2125
Z-10.3490 F600
X17.0625 Y23.7000 F1200
X15.2625 Y28.6500
X14.9250 Y31.9125
X15.2625 Y35.4000
X16.2750 Y38.6625
X18.6375 Y42.6000
X20.8875 Y44.9625
X23.7000 Y46.8750
X27.4125 Y48.4500
X30.5625 Y49.0125
X35.0625 Y48.7875
X37.6500 Y48.1125
X40.1250 Y46.9875
X43.6125 Y44.5125
X46.7625 Y40.5750
X48.4500 Y36.6375
X49.0125 Y33.3750
Y30.5625
X47.6625 Y25.1625
X45.5250 Y21.5625
X41.7000 Y17.9625
X38.1000 Y16.0500
X32.4750 Y14.9250
X28.2000 Y15.3750
X23.3625 Y17.2875
X19.6500 Y20.2125
Z0.5000
X15.8250 Y17.8500
Z-9.3990
Z-10.3490 F600
X18.1875 Y15.4875 F1200
X20.6625 Y13.6875
X25.6125 Y11.4375
X30.2250 Y10.5375
X33.8250
X37.2000 Y11.1000
X41.0250 Y12.4500
X43.7250 Y13.9125
X47.8875 Y17.5125
X50.1375 Y20.4375
X51.6000 Y23.1375
X53.2875 Y28.7625
X53.5125 Y31.3500
X53.2875 Y35.2875
X51.6000 Y40.9125
X48.4500 Y45.8625
X43.9500 Y49.9125
X38.8875 Y52.3875
X35.9625 Y53.1750
X32.8125 Y53.5125
X28.6500 Y53.2875
X24.1500 Y52.0500
X19.7625 Y49.6875
X16.0500 Y46.4250
X12.7875 Y41.7000
X11.1000 Y37.2000
X10.5375 Y33.6000
X10.7625 Y28.5375
X12.3375 Y23.2500
X13.6875 Y20.6625
X15.8250 Y17.8500
Z-10.7990 F600
X18.1875 Y15.4875 F1200
X20.6625 Y13.6875
X25.6125 Y11.4375
X30.2250 Y10.5375
X33.8250
X37.2000 Y11.1000
X41.0250 Y12.4500
X43.7250 Y13.9125
X47.8875 Y17.5125
X50.1375 Y20.4375
X51.6000 Y23.1375
X53.2875 Y28.7625
X53.5125 Y31.3500
X53.2875 Y35.2875
X51.6000 Y40.9125
X48.4500 Y45.8625
X43.9500 Y49.9125
X38.8875 Y52.3875
X35.9625 Y53.1750
X32.8125 Y53.5125
X28.6500 Y53.2875
X24.1500 Y52.0500
X19.7625 Y49.6875
X16.0500 Y46.4250
X12.7875 Y41.7000
X11.1000 Y37.2000
X10.5375 Y33.6000
X10.7625 Y28.5375
X12.3375 Y23.2500
X13.6875 Y20.6625
X15.8250 Y17.8500
Z0.5000
X19.6500 Y20.2125
Z-9.8490
Z-10.7990 F600
X17.0625 Y23.7000 F1200
X15.2625 Y28.6500
X14.9250 Y31.9125
X15.2625 Y35.4000
X16.2750 Y38.6625
X18.6375 Y42.6000
X20.8875 Y44.9625
X23.7000 Y46.8750
X27.4125 Y48.4500
X30.5625 Y49.0125
X35.0625 Y48.7875
X37.6500 Y48.1125
X40.1250 Y46.9875
X43.6125 Y44.5125
X46.7625 Y40.5750
X48.4500 Y36.6375
X49.0125 Y33.3750
Y30.5625
X47.6625 Y25.1625
X45.5250 Y21.5625
X41.7000 Y17.9625
X38.1000 Y16.0500
X32.4750 Y14.9250
X28.2000 Y15.3750
X23.3625 Y17.2875
X19.6500 Y20.2125
Z-11.2490 F600
X17.0625 Y23.7000 F1200
X15.2625 Y28.6500
X14.9250 Y31.9125
X15.2625 Y35.4000
X16.2750 Y38.6625
X18.6375 Y42.6000
X20.8875 Y44.9625
X23.7000 Y46.8750
X27.4125 Y48.4500
X30.5625 Y49.0125
X35.0625 Y48.7875
X37.6500 Y48.1125
X40.1250 Y46.9875
X43.6125 Y44.5125
X46.7625 Y40.5750
X48.4500 Y36.6375
X49.0125 Y33.3750
Y30.5625
X47.6625 Y25.1625
X45.5250 Y21.5625
X41.7000 Y17.9625
X38.1000 Y16.0500
X32.4750 Y14.9250
X28.2000 Y15.3750
X23.3625 Y17.2875
X19.6500 Y20.2125
Z0.5000
X15.8250 Y17.8500
Z-10.2990
Z-11.2490 F600
X18.1875 Y15.4875 F1200
X20.6625 Y13.6875
X25.6125 Y11.4375
X30.2250 Y10.5375
X33.8250
X37.2000 Y11.1000
X41.0250 Y12.4500
X43.7250 Y13.9125
X47.8875 Y17.5125
X50.1375 Y20.4375
X51.6000 Y23.1375
X53.2875 Y28.7625
X53.5125 Y31.3500
X53.2875 Y35.2875
X51.6000 Y40.9125
X48.4500 Y45.8625
X43.9500 Y49.9125
X38.8875 Y52.3875
X35.9625 Y53.1750
X32.8125 Y53.5125
X28.6500 Y53.2875
X24.1500 Y52.0500
X19.7625 Y49.6875
X16.0500 Y46.4250
X12.7875 Y41.7000
X11.1000 Y37.2000
X10.5375 Y33.6000
X10.7625 Y28.5375
X12.3375 Y23.2500
X13.6875 Y20.6625
X15.8250 Y17.8500
Z-11.6990 F600
X18.1875 Y15.4875 F1200
X20.6625 Y13.6875
X25.6125 Y11.4375
X30.2250 Y10.5375
X33.8250
X37.2000 Y11.1000
X41.0250 Y12.4500
X43.7250 Y13.9125
X47.8875 Y17.5125
X50.1375 Y20.4375
X51.6000 Y23.1375
X53.2875 Y28.7625
X53.5125 Y31.3500
X53.2875 Y35.2875
X51.6000 Y40.9125
X48.4500 Y45.8625
X43.9500 Y49.9125
X38.8875 Y52.3875
X35.9625 Y53.1750
X32.8125 Y53.5125
X28.6500 Y53.2875
X24.1500 Y52.0500
X19.7625 Y49.6875
X16.0500 Y46.4250
X12.7875 Y41.7000
X11.1000 Y37.2000
X10.5375 Y33.6000
X10.7625 Y28.5375
X12.3375 Y23.2500
X13.6875 Y20.6625
X15.8250 Y17.8500
Z0.5000
X19.6500 Y20.2125
Z-10.7490
Z-11.6990 F600
X17.0625 Y23.7000 F1200
X15.2625 Y28.6500
X14.9250 Y31.9125
X15.2625 Y35.4000
X16.2750 Y38.6625
X18.6375 Y42.6000
X20.8875 Y44.9625
X23.7000 Y46.8750
X27.4125 Y48.4500
X30.5625 Y49.0125
X35.0625 Y48.7875
X37.6500 Y48.1125
X40.1250 Y46.9875
X43.6125 Y44.5125
X46.7625 Y40.5750
X48.4500 Y36.6375
X49.0125 Y33.3750
Y30.5625
X47.6625 Y25.1625
X45.5250 Y21.5625
X41.7000 Y17.9625
X38.1000 Y16.0500
X32.4750 Y14.9250
X28.2000 Y15.3750
X23.3625 Y17.2875
X19.6500 Y20.2125
Z-12.1490 F600
X17.0625 Y23.7000 F1200
X15.2625 Y28.6500
X14.9250 Y31.9125
X15.2625 Y35.4000
X16.2750 Y38.6625
X18.6375 Y42.6000
X20.8875 Y44.9625
X23.7000 Y46.8750
X27.4125 Y48.4500
X30.5625 Y49.0125
X35.0625 Y48.7875
X37.6500 Y48.1125
X40.1250 Y46.9875
X43.6125 Y44.5125
X46.7625 Y40.5750
X48.4500 Y36.6375
X49.0125 Y33.3750
Y30.5625
X47.6625 Y25.1625
X45.5250 Y21.5625
X41.7000 Y17.9625
X38.1000 Y16.0500
X32.4750 Y14.9250
X28.2000 Y15.3750
X23.3625 Y17.2875
X19.6500 Y20.2125
Z0.5000
X15.8250 Y17.8500
Z-11.1990
Z-12.1490 F600
X18.1875 Y15.4875 F1200
X20.6625 Y13.6875
X25.6125 Y11.4375
X30.2250 Y10.5375
X33.8250
X37.2000 Y11.1000
X41.0250 Y12.4500
X43.7250 Y13.9125
X47.8875 Y17.5125
X50.1375 Y20.4375
X51.6000 Y23.1375
X53.2875 Y28.7625
X53.5125 Y31.3500
X53.2875 Y35.2875
X51.6000 Y40.9125
X48.4500 Y45.8625
X43.9500 Y49.9125
X38.8875 Y52.3875
X35.9625 Y53.1750
X32.8125 Y53.5125
X28.6500 Y53.2875
X24.1500 Y52.0500
X19.7625 Y49.6875
X16.0500 Y46.4250
X12.7875 Y41.7000
X11.1000 Y37.2000
X10.5375 Y33.6000
X10.7625 Y28.5375
X12.3375 Y23.2500
X13.6875 Y20.6625
X15.8250 Y17.8500
Z-12.5990 F600
X18.1875 Y15.4875 F1200
X20.6625 Y13.6875
X25.6125 Y11.4375
X30.2250 Y10.5375
X33.8250
X37.2000 Y11.1000
X41.0250 Y12.4500
X43.7250 Y13.9125
X47.8875 Y17.5125
X50.1375 Y20.4375
X51.6000 Y23.1375
X53.2875 Y28.7625
X53.5125 Y31.3500
X53.2875 Y35.2875
X51.6000 Y40.9125
X48.4500 Y45.8625
X43.9500 Y49.9125
X38.8875 Y52.3875
X35.9625 Y53.1750
X32.8125 Y53.5125
X28.6500 Y53.2875
X24.1500 Y52.0500
X19.7625 Y49.6875
X16.0500 Y46.4250
X12.7875 Y41.7000
X11.1000 Y37.2000
X10.5375 Y33.6000
X10.7625 Y28.5375
X12.3375 Y23.2500
X13.6875 Y20.6625
X15.8250 Y17.8500
Z0.5000
X19.6500 Y20.2125
Z-11.6490
Z-12.5990 F600
X17.0625 Y23.7000 F1200
X15.2625 Y28.6500
X14.9250 Y31.9125
X15.2625 Y35.4000
X16.2750 Y38.6625
X18.6375 Y42.6000
X20.8875 Y44.9625
X23.7000 Y46.8750
X27.4125 Y48.4500
X30.5625 Y49.0125
X35.0625 Y48.7875
X37.6500 Y48.1125
X40.1250 Y46.9875
X43.6125 Y44.5125
X46.7625 Y40.5750
X48.4500 Y36.6375
X49.0125 Y33.3750
Y30.5625
X47.6625 Y25.1625
X45.5250 Y21.5625
X41.7000 Y17.9625
X38.1000 Y16.0500
X32.4750 Y14.9250
X28.2000 Y15.3750
X23.3625 Y17.2875
X19.6500 Y20.2125
Z-13.0490 F600
X17.0625 Y23.7000 F1200
X15.2625 Y28.6500
X14.9250 Y31.9125
X15.2625 Y35.4000
X16.2750 Y38.6625
X18.6375 Y42.6000
X20.8875 Y44.9625
X23.7000 Y46.8750
X27.4125 Y48.4500
X30.5625 Y49.0125
X35.0625 Y48.7875
X37.6500 Y48.1125
X40.1250 Y46.9875
X43.6125 Y44.5125
X46.7625 Y40.5750
X48.4500 Y36.6375
X49.0125 Y33.3750
Y30.5625
X47.6625 Y25.1625
X45.5250 Y21.5625
X41.7000 Y17.9625
X38.1000 Y16.0500
X32.4750 Y14.9250
X28.2000 Y15.3750
X23.3625 Y17.2875
X19.6500 Y20.2125
Z0.5000
X15.8250 Y17.8500
Z-12.0990
Z-13.0490 F600
X18.1875 Y15.4875 F1200
X20.6625 Y13.6875
X25.6125 Y11.4375
X30.2250 Y10.5375
X33.8250
X37.2000 Y11.1000
X41.0250 Y12.4500
X43.7250 Y13.9125
X47.8875 Y17.5125
X50.1375 Y20.4375
X51.6000 Y23.1375
X53.2875 Y28.7625
X53.5125 Y31.3500
X53.2875 Y35.2875
X51.6000 Y40.9125
X48.4500 Y45.8625
X43.9500 Y49.9125
X38.8875 Y52.3875
X35.9625 Y53.1750
X32.8125 Y53.5125
X28.6500 Y53.2875
X24.1500 Y52.0500
X19.7625 Y49.6875
X16.0500 Y46.4250
X12.7875 Y41.7000
X11.1000 Y37.2000
X10.5375 Y33.6000
X10.7625 Y28.5375
X12.3375 Y23.2500
X13.6875 Y20.6625
X15.8250 Y17.8500
Z-13.4990 F600
X18.1875 Y15.4875 F1200
X20.6625 Y13.6875
X25.6125 Y11.4375
X30.2250 Y10.5375
X33.8250
X37.2000 Y11.1000
X41.0250 Y12.4500
X43.7250 Y13.9125
X47.8875 Y17.5125
X50.1375 Y20.4375
X51.6000 Y23.1375
X53.2875 Y28.7625
X53.5125 Y31.3500
X53.2875 Y35.2875
X51.6000 Y40.9125
X48.4500 Y45.8625
X43.9500 Y49.9125
X38.8875 Y52.3875
X35.9625 Y53.1750
X32.8125 Y53.5125
X28.6500 Y53.2875
X24.1500 Y52.0500
X19.7625 Y49.6875
X16.0500 Y46.4250
X12.7875 Y41.7000
X11.1000 Y37.2000
X10.5375 Y33.6000
X10.7625 Y28.5375
X12.3375 Y23.2500
X13.6875 Y20.6625
X15.8250 Y17.8500
Z0.5000
X19.6500 Y20.2125
Z-12.5490
Z-13.4990 F600
X17.0625 Y23.7000 F1200
X15.2625 Y28.6500
X14.9250 Y31.9125
X15.2625 Y35.4000
X16.2750 Y38.6625
X18.6375 Y42.6000
X20.8875 Y44.9625
X23.7000 Y46.8750
X27.4125 Y48.4500
X30.5625 Y49.0125
X35.0625 Y48.7875
X37.6500 Y48.1125
X40.1250 Y46.9875
X43.6125 Y44.5125
X46.7625 Y40.5750
X48.4500 Y36.6375
X49.0125 Y33.3750
Y30.5625
X47.6625 Y25.1625
X45.5250 Y21.5625
X41.7000 Y17.9625
X38.1000 Y16.0500
X32.4750 Y14.9250
X28.2000 Y15.3750
X23.3625 Y17.2875
X19.6500 Y20.2125
Z-13.9490 F600
X17.0625 Y23.7000 F1200
X15.2625 Y28.6500
X14.9250 Y31.9125
X15.2625 Y35.4000
X16.2750 Y38.6625
X18.6375 Y42.6000
X20.8875 Y44.9625
X23.7000 Y46.8750
X27.4125 Y48.4500
X30.5625 Y49.0125
X35.0625 Y48.7875
X37.6500 Y48.1125
X40.1250 Y46.9875
X43.6125 Y44.5125
X46.7625 Y40.5750
X48.4500 Y36.6375
X49.0125 Y33.3750
Y30.5625
X47.6625 Y25.1625
X45.5250 Y21.5625
X41.7000 Y17.9625
X38.1000 Y16.0500
X32.4750 Y14.9250
X28.2000 Y15.3750
X23.3625 Y17.2875
X19.6500 Y20.2125
Z0.5000
X15.8250 Y17.8500
Z-12.9990
Z-13.9490 F600
X18.1875 Y15.4875 F1200
X20.6625 Y13.6875
X25.6125 Y11.4375
X30.2250 Y10.5375
X33.8250
X37.2000 Y11.1000
X41.0250 Y12.4500
X43.7250 Y13.9125
X47.8875 Y17.5125
X50.1375 Y20.4375
X51.6000 Y23.1375
X53.2875 Y28.7625
X53.5125 Y31.3500
X53.2875 Y35.2875
X51.6000 Y40.9125
X48.4500 Y45.8625
X43.9500 Y49.9125
X38.8875 Y52.3875
X35.9625 Y53.1750
X32.8125 Y53.5125
X28.6500 Y53.2875
X24.1500 Y52.0500
X19.7625 Y49.6875
X16.0500 Y46.4250
X12.7875 Y41.7000
X11.1000 Y37.2000
X10.5375 Y33.6000
X10.7625 Y28.5375
X12.3375 Y23.2500
X13.6875 Y20.6625
X15.8250 Y17.8500
Z-14.3990 F600
X18.1875 Y15.4875 F1200
X20.6625 Y13.6875
X25.6125 Y11.4375
X30.2250 Y10.5375
X33.8250
X37.2000 Y11.1000
X41.0250 Y12.4500
X43.7250 Y13.9125
X47.8875 Y17.5125
X50.1375 Y20.4375
X51.6000 Y23.1375
X53.2875 Y28.7625
X53.5125 Y31.3500
X53.2875 Y35.2875
X51.6000 Y40.9125
X48.4500 Y45.8625
X43.9500 Y49.9125
X38.8875 Y52.3875
X35.9625 Y53.1750
X32.8125 Y53.5125
X28.6500 Y53.2875
X24.1500 Y52.0500
X19.7625 Y49.6875
X16.0500 Y46.4250
X12.7875 Y41.7000
X11.1000 Y37.2000
X10.5375 Y33.6000
X10.7625 Y28.5375
X12.3375 Y23.2500
X13.6875 Y20.6625
X15.8250 Y17.8500
Z0.5000
X19.6500 Y20.2125
Z-13.4490
Z-14.3990 F600
X17.0625 Y23.7000 F1200
X15.2625 Y28.6500
X14.9250 Y31.9125
X15.2625 Y35.4000
X16.2750 Y38.6625
X18.6375 Y42.6000
X20.8875 Y44.9625
X23.7000 Y46.8750
X27.4125 Y48.4500
X30.5625 Y49.0125
X35.0625 Y48.7875
X37.6500 Y48.1125
X40.1250 Y46.9875
X43.6125 Y44.5125
X46.7625 Y40.5750
X48.4500 Y36.6375
X49.0125 Y33.3750
Y30.5625
X47.6625 Y25.1625
X45.5250 Y21.5625
X41.7000 Y17.9625
X38.1000 Y16.0500
X32.4750 Y14.9250
X28.2000 Y15.3750
X23.3625 Y17.2875
X19.6500 Y20.2125
Z-14.8490 F600
X17.0625 Y23.7000 F1200
X15.2625 Y28.6500
X14.9250 Y31.9125
X15.2625 Y35.4000
X16.2750 Y38.6625
X18.6375 Y42.6000
X20.8875 Y44.9625
X23.7000 Y46.8750
X27.4125 Y48.4500
X30.5625 Y49.0125
X35.0625 Y48.7875
X37.6500 Y48.1125
X40.1250 Y46.9875
X43.6125 Y44.5125
X46.7625 Y40.5750
X48.4500 Y36.6375
X49.0125 Y33.3750
Y30.5625
X47.6625 Y25.1625
X45.5250 Y21.5625
X41.7000 Y17.9625
X38.1000 Y16.0500
X32.4750 Y14.9250
X28.2000 Y15.3750
X23.3625 Y17.2875
X19.6500 Y20.2125
Z0.5000
X15.8250 Y17.8500
Z-13.8990
Z-14.8490 F600
X18.1875 Y15.4875 F1200
X20.6625 Y13.6875
X25.6125 Y11.4375
X30.2250 Y10.5375
X33.8250
X37.2000 Y11.1000
X41.0250 Y12.4500
X43.7250 Y13.9125
X47.8875 Y17.5125
X50.1375 Y20.4375
X51.6000 Y23.1375
X53.2875 Y28.7625
X53.5125 Y31.3500
X53.2875 Y35.2875
X51.6000 Y40.9125
X48.4500 Y45.8625
X43.9500 Y49.9125
X38.8875 Y52.3875
X35.9625 Y53.1750
X32.8125 Y53.5125
X28.6500 Y53.2875
X24.1500 Y52.0500
X19.7625 Y49.6875
X16.0500 Y46.4250
X12.7875 Y41.7000
X11.1000 Y37.2000
X10.5375 Y33.6000
X10.7625 Y28.5375
X12.3375 Y23.2500
X13.6875 Y20.6625
X15.8250 Y17.8500
Z-15.2990 F600
X18.1875 Y15.4875 F1200
X20.6625 Y13.6875
X25.6125 Y11.4375
X30.2250 Y10.5375
X33.8250
X37.2000 Y11.1000
X41.0250 Y12.4500
X43.7250 Y13.9125
X47.8875 Y17.5125
X50.1375 Y20.4375
X51.6000 Y23.1375
X53.2875 Y28.7625
X53.5125 Y31.3500
X53.2875 Y35.2875
X51.6000 Y40.9125
X48.4500 Y45.8625
X43.9500 Y49.9125
X38.8875 Y52.3875
X35.9625 Y53.1750
X32.8125 Y53.5125
X28.6500 Y53.2875
X24.1500 Y52.0500
X19.7625 Y49.6875
X16.0500 Y46.4250
X12.7875 Y41.7000
X11.1000 Y37.2000
X10.5375 Y33.6000
X10.7625 Y28.5375
X12.3375 Y23.2500
X13.6875 Y20.6625
X15.8250 Y17.8500
Z0.5000
X19.6500 Y20.2125
Z-14.3490
Z-15.2990 F600
X17.0625 Y23.7000 F1200
X15.2625 Y28.6500
X14.9250 Y31.9125
X15.2625 Y35.4000
X16.2750 Y38.6625
X18.6375 Y42.6000
X20.8875 Y44.9625
X23.7000 Y46.8750
X27.4125 Y48.4500
X30.5625 Y49.0125
X35.0625 Y48.7875
X37.6500 Y48.1125
X40.1250 Y46.9875
X43.6125 Y44.5125
X46.7625 Y40.5750
X48.4500 Y36.6375
X49.0125 Y33.3750
Y30.5625
X47.6625 Y25.1625
X45.5250 Y21.5625
X41.7000 Y17.9625
X38.1000 Y16.0500
X32.4750 Y14.9250
X28.2000 Y15.3750
X23.3625 Y17.2875
X19.6500 Y20.2125
Z-15.7490 F600
X17.0625 Y23.7000 F1200
X15.2625 Y28.6500
X14.9250 Y31.9125
X15.2625 Y35.4000
X16.2750 Y38.6625
X18.6375 Y42.6000
X20.8875 Y44.9625
X23.7000 Y46.8750
X27.4125 Y48.4500
X30.5625 Y49.0125
X35.0625 Y48.7875
X37.6500 Y48.1125
X40.1250 Y46.9875
X43.6125 Y44.5125
X46.7625 Y40.5750
X48.4500 Y36.6375
X49.0125 Y33.3750
Y30.5625
X47.6625 Y25.1625
X45.5250 Y21.5625
X41.7000 Y17.9625
X38.1000 Y16.0500
X32.4750 Y14.9250
X28.2000 Y15.3750
X23.3625 Y17.2875
X19.6500 Y20.2125
Z0.5000
X15.8250 Y17.8500
Z-14.7990
Z-15.7490 F600
X18.1875 Y15.4875 F1200
X20.6625 Y13.6875
X25.6125 Y11.4375
X30.2250 Y10.5375
X33.8250
X37.2000 Y11.1000
X41.0250 Y12.4500
X43.7250 Y13.9125
X47.8875 Y17.5125
X50.1375 Y20.4375
X51.6000 Y23.1375
X53.2875 Y28.7625
X53.5125 Y31.3500
X53.2875 Y35.2875
X51.6000 Y40.9125
X48.4500 Y45.8625
X43.9500 Y49.9125
X38.8875 Y52.3875
X35.9625 Y53.1750
X32.8125 Y53.5125
X28.6500 Y53.2875
X24.1500 Y52.0500
X19.7625 Y49.6875
X16.0500 Y46.4250
X12.7875 Y41.7000
X11.1000 Y37.2000
X10.5375 Y33.6000
X10.7625 Y28.5375
X12.3375 Y23.2500
X13.6875 Y20.6625
X15.8250 Y17.8500
Z-16.1990 F600
X18.1875 Y15.4875 F1200
X20.6625 Y13.6875
X25.6125 Y11.4375
X30.2250 Y10.5375
X33.8250
X37.2000 Y11.1000
X41.0250 Y12.4500
X43.7250 Y13.9125
X47.8875 Y17.5125
X50.1375 Y20.4375
X51.6000 Y23.1375
X53.2875 Y28.7625
X53.5125 Y31.3500
X53.2875 Y35.2875
X51.6000 Y40.9125
X48.4500 Y45.8625
X43.9500 Y49.9125
X38.8875 Y52.3875
X35.9625 Y53.1750
X32.8125 Y53.5125
X28.6500 Y53.2875
X24.1500 Y52.0500
X19.7625 Y49.6875
X16.0500 Y46.4250
X12.7875 Y41.7000
X11.1000 Y37.2000
X10.5375 Y33.6000
X10.7625 Y28.5375
X12.3375 Y23.2500
X13.6875 Y20.6625
X15.8250 Y17.8500
Z0.5000
X19.6500 Y20.2125
Z-15.2490
Z-16.1990 F600
X17.0625 Y23.7000 F1200
X15.2625 Y28.6500
X14.9250 Y31.9125
X15.2625 Y35.4000
X16.2750 Y38.6625
X18.6375 Y42.6000
X20.8875 Y44.9625
X23.7000 Y46.8750
X27.4125 Y48.4500
X30.5625 Y49.0125
X35.0625 Y48.7875
X37.6500 Y48.1125
X40.1250 Y46.9875
X43.6125 Y44.5125
X46.7625 Y40.5750
X48.4500 Y36.6375
X49.0125 Y33.3750
Y30.5625
X47.6625 Y25.1625
X45.5250 Y21.5625
X41.7000 Y17.9625
X38.1000 Y16.0500
X32.4750 Y14.9250
X28.2000 Y15.3750
X23.3625 Y17.2875
X19.6500 Y20.2125
Z-16.6490 F600
X17.0625 Y23.7000 F1200
X15.2625 Y28.6500
X14.9250 Y31.9125
X15.2625 Y35.4000
X16.2750 Y38.6625
X18.6375 Y42.6000
X20.8875 Y44.9625
X23.7000 Y46.8750
X27.4125 Y48.4500
X30.5625 Y49.0125
X35.0625 Y48.7875
X37.6500 Y48.1125
X40.1250 Y46.9875
X43.6125 Y44.5125
X46.7625 Y40.5750
X48.4500 Y36.6375
X49.0125 Y33.3750
Y30.5625
X47.6625 Y25.1625
X45.5250 Y21.5625
X41.7000 Y17.9625
X38.1000 Y16.0500
X32.4750 Y14.9250
X28.2000 Y15.3750
X23.3625 Y17.2875
X19.6500 Y20.2125
Z0.5000
X15.8250 Y17.8500
Z-15.6990
Z-16.6490 F600
X18.1875 Y15.4875 F1200
X20.6625 Y13.6875
X25.6125 Y11.4375
X30.2250 Y10.5375
X33.8250
X37.2000 Y11.1000
X41.0250 Y12.4500
X43.7250 Y13.9125
X47.8875 Y17.5125
X50.1375 Y20.4375
X51.6000 Y23.1375
X53.2875 Y28.7625
X53.5125 Y31.3500
X53.2875 Y35.2875
X51.6000 Y40.9125
X48.4500 Y45.8625
X43.9500 Y49.9125
X38.8875 Y52.3875
X35.9625 Y53.1750
X32.8125 Y53.5125
X28.6500 Y53.2875
X24.1500 Y52.0500
X19.7625 Y49.6875
X16.0500 Y46.4250
X12.7875 Y41.7000
X11.1000 Y37.2000
X10.5375 Y33.6000
X10.7625 Y28.5375
X12.3375 Y23.2500
X13.6875 Y20.6625
X15.8250 Y17.8500
Z-17.0990 F600
X18.1875 Y15.4875 F1200
X20.6625 Y13.6875
X25.6125 Y11.4375
X30.2250 Y10.5375
X33.8250
X37.2000 Y11.1000
X41.0250 Y12.4500
X43.7250 Y13.9125
X47.8875 Y17.5125
X50.1375 Y20.4375
X51.6000 Y23.1375
X53.2875 Y28.7625
X53.5125 Y31.3500
X53.2875 Y35.2875
X51.6000 Y40.9125
X48.4500 Y45.8625
X43.9500 Y49.9125
X38.8875 Y52.3875
X35.9625 Y53.1750
X32.8125 Y53.5125
X28.6500 Y53.2875
X24.1500 Y52.0500
X19.7625 Y49.6875
X16.0500 Y46.4250
X12.7875 Y41.7000
X11.1000 Y37.2000
X10.5375 Y33.6000
X10.7625 Y28.5375
X12.3375 Y23.2500
X13.6875 Y20.6625
X15.8250 Y17.8500
Z0.5000
X19.6500 Y20.2125
Z-16.1490
Z-17.0990 F600
X17.0625 Y23.7000 F1200
X15.2625 Y28.6500
X14.9250 Y31.9125
X15.2625 Y35.4000
X16.2750 Y38.6625
X18.6375 Y42.6000
X20.8875 Y44.9625
X23.7000 Y46.8750
X27.4125 Y48.4500
X30.5625 Y49.0125
X35.0625 Y48.7875
X37.6500 Y48.1125
X40.1250 Y46.9875
X43.6125 Y44.5125
X46.7625 Y40.5750
X48.4500 Y36.6375
X49.0125 Y33.3750
Y30.5625
X47.6625 Y25.1625
X45.5250 Y21.5625
X41.7000 Y17.9625
X38.1000 Y16.0500
X32.4750 Y14.9250
X28.2000 Y15.3750
X23.3625 Y17.2875
X19.6500 Y20.2125
Z-17.5490 F600
X17.0625 Y23.7000 F1200
X15.2625 Y28.6500
X14.9250 Y31.9125
X15.2625 Y35.4000
X16.2750 Y38.6625
X18.6375 Y42.6000
X20.8875 Y44.9625
X23.7000 Y46.8750
X27.4125 Y48.4500
X30.5625 Y49.0125
X35.0625 Y48.7875
X37.6500 Y48.1125
X40.1250 Y46.9875
X43.6125 Y44.5125
X46.7625 Y40.5750
X48.4500 Y36.6375
X49.0125 Y33.3750
Y30.5625
X47.6625 Y25.1625
X45.5250 Y21.5625
X41.7000 Y17.9625
X38.1000 Y16.0500
X32.4750 Y14.9250
X28.2000 Y15.3750
X23.3625 Y17.2875
X19.6500 Y20.2125
Z0.5000
X15.8250 Y17.8500
Z-16.5990
Z-17.5490 F600
X18.1875 Y15.4875 F1200
X20.6625 Y13.6875
X25.6125 Y11.4375
X30.2250 Y10.5375
X33.8250
X37.2000 Y11.1000
X41.0250 Y12.4500
X43.7250 Y13.9125
X47.8875 Y17.5125
X50.1375 Y20.4375
X51.6000 Y23.1375
X53.2875 Y28.7625
X53.5125 Y31.3500
X53.2875 Y35.2875
X51.6000 Y40.9125
X48.4500 Y45.8625
X43.9500 Y49.9125
X38.8875 Y52.3875
X35.9625 Y53.1750
X32.8125 Y53.5125
X28.6500 Y53.2875
X24.1500 Y52.0500
X19.7625 Y49.6875
X16.0500 Y46.4250
X12.7875 Y41.7000
X11.1000 Y37.2000
X10.5375 Y33.6000
X10.7625 Y28.5375
X12.3375 Y23.2500
X13.6875 Y20.6625
X15.8250 Y17.8500
Z-17.9990 F600
X18.1875 Y15.4875 F1200
X20.6625 Y13.6875
X25.6125 Y11.4375
X30.2250 Y10.5375
X33.8250
X37.2000 Y11.1000
X41.0250 Y12.4500
X43.7250 Y13.9125
X47.8875 Y17.5125
X50.1375 Y20.4375
X51.6000 Y23.1375
X53.2875 Y28.7625
X53.5125 Y31.3500
X53.2875 Y35.2875
X51.6000 Y40.9125
X48.4500 Y45.8625
X43.9500 Y49.9125
X38.8875 Y52.3875
X35.9625 Y53.1750
X32.8125 Y53.5125
X28.6500 Y53.2875
X24.1500 Y52.0500
X19.7625 Y49.6875
X16.0500 Y46.4250
X12.7875 Y41.7000
X11.1000 Y37.2000
X10.5375 Y33.6000
X10.7625 Y28.5375
X12.3375 Y23.2500
X13.6875 Y20.6625
X15.8250 Y17.8500
Z0.5000
X19.6500 Y20.2125
Z-17.0490
Z-17.9990 F600
X17.0625 Y23.7000 F1200
X15.2625 Y28.6500
X14.9250 Y31.9125
X15.2625 Y35.4000
X16.2750 Y38.6625
X18.6375 Y42.6000
X20.8875 Y44.9625
X23.7000 Y46.8750
X27.4125 Y48.4500
X30.5625 Y49.0125
X35.0625 Y48.7875
X37.6500 Y48.1125
X40.1250 Y46.9875
X43.6125 Y44.5125
X46.7625 Y40.5750
X48.4500 Y36.6375
X49.0125 Y33.3750
Y30.5625
X47.6625 Y25.1625
X45.5250 Y21.5625
X41.7000 Y17.9625
X38.1000 Y16.0500
X32.4750 Y14.9250
X28.2000 Y15.3750
X23.3625 Y17.2875
X19.6500 Y20.2125
Z-18.4490 F600
X17.0625 Y23.7000 F1200
X15.2625 Y28.6500
X14.9250 Y31.9125
X15.2625 Y35.4000
X16.2750 Y38.6625
X18.6375 Y42.6000
X20.8875 Y44.9625
X23.7000 Y46.8750
X27.4125 Y48.4500
X30.5625 Y49.0125
X35.0625 Y48.7875
X37.6500 Y48.1125
X40.1250 Y46.9875
X43.6125 Y44.5125
X46.7625 Y40.5750
X48.4500 Y36.6375
X49.0125 Y33.3750
Y30.5625
X47.6625 Y25.1625
X45.5250 Y21.5625
X41.7000 Y17.9625
X38.1000 Y16.0500
X32.4750 Y14.9250
X28.2000 Y15.3750
X23.3625 Y17.2875
X19.6500 Y20.2125
Z0.5000
X15.8250 Y17.8500
Z-17.4990
Z-18.4490 F600
X18.1875 Y15.4875 F1200
X20.6625 Y13.6875
X25.6125 Y11.4375
X30.2250 Y10.5375
X33.8250
X37.2000 Y11.1000
X41.0250 Y12.4500
X43.7250 Y13.9125
X47.8875 Y17.5125
X50.1375 Y20.4375
X51.6000 Y23.1375
X53.2875 Y28.7625
X53.5125 Y31.3500
X53.2875 Y35.2875
X51.6000 Y40.9125
X48.4500 Y45.8625
X43.9500 Y49.9125
X38.8875 Y52.3875
X35.9625 Y53.1750
X32.8125 Y53.5125
X28.6500 Y53.2875
X24.1500 Y52.0500
X19.7625 Y49.6875
X16.0500 Y46.4250
X12.7875 Y41.7000
X11.1000 Y37.2000
X10.5375 Y33.6000
X10.7625 Y28.5375
X12.3375 Y23.2500
X13.6875 Y20.6625
X15.8250 Y17.8500
Z-18.8990 F600
X18.1875 Y15.4875 F1200
X20.6625 Y13.6875
X25.6125 Y11.4375
X30.2250 Y10.5375
X33.8250
X37.2000 Y11.1000
X41.0250 Y12.4500
X43.7250 Y13.9125
X47.8875 Y17.5125
X50.1375 Y20.4375
X51.6000 Y23.1375
X53.2875 Y28.7625
X53.5125 Y31.3500
X53.2875 Y35.2875
X51.6000 Y40.9125
X48.4500 Y45.8625
X43.9500 Y49.9125
X38.8875 Y52.3875
X35.9625 Y53.1750
X32.8125 Y53.5125
X28.6500 Y53.2875
X24.1500 Y52.0500
X19.7625 Y49.6875
X16.0500 Y46.4250
X12.7875 Y41.7000
X11.1000 Y37.2000
X10.5375 Y33.6000
X10.7625 Y28.5375
X12.3375 Y23.2500
X13.6875 Y20.6625
X15.8250 Y17.8500
Z0.5000
X19.6500 Y20.2125
Z-17.9490
Z-18.8990 F600
X17.0625 Y23.7000 F1200
X15.2625 Y28.6500
X14.9250 Y31.9125
X15.2625 Y35.4000
X16.2750 Y38.6625
X18.6375 Y42.6000
X20.8875 Y44.9625
X23.7000 Y46.8750
X27.4125 Y48.4500
X30.5625 Y49.0125
X35.0625 Y48.7875
X37.6500 Y48.1125
X40.1250 Y46.9875
X43.6125 Y44.5125
X46.7625 Y40.5750
X48.4500 Y36.6375
X49.0125 Y33.3750
Y30.5625
X47.6625 Y25.1625
X45.5250 Y21.5625
X41.7000 Y17.9625
X38.1000 Y16.0500
X32.4750 Y14.9250
X28.2000 Y15.3750
X23.3625 Y17.2875
X19.6500 Y20.2125
Z0.0000
X20.1000
Z-18.3990
Z-19.3490 F600
X18.1875 Y22.4625 F1200
X16.2750 Y26.1750
X15.2625 Y30.9000
X15.8250 Y36.5250
X17.2875 Y40.1250
X19.0875 Y42.7125
X23.2500 Y46.3125
X27.0750 Y48.0000
X30.3375 Y48.6750
X35.2875 Y48.4500
X39.9000 Y46.7625
X42.3750 Y45.1875
X44.6250 Y43.0500
X46.9875 Y39.5625
X48.4500 Y35.1750
X48.6750 Y30.2250
X47.5500 Y25.7250
X46.3125 Y23.2500
X44.7375 Y21.1125
X41.0250 Y17.8500
X36.5250 Y15.8250
X30.9000 Y15.2625
X26.5125 Y16.1625
X22.3500 Y18.3000
X20.1000 Y20.2125
Z0.5000
X15.8250 Y17.8500
Z-18.3990
Z-19.3490 F600
X18.1875 Y15.4875 F1200
X20.6625 Y13.6875
X25.6125 Y11.4375
X30.2250 Y10.5375
X33.8250
X37.2000 Y11.1000
X41.0250 Y12.4500
X43.7250 Y13.9125
X47.8875 Y17.5125
X50.1375 Y20.4375
X51.6000 Y23.1375
X53.2875 Y28.7625
X53.5125 Y31.3500
X53.2875 Y35.2875
X51.6000 Y40.9125
X48.4500 Y45.8625
X43.9500 Y49.9125
X38.8875 Y52.3875
X35.9625 Y53.1750
X32.8125 Y53.5125
X28.6500 Y53.2875
X24.1500 Y52.0500
X19.7625 Y49.6875
X16.0500 Y46.4250
X12.7875 Y41.7000
X11.1000 Y37.2000
X10.5375 Y33.6000
X10.7625 Y28.5375
X12.3375 Y23.2500
X13.6875 Y20.6625
X15.8250 Y17.8500
Z-19.7990 F600
X18.1875 Y15.4875 F1200
X20.6625 Y13.6875
X25.6125 Y11.4375
X30.2250 Y10.5375
X33.8250
X37.2000 Y11.1000
X41.0250 Y12.4500
X43.7250 Y13.9125
X47.8875 Y17.5125
X50.1375 Y20.4375
X51.6000 Y23.1375
X53.2875 Y28.7625
X53.5125 Y31.3500
X53.2875 Y35.2875
X51.6000 Y40.9125
X48.4500 Y45.8625
X43.9500 Y49.9125
X38.8875 Y52.3875
X35.9625 Y53.1750
X32.8125 Y53.5125
X28.6500 Y53.2875
X24.1500 Y52.0500
X19.7625 Y49.6875
X16.0500 Y46.4250
X12.7875 Y41.7000
X11.1000 Y37.2000
X10.5375 Y33.6000
X10.7625 Y28.5375
X12.3375 Y23.2500
X13.6875 Y20.6625
X15.8250 Y17.8500
Z0.5000
X21.5625 Y19.4250
Z-18.8490
Z-19.7990 F600
X17.9625 Y23.5875 F1200
X16.1625 Y27.9750
X15.7125 Y30.7875
X15.8250 Y34.3875
X16.5000 Y37.2000
X18.5250 Y41.2500
X21.1125 Y44.1750
X24.3750 Y46.4250
X27.8625 Y47.7750
X31.3500 Y48.3375
X35.4000 Y48.0000
X39.4500 Y46.5375
X42.7125 Y44.2875
X44.9625 Y41.9250
X46.4250 Y39.6750
X48.0000 Y35.2875
X48.3375 Y31.3500
X47.4375 Y26.6250
X44.8500 Y21.9000
X41.2500 Y18.5250
X37.2000 Y16.5000
X33.3750 Y15.7125
X28.5375 Y16.0500
X25.1625 Y17.1750
X21.5625 Y19.4250
Z-19.2350
X30.1125 Y16.5000
Z-20.0325 F600
X30.7875 Y16.3875 Z-20.0009 F1200
X33.9375 Y16.5000 Z-20.0477
Y26.6250 Z-20.0000
X36.7500 Y29.3250
X37.4250 Y31.4625
X37.3125 Y33.1500
X36.5250 Y35.0625
X34.5000 Y36.8625
X32.8125 Y37.4250
X30.2250 Y37.2000
X28.7625 Y36.4125
X26.9625 Y34.0500
X26.6250 Y31.6875
X26.9625 Y30.0000
X27.9750 Y28.3125
X30.1125 Y26.6250
Y16.5000 Z-20.0325
Z-20.0019
X30.7875 Y16.9500
X33.3750
Y26.7375 Z-20.0000
X36.3000 Y29.6625
X36.8625 Y31.5750
X36.7500 Y33.0375
X36.0750 Y34.7250
X34.1625 Y36.4125
X32.8125 Y36.8625
X30.3375 Y36.6375
X29.1000 Y35.9625
X27.5250 Y33.9375
X27.1875 Y31.2375
X27.7500 Y29.6625
X28.5375 Y28.5375
X30.1125 Y27.5250
X30.6750 Y26.7375
X30.7875 Y16.9500 Z-20.0019
X31.2375 Y17.5125
X32.8125
Y26.8500 Z-20.0000
X33.1500 Y27.5250
X34.6125 Y28.5375
X35.8500 Y30.0000
X36.3000 Y31.6875
X36.1875 Y32.9250
X35.6250 Y34.3875
X33.8250 Y35.9625
X32.8125 Y36.3000
X30.6750 Y36.1875
X29.4375 Y35.5125
X28.3125 Y34.2750
X27.7500 Y32.7000
X27.8625 Y30.9000
X28.8750 Y28.9875
X30.4500 Y27.9750
X31.2375 Y26.8500
Y17.5125 Z-20.0019
X31.8000 Y18.0750
X32.2500
Y26.9625 Z-20.0000
X33.1500 Y28.5375
X32.1375 Y28.2000
X30.9000 Y28.4250
X31.3500 Y27.7500
X31.8000 Y26.9625
Y18.0750 Z-20.0019
Z-19.5000
Y28.7625
Z-20.0000 F600
X30.2250 Y29.3250 F1200
X29.2125 Y30.3375
X28.7625 Y31.4625
Y32.5875
X29.4375 Y33.9375
X30.2250 Y34.7250
X31.5750 Y35.1750
X33.7125 Y34.7250
X34.7250 Y33.7125
X35.1750 Y32.8125
Y31.2375
X34.6125 Y30.1125
X33.6000 Y29.2125
X31.8000 Y28.7625
Y29.3250
X30.5625 Y29.7750
X29.5500 Y30.9000
X29.3250 Y32.4750
X29.6625 Y33.2625
X30.5625 Y34.2750
X31.5750 Y34.6125
X33.3750 Y34.2750
X34.2750 Y33.3750
X34.6125 Y31.3500
X34.1625 Y30.4500
X33.2625 Y29.6625
X31.8000 Y29.3250
Y29.8875
X30.5625 Y30.5625
X30.0000 Y31.2375
X29.8875 Y32.3625
X30.5625 Y33.4875
X31.5750 Y34.0500
X33.0375 Y33.8250
X33.8250 Y33.0375
X34.0500 Y31.4625
X33.6000 Y30.6750
X32.5875 Y30.0000
X31.8000 Y29.8875
X32.1375 Y30.4500
Z-20.2490 F600
X31.2375 Y30.6750 F1200
X30.5625 Y31.3500
Y32.5875
X31.5750 Y33.4875
X32.7000 Y33.3750
X33.4875 Y32.4750
Y31.5750
X32.9250 Y30.7875
X32.1375 Y30.4500
Z-19.5000
X34.5000 Y26.5125
Z-20.2490 F600
X35.6250 Y27.1875 F1200
X37.2000 Y28.9875
X37.8750 Y30.6750
X37.9875 Y32.7000
X36.9750 Y35.4000
X34.3875 Y37.5375
X31.2375 Y37.9875
X28.7625 Y37.0875
X26.9625 Y35.2875
X26.0625 Y33.0375
Y31.0125
X26.7375 Y29.1000
X27.9750 Y27.5250
X29.5500 Y26.5125
X29.3250 Y16.3875
X27.1875 Y16.8375
X24.3750 Y18.0750
X21.9000 Y19.7625
X19.8750 Y21.7875
X17.4000 Y25.7250
X16.1625 Y30.6750
X16.2750 Y34.1625
X16.8375 Y36.7500
X18.6375 Y40.5750
X19.7625 Y42.0375
X22.2375 Y44.5125
X25.3875 Y46.4250
X29.4375 Y47.6625
X31.5750 Y47.8875
X36.1875 Y47.3250
X39.7875 Y45.8625
X41.9250 Y44.4000
X44.4000 Y41.9250
X46.6500 Y38.1000
X47.7750 Y33.8250
X47.6625 Y29.3250
X46.4250 Y25.3875
X43.8375 Y21.4500
X42.2625 Y19.8750
X39.4500 Y17.9625
X36.8625 Y16.8375
X34.5000 Y16.5000
Y26.5125
G00 Z5.0000
X41.0250 Y12.4500
G01 Z-19.2990
Z-20.2490 F600
X43.7250 Y13.9125 F1200
X47.8875 Y17.5125
X50.1375 Y20.4375
X51.6000 Y23.1375
X53.2875 Y28.7625
X53.5125 Y31.3500
X53.2875 Y35.2875
X51.6000 Y40.9125
X48.4500 Y45.8625
X43.9500 Y49.9125
X38.8875 Y52.3875
X35.9625 Y53.1750
X32.8125 Y53.5125
X28.6500 Y53.2875
X24.1500 Y52.0500
X19.7625 Y49.6875
X16.0500 Y46.4250
X12.7875 Y41.7000
X11.1000 Y37.2000
X10.5375 Y33.6000
X10.7625 Y28.5375
X12.3375 Y23.2500
X13.6875 Y20.6625
X15.8250 Y17.8500
X18.1875 Y15.4875
X20.6625 Y13.6875
X25.6125 Y11.4375
X30.2250 Y10.5375
X33.8250
X37.2000 Y11.1000
X41.0250 Y12.4500
Z-20.6990 F600
X43.7250 Y13.9125 F1200
X47.8875 Y17.5125
X50.1375 Y20.4375
X51.6000 Y23.1375
X53.2875 Y28.7625
X53.5125 Y31.3500
X53.2875 Y35.2875
X51.6000 Y40.9125
X48.4500 Y45.8625
X43.9500 Y49.9125
X38.8875 Y52.3875
X35.9625 Y53.1750
X32.8125 Y53.5125
X28.6500 Y53.2875
X24.1500 Y52.0500
X19.7625 Y49.6875
X16.0500 Y46.4250
X12.7875 Y41.7000
X11.1000 Y37.2000
X10.5375 Y33.6000
X10.7625 Y28.5375
X12.3375 Y23.2500
X13.6875 Y20.6625
X15.8250 Y17.8500
X18.1875 Y15.4875
X20.6625 Y13.6875
X25.6125 Y11.4375
X30.2250 Y10.5375
X33.8250
X37.2000 Y11.1000
X41.0250 Y12.4500
Z0.5000
X39.3375 Y18.4125
Z-19.7490
Z-20.6990 F600
X36.6375 Y17.2875 F1200
X35.1750 Y17.0625
Y26.8500
X36.7500 Y28.3125
X37.5375 Y29.6625
X37.9875 Y32.7000
X36.9750 Y35.4000
X35.4000 Y36.9750
X33.3750 Y37.8750
X31.1250 Y37.9875
X28.7625 Y37.0875
X26.7375 Y34.9500
X26.0625 Y33.0375
Y31.0125
X26.5125 Y29.5500
X27.5250 Y27.9750
X28.8750 Y26.8500
X28.7625 Y16.9500
X26.0625 Y17.7375
X21.9000 Y20.3250
X20.3250 Y21.9000
X18.5250 Y24.4875
X17.0625 Y28.0875
X16.6125 Y30.6750
X16.9500 Y35.4000
X17.9625 Y38.4375
X19.8750 Y41.4750
X21.9000 Y43.6125
X24.1500 Y45.3000
X27.5250 Y46.7625
X31.2375 Y47.4375
X35.2875 Y47.1000
X40.0125 Y45.1875
X43.5000 Y42.2625
X45.7500 Y39.0000
X47.1000 Y35.2875
X47.4375 Y31.0125
X46.4250 Y26.5125
X44.0625 Y22.3500
X41.9250 Y20.2125
X39.3375 Y18.4125
Z-19.5000
X32.9250 Y30.7875
Z-19.7490
Z-20.6990 F600
X32.1375 Y30.4500 F1200
X31.2375 Y30.6750
X30.5625 Y31.3500
Y32.5875
X31.5750 Y33.4875
X32.7000 Y33.3750
X33.4875 Y32.4750
Y31.5750
X32.9250 Y30.7875
Z-21.1490 F600
X32.1375 Y30.4500 F1200
X31.2375 Y30.6750
X30.5625 Y31.3500
Y32.5875
X31.5750 Y33.4875
X32.7000 Y33.3750
X33.4875 Y32.4750
Y31.5750
X32.9250 Y30.7875
Z-19.5000
X35.5125 Y27.0750
Z-20.1990
Z-21.1490 F600
X37.5375 Y29.6625 F1200
X37.9875 Y32.7000
X36.9750 Y35.4000
X35.7375 Y36.7500
X33.8250 Y37.7625
X31.1250 Y37.9875
X28.7625 Y37.0875
X26.7375 Y34.9500
X26.0625 Y33.0375
Y31.0125
X26.5125 Y29.5500
X28.4250 Y27.1875
X28.3125 Y17.5125
X24.3750 Y19.0875
X20.7750 Y22.0125
X18.5250 Y25.3875
X17.6250 Y27.6375
X17.0625 Y30.3375
Y33.6000
X17.6250 Y36.3000
X18.9750 Y39.4500
X20.6625 Y41.8125
X22.9125 Y43.9500
X25.0500 Y45.3000
X28.7625 Y46.6500
X30.9000 Y46.9875
X35.4000 Y46.6500
X39.1125 Y45.1875
X42.6000 Y42.6000
X45.1875 Y39.1125
X46.6500 Y35.4000
X46.9875 Y30.9000
X46.0875 Y26.8500
X43.6125 Y22.4625
X39.4500 Y18.9750
X35.5125 Y17.5125
Y27.0750
G00 Z5.0000
X43.3875 Y13.6875
G01 Z-20.1990
Z-21.1490 F600
X47.8875 Y17.5125 F1200
X50.0250 Y20.2125
X51.6000 Y23.1375
X53.2875 Y28.7625
X53.5125 Y31.3500
X53.2875 Y35.2875
X51.6000 Y40.9125
X48.4500 Y45.8625
X43.9500 Y49.9125
X38.8875 Y52.3875
X35.9625 Y53.1750
X32.8125 Y53.5125
X28.6500 Y53.2875
X24.1500 Y52.0500
X19.7625 Y49.6875
X16.0500 Y46.4250
X12.7875 Y41.7000
X11.1000 Y37.2000
X10.5375 Y33.6000
X10.7625 Y28.5375
X12.3375 Y23.2500
X15.0375 Y18.7500
X19.3125 Y14.5875
X23.2500 Y12.3375
X25.6125 Y11.4375
X30.2250 Y10.5375
X33.8250
X37.2000 Y11.1000
X40.5750 Y12.2250
X43.3875 Y13.6875
Z-21.5990 F600
X47.8875 Y17.5125 F1200
X50.0250 Y20.2125
X51.6000 Y23.1375
X53.2875 Y28.7625
X53.5125 Y31.3500
X53.2875 Y35.2875
X51.6000 Y40.9125
X48.4500 Y45.8625
X43.9500 Y49.9125
X38.8875 Y52.3875
X35.9625 Y53.1750
X32.8125 Y53.5125
X28.6500 Y53.2875
X24.1500 Y52.0500
X19.7625 Y49.6875
X16.0500 Y46.4250
X12.7875 Y41.7000
X11.1000 Y37.2000
X10.5375 Y33.6000
X10.7625 Y28.5375
X12.3375 Y23.2500
X15.0375 Y18.7500
X19.3125 Y14.5875
X22.6875 Y12.5625
X25.6125 Y11.4375
X30.2250 Y10.5375
X33.8250
X37.2000 Y11.1000
X40.5750 Y12.2250
X43.3875 Y13.6875
Z0.5000
X40.1250 Y19.9875
Z-20.6490
Z-21.5990 F600
X36.5250 Y18.1875 F1200
X35.7375
Y27.3000
X37.5375 Y29.6625
X37.9875 Y32.7000
X37.5375 Y34.3875
X36.4125 Y36.0750
X35.2875 Y37.0875
X32.8125 Y37.9875
X30.2250 Y37.7625
X28.4250 Y36.8625
X26.7375 Y34.9500
X26.0625 Y33.0375
Y31.0125
X26.5125 Y29.5500
X28.3125 Y27.3000
X28.2000 Y18.0750
X24.8250 Y19.4250
X22.1250 Y21.4500
X19.4250 Y24.7125
X17.9625 Y28.3125
X17.5125 Y31.2375
X17.6250 Y33.9375
X18.4125 Y37.0875
X19.7625 Y39.7875
X21.1125 Y41.5875
X23.9250 Y44.0625
X27.0750 Y45.6375
X30.5625 Y46.4250
X34.9500 Y46.2000
X39.0000 Y44.7375
X41.2500 Y43.1625
X43.2750 Y41.1375
X44.7375 Y39.0000
X46.2000 Y34.9500
X46.4250 Y30.4500
X45.5250 Y26.7375
X44.0625 Y23.9250
X41.5875 Y21.1125
X40.1250 Y19.9875
Z-19.5000
X32.5875 Y30.5625
Z-20.6490
Z-21.5990 F600
X31.8000 Y30.4500 F1200
X30.5625 Y31.4625
Y32.5875
X31.5750 Y33.4875
X32.7000 Y33.3750
X33.3750 Y32.7000
X33.2625 Y31.1250
X32.5875 Y30.5625
Z-19.5000
X37.2000 Y27.6375
Z-21.0500
Z-22.0000 F600
X38.5500 Y28.0875 F1200
X40.6875 Y27.6375
X41.9250 Y26.0625
X42.0375 Y24.2625
X40.6875 Y22.3500
X39.4500 Y21.9000
X37.8750 Y22.1250
X36.4125 Y23.0250
Y18.9750
X39.4500 Y20.3250
X42.3750 Y22.8000
X44.0625 Y25.2750
X45.5250 Y29.1000
X45.7500 Y33.3750
X44.9625 Y36.8625
X43.1625 Y40.2375
X40.3500 Y43.0500
X36.8625 Y44.9625
X33.4875 Y45.7500
X30.5625
X27.4125 Y45.0750
X24.2625 Y43.5000
X21.6750 Y41.2500
X20.1000 Y39.1125
X18.6375 Y35.6250
X18.1875 Y31.3500
X18.8625 Y27.6375
X20.8875 Y23.7000
X23.0250 Y21.4500
X25.1625 Y19.9875
X27.6375 Y18.9750
Y23.1375
X26.4000 Y22.2375
X24.6000 Y21.9000
X23.0250 Y22.5750
X21.9000 Y24.4875
X22.0125 Y25.9500
X23.3625 Y27.6375
X25.3875 Y28.0875
X27.0750 Y27.5250
X26.2875 Y28.5375
X25.3875 Y30.9000
Y33.1500
X25.9500 Y34.8375
X28.0875 Y37.4250
X31.1250 Y38.6625
X33.8250 Y38.4375
X36.4125 Y36.9750
X35.8500 Y38.8875
X36.3000 Y40.5750
X37.3125 Y41.5875
X39.1125 Y42.1500
X40.5750 Y41.7000
X41.4750 Y40.9125
X42.1500 Y38.8875
X41.7000 Y37.4250
X40.2375 Y36.1875
X39.0000 Y35.8500
X36.9750 Y36.4125
X38.2125 Y34.5000
X38.6625 Y32.8125
X38.5500 Y30.5625
X37.2000 Y27.6375
Z-21.5000
X38.4375 Y28.6500
Z-22.0000 F600
X40.8000 Y28.2000 F1200
X42.0375 Y27.0750
X42.6000 Y25.8375
Y24.3750
X43.2750 Y24.9375
X44.2875 Y26.9625
X45.1875 Y30.6750
Y33.2625
X44.4000 Y36.7500
X42.8250 Y39.6750
X42.4875 Y37.7625
X41.0250 Y35.9625
X39.1125 Y35.2875
X38.4375 Y35.4000
X39.2250 Y32.9250
X39.1125 Y30.4500
X38.4375 Y28.6500
Z-21.5000
X39.3375 Y29.2125
Z-22.0000 F600
X41.3625 Y28.5375 F1200
X42.4875 Y27.4125
X43.0500 Y26.1750
X43.7250 Y27.0750
X44.6250 Y30.7875
Y33.1500
X44.0625 Y35.9625
X43.2750 Y37.8750
X41.3625 Y35.5125
X39.3375 Y34.8375
X39.7875 Y33.0375
Y31.0125
X39.3375 Y29.2125
X40.0125 Y29.5500
X41.7000 Y28.9875
X43.2750 Y27.5250
X44.0625 Y30.9000
Y33.0375
X43.2750 Y36.5250
X41.7000 Y35.0625
X40.0125 Y34.5000
X40.3500 Y33.1500
X40.0125 Y29.5500
X40.8000 Y29.8875
X41.2500 Y29.6625
X43.0500 Y28.6500
X43.5000 Y31.0125
X43.0500 Y35.2875
X40.6875 Y34.1625
X40.8000 Y29.8875
X41.3625 Y30.2250
X42.7125 Y29.7750
Y34.2750
X41.3625 Y33.8250
Y30.2250
X42.0375 Y30.5625
X42.3750 Y31.2375
X42.2625 Y33.4875
X42.0375 Y30.5625
Z0.5000
X39.6750 Y21.2250
Z-21.0500
Z-22.0000 F600
X37.2000 Y21.9000 F1200
X36.9750 Y19.8750
X39.6750 Y21.2250
Z-19.5019
X27.0750 Y21.9000
Z-21.0500
Z-22.0000 F600
X24.2625 Y21.2250 F1200
X26.8500 Y19.7625
X27.0750 Y21.9000
Z-21.5000
X21.1125 Y24.4875
Z-22.0000 F600
X21.6750 Y26.5125 F1200
X23.0250 Y28.0875
X24.6000 Y28.6500
X25.6125 Y28.5375
X24.8250 Y30.7875
Y33.1500
X25.6125 Y35.4000
X23.3625 Y35.7375
X22.0125 Y36.8625
X21.3375 Y38.4375
X21.4500 Y39.6750
X20.5500 Y38.7750
X19.2000 Y35.5125
X18.7500 Y32.5875
X18.8625 Y30.3375
X19.5375 Y27.4125
X21.1125 Y24.4875
Z-21.5000
X21.0000 Y26.2875
Z-22.0000 F600
X22.6875 Y28.5375 F1200
X24.7125 Y29.2125
X24.2625 Y30.6750
Y33.3750
X24.7125 Y34.8375
X22.5750 Y35.5125
X21.5625 Y36.5250
X21.0000 Y37.7625
X20.6625
X20.2125 Y36.7500
X19.4250 Y33.6000
X19.3125 Y31.5750
X19.7625 Y28.6500
X20.6625 Y26.2875
X21.0000
Z-21.5000
Y27.4125
Z-22.0000 F600
X22.3500 Y28.9875 F1200
X23.9250 Y29.5500
Y34.5000
X22.2375 Y35.0625
X21.0000 Y36.5250
X20.3250 Y35.2875
X19.8750 Y32.3625
X20.6625 Y27.6375
X21.0000 Y27.4125
Z-21.5000
Y28.6500
Z-22.0000 F600
X23.2500 Y29.8875 F1200
Y34.1625
X21.9000 Y34.6125
X21.2250 Y35.2875
X20.8875 Y35.1750
X20.5500 Y33.3750
X20.6625 Y29.8875
X21.0000 Y28.6500
Z-21.5000
X21.5625 Y29.7750
Z-22.0000 F600
X22.5750 Y30.2250 F1200
Y33.8250
X21.6750 Y34.1625
X21.3375
X21.1125 Y33.2625
X21.2250 Y30.0000
X21.5625 Y29.7750
X21.7875 Y30.5625
X22.0125 Y33.3750
X21.6750 Y33.1500
X21.7875 Y30.5625
Z-21.5000
X23.2500 Y36.4125
Z-22.0000 F600
X22.4625 Y37.2000 F1200
X21.9000 Y38.5500
X22.3500 Y40.5750
X23.7000 Y41.8125
X25.0500 Y42.1500
X26.5125 Y41.7000
X27.6375 Y40.6875
X28.0875 Y39.5625
Y38.3250
X27.6375 Y37.3125
X26.2875 Y36.1875
X25.0500 Y35.8500
X23.2500 Y36.4125
Z-21.5000
X28.6500 Y38.4375
Z-22.0000 F600
X31.1250 Y39.2250 F1200
X32.8125
X35.4000 Y38.4375
Y39.9000
X35.8500 Y40.9125
X37.2000 Y42.1500
X39.0000 Y42.7125
X39.7875 Y42.4875
X39.6750 Y42.8250
X35.8500 Y44.7375
X33.4875 Y45.1875
X30.5625
X27.1875 Y44.4000
X24.6000 Y43.0500
X24.3750 Y42.6000
X25.6125
X27.1875 Y41.9250
X28.4250 Y40.3500
X28.6500 Y38.4375
Z-21.5000
X29.2125 Y39.2250
Z-22.0000 F600
X31.1250 Y39.7875 F1200
X34.7250 Y39.3375
X35.4000 Y41.2500
X36.6375 Y42.4875
X37.9875 Y42.9375
Y43.2750
X34.9500 Y44.4000
X30.5625 Y44.6250
X27.5250 Y43.9500
X26.0625 Y43.2750
Y42.9375
X27.1875 Y42.6000
X28.5375 Y41.3625
X29.2125 Y39.2250
Z-21.5000
X29.6625 Y40.0125
Z-22.0000 F600
X31.1250 Y40.3500 F1200
X34.2750 Y40.0125
X34.9500 Y41.5875
X36.6375 Y43.2750
X33.4875 Y44.0625
X30.5625
X28.2000 Y43.6125
X27.4125 Y43.0500
X28.9875 Y41.7000
X29.6625 Y40.0125
X30.1125 Y40.6875
X31.1250 Y40.9125
X33.9375 Y40.6875
X35.4000 Y43.1625
X30.5625 Y43.5000
X28.7625 Y43.1625
Y42.7125
X30.1125 Y40.6875
X30.3375 Y41.3625
X33.6000
X34.2750 Y42.8250
X33.4875 Y42.9375
X29.7750 Y42.8250
X30.3375 Y41.3625
X30.6750 Y41.9250
X33.2625
X33.3750 Y42.3750
X30.5625 Y42.1500
X30.6750 Y41.9250
Z-21.5000
X27.1875 Y40.3500
Z-22.0490 F600
X27.5250 Y39.4500 F1200
X27.1875 Y37.6500
X25.9500 Y36.6375
X24.3750 Y36.5250
X22.9125 Y37.5375
X22.4625 Y38.6625
X23.0250 Y40.5750
X24.0375 Y41.3625
X25.0500 Y41.5875
X26.1750 Y41.2500
X27.1875 Y40.3500
Z-19.5000
X31.5750 Y33.4875
Z-21.0990
Z-22.0490 F600
X32.7000 Y33.3750 F1200
X33.3750 Y32.7000
X33.2625 Y31.1250
X32.5875 Y30.5625
X31.8000 Y30.4500
X30.5625 Y31.4625
Y32.5875
X31.5750 Y33.4875
Z-19.5000
X36.7500 Y37.7625
Z-21.0990
Z-22.0490 F600
X36.4125 Y39.0000 F1200
X36.7500 Y40.2375
X37.6500 Y41.1375
X39.0000 Y41.5875
X40.2375 Y41.2500
X41.2500 Y40.2375
X41.5875 Y39.0000
X41.2500 Y37.7625
X40.3500 Y36.8625
X39.1125 Y36.4125
X37.4250 Y36.9750
X36.7500 Y37.7625
Z-19.5000
X38.5500 Y27.5250
Z-21.0990
Z-22.0490 F600
X40.1250 Y27.3000 F1200
X41.1375 Y26.4000
X41.4750 Y25.6125
X41.3625 Y24.0375
X40.3500 Y22.8000
X39.4500 Y22.4625
X37.6500 Y22.8000
X36.7500 Y23.8125
X36.6375 Y25.9500
X37.6500 Y27.1875
X38.5500 Y27.5250
Z-19.5000
X27.5250 Y25.5000
Z-21.0990
Z-22.0490 F600
X27.1875 Y23.7000 F1200
X26.0625 Y22.6875
X24.6000 Y22.4625
X23.1375 Y23.2500
X22.4625 Y24.6000
X22.5750 Y25.8375
X23.0250 Y26.5125
X24.6000 Y27.5250
X25.8375 Y27.4125
X26.9625 Y26.6250
X27.5250 Y25.5000
Z0.5000
X19.3125 Y14.5875
Z-21.0990
Z-22.0490 F600
X22.6875 Y12.5625 F1200
X25.6125 Y11.4375
X30.2250 Y10.5375
X33.8250
X37.6500 Y11.2125
X40.5750 Y12.2250
X43.3875 Y13.6875
X47.8875 Y17.5125
X50.0250 Y20.2125
X51.6000 Y23.1375
X53.2875 Y28.7625
X53.5125 Y31.3500
X53.2875 Y35.2875
X51.6000 Y40.9125
X48.4500 Y45.8625
X43.9500 Y49.9125
X38.8875 Y52.3875
X35.9625 Y53.1750
X32.8125 Y53.5125
X28.6500 Y53.2875
X24.1500 Y52.0500
X19.7625 Y49.6875
X16.0500 Y46.4250
X12.7875 Y41.7000
X11.1000 Y37.2000
X10.5375 Y33.6000
X10.7625 Y28.5375
X12.3375 Y23.2500
X15.0375 Y18.7500
X19.3125 Y14.5875
Z-22.4990 F600
X22.6875 Y12.5625 F1200
X25.6125 Y11.4375
X30.2250 Y10.5375
X33.8250
X37.6500 Y11.2125
X40.5750 Y12.2250
X43.3875 Y13.6875
X47.8875 Y17.5125
X50.0250 Y20.2125
X51.6000 Y23.1375
X53.2875 Y28.7625
X53.5125 Y31.3500
X53.2875 Y35.2875
X51.6000 Y40.9125
X48.4500 Y45.8625
X43.9500 Y49.9125
X38.8875 Y52.3875
X35.9625 Y53.1750
X32.8125 Y53.5125
X28.6500 Y53.2875
X24.1500 Y52.0500
X19.7625 Y49.6875
X16.0500 Y46.4250
X12.7875 Y41.7000
X11.1000 Y37.2000
X10.5375 Y33.6000
X10.7625 Y28.5375
X12.3375 Y23.2500
X15.0375 Y18.7500
X19.3125 Y14.5875
Z0.5000
X24.3750 Y22.9125
Z-21.5490
Z-22.4990 F600
X23.2500 Y23.8125 F1200
X22.9125 Y24.3750
X23.0250 Y25.8375
X23.9250 Y26.8500
X24.9375 Y27.1875
X26.7375 Y26.2875
X27.1875 Y25.0500
X27.0750 Y24.3750
X26.2875 Y23.2500
X25.2750 Y22.9125
X24.3750
Z0.5000
X30.5625 Y31.4625
Z-21.5490
Z-22.4990 F600
Y32.5875 F1200
X31.5750 Y33.4875
X32.7000 Y33.3750
X33.3750 Y32.7000
X33.2625 Y31.1250
X32.5875 Y30.5625
X31.8000 Y30.4500
X30.5625 Y31.4625
Z-19.5000
X25.6125 Y36.9750
Z-21.5490
Z-22.4990 F600
X24.6000 Y36.8625 F1200
X23.2500 Y37.7625
X22.9125 Y38.4375
X23.1375 Y40.1250
X24.7125 Y41.1375
X26.1750 Y40.8000
X26.8500 Y40.1250
X27.0750 Y38.3250
X25.6125 Y36.9750
Z-19.5000
X36.8625 Y38.6625
Z-21.5490
Z-22.4990 F600
X36.9750 Y39.7875 F1200
X37.4250 Y40.4625
X38.8875 Y41.1375
X40.0125 Y40.9125
X40.8000 Y40.2375
X41.1375 Y38.6625
X40.6875 Y37.6500
X39.9000 Y37.0875
X38.2125 Y36.9750
X37.2000 Y37.7625
X36.8625 Y38.6625
Z-19.6982
X39.1125 Y27.1875
Z-21.5490
Z-22.4990 F600
X40.1250 Y26.8500 F1200
X41.0250 Y25.8375
X41.1375 Y24.7125
X40.6875 Y23.7000
X40.0125 Y23.1375
X38.4375 Y22.9125
X37.0875 Y23.9250
X36.8625 Y24.6000
X37.3125 Y26.2875
X37.8750 Y26.8500
X39.1125 Y27.1875
Z-22.3584
X38.8875 Y27.0750
Z-22.9490 F600
X39.6750 Y26.9625 F1200
X40.6875 Y26.1750
X41.0250 Y24.6000
X39.9000 Y23.1375
X38.4375 Y23.0250
X37.7625 Y23.3625
X37.0875 Y24.2625
X36.9750 Y25.3875
X37.7625 Y26.6250
X38.8875 Y27.0750
Z-19.5000
X33.2625 Y31.1250
Z-21.9990
Z-22.9490 F600
X32.5875 Y30.5625 F1200
X31.8000 Y30.4500
X30.5625 Y31.4625
Y32.5875
X31.5750 Y33.4875
X32.7000 Y33.3750
X33.3750 Y32.7000
X33.2625 Y31.1250
Z-19.5000
X37.4250 Y37.6500
Z-21.9990
Z-22.9490 F600
X36.9750 Y38.6625 F1200
X37.0875 Y39.7875
X37.6500 Y40.5750
X38.7750 Y41.0250
X40.5750 Y40.3500
X41.0250 Y39.3375
X40.9125 Y38.2125
X40.3500 Y37.4250
X39.2250 Y36.9750
X37.4250 Y37.6500
Z-19.5000
X26.9625 Y38.3250
Z-21.9990
Z-22.9490 F600
X26.1750 Y37.3125 F1200
X25.2750 Y36.9750
X24.2625 Y37.0875
X23.3625 Y37.7625
X22.9125 Y39.0000
X23.1375 Y39.9000
X23.8125 Y40.6875
X24.7125 Y41.0250
X25.7250 Y40.9125
X26.7375 Y40.1250
X26.9625 Y38.3250
Z-21.5000
X24.9375 Y27.0750
Z-21.9990
Z-22.9490 F600
X26.6250 Y26.2875 F1200
X27.0750 Y25.0500
X26.9625 Y24.3750
X25.6125 Y23.0250
X24.1500 Y23.1375
X23.3625 Y23.8125
X23.0250 Y24.3750
Y25.6125
X23.9250 Y26.7375
X24.9375 Y27.0750
Z0.5000
X15.0375 Y18.7500
Z-21.9990
Z-22.9490 F600
X19.3125 Y14.5875 F1200
X22.6875 Y12.5625
X25.6125 Y11.4375
X30.2250 Y10.5375
X33.8250
X37.6500 Y11.2125
X40.5750 Y12.2250
X43.3875 Y13.6875
X47.8875 Y17.5125
X50.0250 Y20.2125
X51.6000 Y23.1375
X53.2875 Y28.7625
X53.5125 Y31.3500
X53.2875 Y35.2875
X51.6000 Y40.9125
X48.4500 Y45.8625
X43.9500 Y49.9125
X38.8875 Y52.3875
X35.9625 Y53.1750
X32.8125 Y53.5125
X28.6500 Y53.2875
X24.1500 Y52.0500
X19.7625 Y49.6875
X16.0500 Y46.4250
X12.7875 Y41.7000
X11.1000 Y37.2000
X10.5375 Y33.6000
X10.7625 Y28.5375
X12.3375 Y23.2500
X15.0375 Y18.7500
Z-23.3990 F600
X19.3125 Y14.5875 F1200
X22.6875 Y12.5625
X25.6125 Y11.4375
X30.2250 Y10.5375
X33.8250
X37.6500 Y11.2125
X40.5750 Y12.2250
X43.3875 Y13.6875
X47.8875 Y17.5125
X50.0250 Y20.2125
X51.6000 Y23.1375
X53.2875 Y28.7625
X53.5125 Y31.3500
X53.2875 Y35.2875
X51.6000 Y40.9125
X48.4500 Y45.8625
X43.9500 Y49.9125
X38.8875 Y52.3875
X35.9625 Y53.1750
X32.8125 Y53.5125
X28.6500 Y53.2875
X24.1500 Y52.0500
X19.7625 Y49.6875
X16.0500 Y46.4250
X12.7875 Y41.7000
X11.1000 Y37.2000
X10.5375 Y33.6000
X10.7625 Y28.5375
X12.3375 Y23.2500
X15.0375 Y18.7500
Z0.5000
X23.3625 Y23.8125
Z-22.4490
Z-23.3990 F600
X23.0250 Y24.3750 F1200
Y25.6125
X23.9250 Y26.7375
X24.9375 Y27.0750
X26.6250 Y26.2875
X27.0750 Y25.0500
X26.9625 Y24.3750
X25.6125 Y23.0250
X24.1500 Y23.1375
X23.3625 Y23.8125
Z0.5000
X30.5625 Y31.4625
Z-22.4490
Z-23.3990 F600
Y32.5875 F1200
X31.5750 Y33.4875
X32.7000 Y33.3750
X33.3750 Y32.7000
X33.2625 Y31.1250
X32.5875 Y30.5625
X31.8000 Y30.4500
X30.5625 Y31.4625
Z-19.5000
X26.1750 Y37.3125
Z-22.4490
Z-23.3990 F600
X25.2750 Y36.9750 F1200
X24.2625 Y37.0875
X23.3625 Y37.7625
X22.9125 Y39.0000
X23.1375 Y39.9000
X23.8125 Y40.6875
X24.7125 Y41.0250
X25.7250 Y40.9125
X26.7375 Y40.1250
X26.9625 Y38.3250
X26.1750 Y37.3125
Z-19.5000
X36.9750 Y38.6625
Z-22.4490
Z-23.3990 F600
X37.0875 Y39.7875 F1200
X37.6500 Y40.5750
X38.7750 Y41.0250
X40.5750 Y40.3500
X41.0250 Y39.3375
X40.9125 Y38.2125
X40.3500 Y37.4250
X39.2250 Y36.9750
X37.4250 Y37.6500
X36.9750 Y38.6625
Z-19.5000
X38.8875 Y27.0750
Z-22.4490
Z-23.3990 F600
X39.6750 Y26.9625 F1200
X40.6875 Y26.1750
X41.0250 Y24.6000
X39.9000 Y23.1375
X38.4375 Y23.0250
X37.7625 Y23.3625
X37.0875 Y24.2625
X36.9750 Y25.3875
X37.7625 Y26.6250
X38.8875 Y27.0750
Z-23.8490 F600
X39.6750 Y26.9625 F1200
X40.6875 Y26.1750
X41.0250 Y24.6000
X39.9000 Y23.1375
X38.4375 Y23.0250
X37.7625 Y23.3625
X37.0875 Y24.2625
X36.9750 Y25.3875
X37.7625 Y26.6250
X38.8875 Y27.0750
Z-19.5000
X33.2625 Y31.1250
Z-22.8990
Z-23.8490 F600
X32.5875 Y30.5625 F1200
X31.8000 Y30.4500
X30.5625 Y31.4625
Y32.5875
X31.5750 Y33.4875
X32.7000 Y33.3750
X33.3750 Y32.7000
X33.2625 Y31.1250
Z-19.5000
X37.4250 Y37.6500
Z-22.8990
Z-23.8490 F600
X36.9750 Y38.6625 F1200
X37.0875 Y39.7875
X37.6500 Y40.5750
X38.7750 Y41.0250
X40.5750 Y40.3500
X41.0250 Y39.3375
X40.9125 Y38.2125
X40.3500 Y37.4250
X39.2250 Y36.9750
X37.4250 Y37.6500
Z-19.5000
X26.9625 Y38.3250
Z-22.8990
Z-23.8490 F600
X26.1750 Y37.3125 F1200
X25.2750 Y36.9750
X24.2625 Y37.0875
X23.3625 Y37.7625
X22.9125 Y39.0000
X23.1375 Y39.9000
X23.8125 Y40.6875
X24.7125 Y41.0250
X25.7250 Y40.9125
X26.7375 Y40.1250
X26.9625 Y38.3250
Z-19.5000
X24.9375 Y27.0750
Z-22.8990
Z-23.8490 F600
X26.6250 Y26.2875 F1200
X27.0750 Y25.0500
X26.9625 Y24.3750
X25.6125 Y23.0250
X24.1500 Y23.1375
X23.3625 Y23.8125
X23.0250 Y24.3750
Y25.6125
X23.9250 Y26.7375
X24.9375 Y27.0750
Z0.5000
X15.0375 Y18.7500
Z-22.8990
Z-23.8490 F600
X19.3125 Y14.5875 F1200
X22.6875 Y12.5625
X25.6125 Y11.4375
X30.2250 Y10.5375
X33.8250
X37.6500 Y11.2125
X40.5750 Y12.2250
X43.3875 Y13.6875
