E_HEAD(3678207,0,0,0,300,300,-40,71,17,1,20,0,1,20,,1,7,6,100,1,,1);*RO*
;*************************************
;Projekt 07_01_felge
;Erstellt mit Estlcam Version 11 Build 11,244
;Laufzeit ca. 00:22:25 Stunden
;*************************************

T="Fräser 5mm" 
L6
S20000 F1500 M3


G00 Z5.0000
;*************************************
;Nr. 1 Konturfolgend schruppen: 
;*************************************
X15.6000 Y13.2000
G01 Z0.5000 F1500 S20000
Z-2.0000 F900
X21.0000 Y9.6000 F1500
X26.8000 Y7.6000
X34.0000 Y7.2000
X38.8000 Y8.0000
X44.4000 Y10.4000
X50.6000 Y15.4000
X54.4000 Y21.0000
X56.6000 Y27.4000
X56.8000 Y35.2000
X55.2000 Y41.2000
X51.4000 Y47.6000
X46.8000 Y52.0000
X40.6000 Y55.4000
X33.8000 Y56.8000
X26.8000 Y56.4000
X22.4000 Y55.0000
X17.2000 Y52.0000
X13.4000 Y48.6000
X10.6000 Y44.8000
X7.4000 Y36.6000
X7.2000 Y28.8000
X7.8000 Y25.8000
X10.6000 Y19.2000
X15.6000 Y13.2000
X17.0000 Y14.2000
X12.2000 Y19.8000
X9.4000 Y26.6000
X8.8000 Y30.0000
X9.0000 Y35.4000
X10.4000 Y40.6000
X13.0000 Y45.4000
X16.8000 Y49.6000
X20.8000 Y52.4000
X24.4000 Y54.0000
X30.0000 Y55.2000
X37.4000 Y54.6000
X43.2000 Y52.4000
X47.2000 Y49.6000
X51.8000 Y44.2000
X54.6000 Y37.4000
X55.2000 Y30.0000
X54.2000 Y25.0000
X51.0000 Y18.6000
X46.0000 Y13.4000
X40.6000 Y10.4000
X34.0000 Y8.8000
X28.6000 Y9.0000
X22.0000 Y11.0000
X17.0000 Y14.2000
Z-4.0000 F900
X12.2000 Y19.8000 F1500
X9.4000 Y26.6000
X8.8000 Y30.0000
X9.0000 Y35.4000
X10.4000 Y40.6000
X13.0000 Y45.4000
X16.8000 Y49.6000
X20.8000 Y52.4000
X24.4000 Y54.0000
X30.0000 Y55.2000
X37.4000 Y54.6000
X43.2000 Y52.4000
X47.2000 Y49.6000
X51.8000 Y44.2000
X54.6000 Y37.4000
X55.2000 Y30.0000
X54.2000 Y25.0000
X51.0000 Y18.6000
X46.0000 Y13.4000
X40.6000 Y10.4000
X34.0000 Y8.8000
X28.6000 Y9.0000
X22.0000 Y11.0000
X17.0000 Y14.2000
X15.6000 Y13.2000
X21.0000 Y9.6000
X26.8000 Y7.6000
X34.0000 Y7.2000
X38.8000 Y8.0000
X44.4000 Y10.4000
X50.6000 Y15.4000
X54.4000 Y21.0000
X56.6000 Y27.4000
X56.8000 Y35.2000
X55.2000 Y41.2000
X51.4000 Y47.6000
X46.8000 Y52.0000
X40.6000 Y55.4000
X33.8000 Y56.8000
X26.8000 Y56.4000
X22.4000 Y55.0000
X17.2000 Y52.0000
X13.4000 Y48.6000
X10.6000 Y44.8000
X7.4000 Y36.6000
X7.2000 Y28.8000
X7.8000 Y25.8000
X10.6000 Y19.2000
X15.6000 Y13.2000
Z-6.0000 F900
X21.0000 Y9.6000 F1500
X26.8000 Y7.6000
X34.0000 Y7.2000
X38.8000 Y8.0000
X44.4000 Y10.4000
X50.6000 Y15.4000
X54.4000 Y21.0000
X56.6000 Y27.4000
X56.8000 Y35.2000
X55.2000 Y41.2000
X51.4000 Y47.6000
X46.8000 Y52.0000
X40.6000 Y55.4000
X33.8000 Y56.8000
X26.8000 Y56.4000
X22.4000 Y55.0000
X17.2000 Y52.0000
X13.4000 Y48.6000
X10.6000 Y44.8000
X7.4000 Y36.6000
X7.2000 Y28.8000
X7.8000 Y25.8000
X10.6000 Y19.2000
X15.6000 Y13.2000
X17.0000 Y14.2000
X12.2000 Y19.8000
X9.4000 Y26.6000
X8.8000 Y30.0000
X9.0000 Y35.4000
X10.4000 Y40.6000
X13.0000 Y45.4000
X16.8000 Y49.6000
X20.8000 Y52.4000
X24.4000 Y54.0000
X30.0000 Y55.2000
X37.4000 Y54.6000
X43.2000 Y52.4000
X47.2000 Y49.6000
X51.8000 Y44.2000
X54.6000 Y37.4000
X55.2000 Y30.0000
X54.2000 Y25.0000
X51.0000 Y18.6000
X46.0000 Y13.4000
X40.6000 Y10.4000
X34.0000 Y8.8000
X28.6000 Y9.0000
X22.0000 Y11.0000
X17.0000 Y14.2000
Z-8.0000 F900
X12.2000 Y19.8000 F1500
X9.4000 Y26.6000
X8.8000 Y30.0000
X9.0000 Y35.4000
X10.4000 Y40.6000
X13.0000 Y45.4000
X16.8000 Y49.6000
X20.8000 Y52.4000
X24.4000 Y54.0000
X30.0000 Y55.2000
X37.4000 Y54.6000
X43.2000 Y52.4000
X47.2000 Y49.6000
X51.8000 Y44.2000
X54.6000 Y37.4000
X55.2000 Y30.0000
X54.2000 Y25.0000
X51.0000 Y18.6000
X46.0000 Y13.4000
X40.6000 Y10.4000
X34.0000 Y8.8000
X28.6000 Y9.0000
X22.0000 Y11.0000
X17.0000 Y14.2000
X15.6000 Y13.2000
X21.0000 Y9.6000
X26.8000 Y7.6000
X34.0000 Y7.2000
X38.8000 Y8.0000
X44.4000 Y10.4000
X50.6000 Y15.4000
X54.4000 Y21.0000
X56.6000 Y27.4000
X56.8000 Y35.2000
X55.2000 Y41.2000
X51.4000 Y47.6000
X46.8000 Y52.0000
X40.6000 Y55.4000
X33.8000 Y56.8000
X26.8000 Y56.4000
X22.4000 Y55.0000
X17.2000 Y52.0000
X13.4000 Y48.6000
X10.6000 Y44.8000
X7.4000 Y36.6000
X7.2000 Y28.8000
X7.8000 Y25.8000
X10.6000 Y19.2000
X15.6000 Y13.2000
Z-10.0000 F900
X21.0000 Y9.6000 F1500
X26.8000 Y7.6000
X34.0000 Y7.2000
X38.8000 Y8.0000
X44.4000 Y10.4000
X50.6000 Y15.4000
X54.4000 Y21.0000
X56.6000 Y27.4000
X56.8000 Y35.2000
X55.2000 Y41.2000
X51.4000 Y47.6000
X46.8000 Y52.0000
X40.6000 Y55.4000
X33.8000 Y56.8000
X26.8000 Y56.4000
X22.4000 Y55.0000
X17.2000 Y52.0000
X13.4000 Y48.6000
X10.6000 Y44.8000
X7.4000 Y36.6000
X7.2000 Y28.8000
X7.8000 Y25.8000
X10.6000 Y19.2000
X15.6000 Y13.2000
X17.0000 Y14.2000
X12.2000 Y19.8000
X9.4000 Y26.6000
X8.8000 Y30.0000
X9.0000 Y35.4000
X10.4000 Y40.6000
X13.0000 Y45.4000
X16.8000 Y49.6000
X20.8000 Y52.4000
X24.4000 Y54.0000
X30.0000 Y55.2000
X37.4000 Y54.6000
X43.2000 Y52.4000
X47.2000 Y49.6000
X51.8000 Y44.2000
X54.6000 Y37.4000
X55.2000 Y30.0000
X54.2000 Y25.0000
X51.0000 Y18.6000
X46.0000 Y13.4000
X40.6000 Y10.4000
X34.0000 Y8.8000
X28.6000 Y9.0000
X22.0000 Y11.0000
X17.0000 Y14.2000
Z-12.0000 F900
X12.2000 Y19.8000 F1500
X9.4000 Y26.6000
X8.8000 Y30.0000
X9.0000 Y35.4000
X10.4000 Y40.6000
X13.0000 Y45.4000
X16.8000 Y49.6000
X20.8000 Y52.4000
X24.4000 Y54.0000
X30.0000 Y55.2000
X37.4000 Y54.6000
X43.2000 Y52.4000
X47.2000 Y49.6000
X51.8000 Y44.2000
X54.6000 Y37.4000
X55.2000 Y30.0000
X54.2000 Y25.0000
X51.0000 Y18.6000
X46.0000 Y13.4000
X40.6000 Y10.4000
X34.0000 Y8.8000
X28.6000 Y9.0000
X22.0000 Y11.0000
X17.0000 Y14.2000
X15.6000 Y13.2000
X21.0000 Y9.6000
X26.8000 Y7.6000
X34.0000 Y7.2000
X38.8000 Y8.0000
X44.4000 Y10.4000
X50.6000 Y15.4000
X54.4000 Y21.0000
X56.6000 Y27.4000
X56.8000 Y35.2000
X55.2000 Y41.2000
X51.4000 Y47.6000
X46.8000 Y52.0000
X40.6000 Y55.4000
X33.8000 Y56.8000
X26.8000 Y56.4000
X22.4000 Y55.0000
X17.2000 Y52.0000
X13.4000 Y48.6000
X10.6000 Y44.8000
X7.4000 Y36.6000
X7.2000 Y28.8000
X7.8000 Y25.8000
X10.6000 Y19.2000
X15.6000 Y13.2000
Z-14.0000 F900
X21.0000 Y9.6000 F1500
X26.8000 Y7.6000
X34.0000 Y7.2000
X38.8000 Y8.0000
X44.4000 Y10.4000
X50.6000 Y15.4000
X54.4000 Y21.0000
X56.6000 Y27.4000
X56.8000 Y35.2000
X55.2000 Y41.2000
X51.4000 Y47.6000
X46.8000 Y52.0000
X40.6000 Y55.4000
X33.8000 Y56.8000
X26.8000 Y56.4000
X22.4000 Y55.0000
X17.2000 Y52.0000
X13.4000 Y48.6000
X10.6000 Y44.8000
X7.4000 Y36.6000
X7.2000 Y28.8000
X7.8000 Y25.8000
X10.6000 Y19.2000
X15.6000 Y13.2000
X17.0000 Y14.2000
X12.2000 Y19.8000
X9.4000 Y26.6000
X8.8000 Y30.0000
X9.0000 Y35.4000
X10.4000 Y40.6000
X13.0000 Y45.4000
X16.8000 Y49.6000
X20.8000 Y52.4000
X24.4000 Y54.0000
X30.0000 Y55.2000
X37.4000 Y54.6000
X43.2000 Y52.4000
X47.2000 Y49.6000
X51.8000 Y44.2000
X54.6000 Y37.4000
X55.2000 Y30.0000
X54.2000 Y25.0000
X51.0000 Y18.6000
X46.0000 Y13.4000
X40.6000 Y10.4000
X34.0000 Y8.8000
X28.6000 Y9.0000
X22.0000 Y11.0000
X17.0000 Y14.2000
Z-16.0000 F900
X12.2000 Y19.8000 F1500
X9.4000 Y26.6000
X8.8000 Y30.0000
X9.0000 Y35.4000
X10.4000 Y40.6000
X13.0000 Y45.4000
X16.8000 Y49.6000
X20.8000 Y52.4000
X24.4000 Y54.0000
X30.0000 Y55.2000
X37.4000 Y54.6000
X43.2000 Y52.4000
X47.2000 Y49.6000
X51.8000 Y44.2000
X54.6000 Y37.4000
X55.2000 Y30.0000
X54.2000 Y25.0000
X51.0000 Y18.6000
X46.0000 Y13.4000
X40.6000 Y10.4000
X34.0000 Y8.8000
X28.6000 Y9.0000
X22.0000 Y11.0000
X17.0000 Y14.2000
X15.6000 Y13.2000
X21.0000 Y9.6000
X26.8000 Y7.6000
X34.0000 Y7.2000
X38.8000 Y8.0000
X44.4000 Y10.4000
X50.6000 Y15.4000
X54.4000 Y21.0000
X56.6000 Y27.4000
X56.8000 Y35.2000
X55.2000 Y41.2000
X51.4000 Y47.6000
X46.8000 Y52.0000
X40.6000 Y55.4000
X33.8000 Y56.8000
X26.8000 Y56.4000
X22.4000 Y55.0000
X17.2000 Y52.0000
X13.4000 Y48.6000
X10.6000 Y44.8000
X7.4000 Y36.6000
X7.2000 Y28.8000
X7.8000 Y25.8000
X10.6000 Y19.2000
X15.6000 Y13.2000
Z-18.0000 F900
X21.0000 Y9.6000 F1500
X26.8000 Y7.6000
X34.0000 Y7.2000
X38.8000 Y8.0000
X44.4000 Y10.4000
X50.6000 Y15.4000
X54.4000 Y21.0000
X56.6000 Y27.4000
X56.8000 Y35.2000
X55.2000 Y41.2000
X51.4000 Y47.6000
X46.8000 Y52.0000
X40.6000 Y55.4000
X33.8000 Y56.8000
X26.8000 Y56.4000
X22.4000 Y55.0000
X17.2000 Y52.0000
X13.4000 Y48.6000
X10.6000 Y44.8000
X7.4000 Y36.6000
X7.2000 Y28.8000
X7.8000 Y25.8000
X10.6000 Y19.2000
X15.6000 Y13.2000
X17.0000 Y14.2000
X12.2000 Y19.8000
X9.4000 Y26.6000
X8.8000 Y30.0000
X9.0000 Y35.4000
X10.4000 Y40.6000
X13.0000 Y45.4000
X16.8000 Y49.6000
X20.8000 Y52.4000
X24.4000 Y54.0000
X30.0000 Y55.2000
X37.4000 Y54.6000
X43.2000 Y52.4000
X47.2000 Y49.6000
X51.8000 Y44.2000
X54.6000 Y37.4000
X55.2000 Y30.0000
X54.2000 Y25.0000
X51.0000 Y18.6000
X46.0000 Y13.4000
X40.6000 Y10.4000
X34.0000 Y8.8000
X28.6000 Y9.0000
X22.0000 Y11.0000
X17.0000 Y14.2000
Z-20.0000 F900
X12.2000 Y19.8000 F1500
X9.4000 Y26.6000
X8.8000 Y30.0000
X9.0000 Y35.4000
X10.4000 Y40.6000
X13.0000 Y45.4000
X16.8000 Y49.6000
X20.8000 Y52.4000
X24.4000 Y54.0000
X30.0000 Y55.2000
X37.4000 Y54.6000
X43.2000 Y52.4000
X47.2000 Y49.6000
X51.8000 Y44.2000
X54.6000 Y37.4000
X55.2000 Y30.0000
X54.2000 Y25.0000
X51.0000 Y18.6000
X46.0000 Y13.4000
X40.6000 Y10.4000
X34.0000 Y8.8000
X28.6000 Y9.0000
X22.0000 Y11.0000
X17.0000 Y14.2000
X15.6000 Y13.2000
X21.0000 Y9.6000
X26.8000 Y7.6000
X34.0000 Y7.2000
X38.8000 Y8.0000
X44.4000 Y10.4000
X50.6000 Y15.4000
X54.4000 Y21.0000
X56.6000 Y27.4000
X56.8000 Y35.2000
X55.2000 Y41.2000
X51.4000 Y47.6000
X46.8000 Y52.0000
X40.6000 Y55.4000
X33.8000 Y56.8000
X26.8000 Y56.4000
X22.4000 Y55.0000
X17.2000 Y52.0000
X13.4000 Y48.6000
X10.6000 Y44.8000
X7.4000 Y36.6000
X7.2000 Y28.8000
X7.8000 Y25.8000
X10.6000 Y19.2000
X15.6000 Y13.2000
Z-22.0000 F900
X21.0000 Y9.6000 F1500
X26.8000 Y7.6000
X34.0000 Y7.2000
X38.8000 Y8.0000
X44.4000 Y10.4000
X50.6000 Y15.4000
X54.4000 Y21.0000
X56.6000 Y27.4000
X56.8000 Y35.2000
X55.2000 Y41.2000
X51.4000 Y47.6000
X46.8000 Y52.0000
X40.6000 Y55.4000
X33.8000 Y56.8000
X26.8000 Y56.4000
X22.4000 Y55.0000
X17.2000 Y52.0000
X13.4000 Y48.6000
X10.6000 Y44.8000
X7.4000 Y36.6000
X7.2000 Y28.8000
X7.8000 Y25.8000
X10.6000 Y19.2000
X15.6000 Y13.2000
X17.0000 Y14.2000
X12.2000 Y19.8000
X9.4000 Y26.6000
X8.8000 Y30.0000
X9.0000 Y35.4000
X10.4000 Y40.6000
X13.0000 Y45.4000
X16.8000 Y49.6000
X20.8000 Y52.4000
X24.4000 Y54.0000
X30.0000 Y55.2000
X37.4000 Y54.6000
X43.2000 Y52.4000
X47.2000 Y49.6000
X51.8000 Y44.2000
X54.6000 Y37.4000
X55.2000 Y30.0000
X54.2000 Y25.0000
X51.0000 Y18.6000
X46.0000 Y13.4000
X40.6000 Y10.4000
X34.0000 Y8.8000
X28.6000 Y9.0000
X22.0000 Y11.0000
X17.0000 Y14.2000
Z-24.0000 F900
X12.2000 Y19.8000 F1500
X9.4000 Y26.6000
X8.8000 Y30.0000
X9.0000 Y35.4000
X10.4000 Y40.6000
X13.0000 Y45.4000
X16.8000 Y49.6000
X20.8000 Y52.4000
X24.4000 Y54.0000
X30.0000 Y55.2000
X37.4000 Y54.6000
X43.2000 Y52.4000
X47.2000 Y49.6000
X51.8000 Y44.2000
X54.6000 Y37.4000
X55.2000 Y30.0000
X54.2000 Y25.0000
X51.0000 Y18.6000
X46.0000 Y13.4000
X40.6000 Y10.4000
X34.0000 Y8.8000
X28.6000 Y9.0000
X22.0000 Y11.0000
X17.0000 Y14.2000
X15.6000 Y13.2000
X21.0000 Y9.6000
X26.8000 Y7.6000
X34.0000 Y7.2000
X38.8000 Y8.0000
X44.4000 Y10.4000
X50.6000 Y15.4000
X54.4000 Y21.0000
X56.6000 Y27.4000
X56.8000 Y35.2000
X55.2000 Y41.2000
X51.4000 Y47.6000
X46.8000 Y52.0000
X40.6000 Y55.4000
X33.8000 Y56.8000
X26.8000 Y56.4000
X22.4000 Y55.0000
X17.2000 Y52.0000
X13.4000 Y48.6000
X10.6000 Y44.8000
X7.4000 Y36.6000
X7.2000 Y28.8000
X7.8000 Y25.8000
X10.6000 Y19.2000
X15.6000 Y13.2000
G00 Z5.0000
X12.0000 Y12.0000
;*************************************
;Nr. 2 Konturfolgend schlichten: 
;*************************************
T="Fräser 3mm"
L6
S24000 F1200 M3
G01 X12.0000 Y12.0000 Z5.5000 F1200 S24000
X18.5250 Y15.9375
Z0.9500
Z0.0000 F600
X21.7875 Y13.6875 F1200
X27.1875 Y11.5500
X30.2250 Y11.1000
X33.8250
X38.7750 Y12.1125
X44.0625 Y14.8125
X48.2250 Y18.7500
X50.9250 Y23.0250
X52.7250 Y28.8750
X52.9500 Y31.4625
X52.7250 Y35.1750
X51.2625 Y40.2375
X50.0250 Y42.7125
X48.0000 Y45.5250
X43.6125 Y49.4625
X38.8875 Y51.8250
X35.9625 Y52.6125
X32.8125 Y52.9500
X28.6500 Y52.7250
X23.9250 Y51.3750
X19.4250 Y48.7875
X15.7125 Y45.1875
X13.2375 Y41.3625
X11.6625 Y37.0875
X11.1000 Y33.4875
Y30.6750
X11.6625 Y26.9625
X12.5625 Y24.1500
X14.3625 Y20.6625
X18.5250 Y15.9375
Z0.5000
X20.3250 Y15.2625
Z0.0000 F600
X24.7125 Y12.9000 F1200
X27.1875 Y12.1125
X30.2250 Y11.6625
X33.8250
X36.7500 Y12.1125
X40.3500 Y13.3500
X43.0500 Y14.8125
X46.8750 Y18.0750
X49.1250 Y20.8875
X50.3625 Y23.1375
X52.1625 Y28.9875
X52.3875 Y31.5750
X52.1625 Y35.0625
X50.7000 Y40.1250
X49.5750 Y42.3750
X47.5500 Y45.1875
X43.2750 Y49.0125
X38.8875 Y51.2625
X35.9625 Y52.0500
X32.8125 Y52.3875
X28.6500 Y52.1625
X24.2625 Y50.9250
X19.7625 Y48.3375
X16.9500 Y45.7500
X14.3625 Y42.2625
X12.6750 Y38.4375
X11.7750 Y34.6125
X11.6625 Y30.5625
X12.2250 Y27.0750
X13.1250 Y24.2625
X15.6000 Y19.8750
X20.3250 Y15.2625
Z0.5000
X21.3375
Z0.0000 F600
X24.4875 Y13.5750 F1200
X27.1875 Y12.6750
X30.2250 Y12.2250
X33.8250
X38.6625 Y13.2375
X43.3875 Y15.7125
X47.3250 Y19.4250
X49.8000 Y23.2500
X51.6000 Y29.1000
X51.8250 Y31.6875
X51.6000 Y34.9500
X50.1375 Y40.0125
X47.1000 Y44.8500
X42.9375 Y48.5625
X37.7625 Y51.0375
X32.8125 Y51.8250
X28.6500 Y51.6000
X24.6000 Y50.4750
X20.1000 Y47.8875
X16.6125 Y44.5125
X14.3625 Y41.0250
X12.7875 Y36.8625
X12.2250 Y33.2625
X12.5625 Y28.3125
X14.3625 Y22.9125
X17.0625 Y18.9750
X21.3375 Y15.2625
Z0.5000
X22.8000 Y15.0375
Z0.0000 F600
X27.1875 Y13.2375 F1200
X30.2250 Y12.7875
X33.8250
X38.3250 Y13.6875
X43.0500 Y16.1625
X47.3250 Y20.3250
X49.5750 Y24.1500
X51.0375 Y29.2125
X51.2625 Y31.8000
X51.0375 Y34.8375
X49.5750 Y39.9000
X46.6500 Y44.5125
X42.6000 Y48.1125
X37.7625 Y50.4750
X32.8125 Y51.2625
X28.6500 Y51.0375
X24.9375 Y50.0250
X20.4375 Y47.4375
X17.0625 Y44.1750
X14.7000 Y40.4625
X13.3500 Y36.7500
X12.9000 Y34.3875
X12.7875 Y30.7875
X13.4625 Y26.8500
X15.7125 Y21.6750
X19.5375 Y17.2875
X22.8000 Y15.0375
Z0.5000
X21.3375 Y16.6125
Z0.0000 F600
X25.7250 Y14.2500 F1200
X30.2250 Y13.3500
X33.8250
X36.7500 Y13.8000
X39.3375 Y14.7000
X42.0375 Y16.1625
X45.5250 Y19.0875
X48.6750 Y23.4750
X50.4750 Y29.3250
Y34.7250
X49.0125 Y39.7875
X46.2000 Y44.1750
X42.2625 Y47.6625
X37.7625 Y49.9125
X32.8125 Y50.7000
X28.6500 Y50.4750
X25.2750 Y49.5750
X20.7750 Y46.9875
X18.3000 Y44.7375
X15.7125 Y41.2500
X14.2500 Y37.7625
X13.4625 Y34.2750
Y29.7750
X14.8125 Y24.6000
X16.9500 Y20.8875
X21.3375 Y16.6125
Z0.5000
X22.3500
Z0.0000 F600
X27.1875 Y14.3625 F1200
X30.2250 Y13.9125
X33.8250
X37.2000 Y14.4750
X42.3750 Y17.0625
X45.9750 Y20.4375
X48.1125 Y23.5875
X49.9125 Y29.4375
Y34.6125
X48.4500 Y39.6750
X45.7500 Y43.8375
X41.9250 Y47.2125
X37.7625 Y49.3500
X32.8125 Y50.1375
X28.6500 Y49.9125
X25.6125 Y49.1250
X21.1125 Y46.5375
X17.9625 Y43.5000
X15.9375 Y40.4625
X14.4750 Y36.5250
X13.9125 Y32.9250
X14.3625 Y28.0875
X15.3750 Y24.7125
X16.6125 Y22.3500
X18.4125 Y19.9875
X22.3500 Y16.6125
Z0.5000
X23.8125 Y16.3875
Z0.0000 F600
X26.4000 Y15.1500 F1200
X28.4250 Y14.7000
X33.8250 Y14.4750
X37.8750 Y15.2625
X42.0375 Y17.5125
X45.9750 Y21.3375
X47.5500 Y23.7000
X48.3375 Y25.6125
X49.4625 Y30.5625
X49.3500 Y34.5000
X47.8875 Y39.5625
X45.3000 Y43.5000
X41.5875 Y46.7625
X37.7625 Y48.7875
X32.8125 Y49.5750
X28.6500 Y49.3500
X25.9500 Y48.6750
X21.4500 Y46.0875
X17.6250 Y42.1500
X15.9375 Y39.1125
X14.5875 Y34.0500
X14.4750 Y31.1250
X15.2625 Y26.8500
X17.0625 Y22.6875
X20.5500 Y18.6375
X23.8125 Y16.3875
Z0.5000
X23.0250 Y17.5125
Z0.0000 F600
X27.1875 Y15.4875 F1200
X30.2250 Y15.0375
X33.8250
X37.2000 Y15.6000
X41.0250 Y17.5125
X44.1750 Y20.1000
X46.4250 Y22.9125
X47.3250 Y24.6000
X48.7875 Y29.6625
Y34.3875
X47.5500 Y38.8875
X44.8500 Y43.1625
X41.2500 Y46.3125
X36.9750 Y48.4500
X32.8125 Y49.0125
X28.6500 Y48.7875
X26.2875 Y48.2250
X21.7875 Y45.6375
X19.6500 Y43.7250
X17.0625 Y40.2375
X15.9375 Y37.4250
X15.0375 Y32.7000
X15.2625 Y29.4375
X16.5000 Y24.9375
X19.3125 Y20.6625
X23.0250 Y17.5125
X23.3625 Y17.9625
X26.5125 Y16.2750
X30.2250 Y15.6000
X35.6250 Y15.8250
X39.3375 Y17.1750
X41.0250 Y18.4125
X38.5500 Y17.8500
X35.1750 Y18.9750
X33.2625 Y20.6625
X32.1375 Y22.9125
X31.8000 Y22.8000
X30.9000 Y20.8875
X29.2125 Y19.2000
X25.5000 Y17.8500
X23.4750 Y18.3000
X23.0250
X23.3625 Y17.9625
Z0.5000
X24.6000 Y18.4125
Z0.0000 F600
X21.3375 Y19.5375 F1200
X19.5375 Y21.2250
X18.7500 Y22.8000
X18.4125 Y23.4750
Y26.5125
X19.5375 Y28.7625
X21.5625 Y30.5625
X24.6000 Y31.5750
X25.9500 Y31.4625
Y32.5875
X24.7125 Y32.3625
X21.3375 Y33.4875
X19.5375 Y35.1750
X18.4125 Y37.5375
Y40.4625
X19.5375 Y42.8250
X21.0000 Y44.2875
X24.7125 Y45.6375
X28.6500 Y44.5125
X30.4500 Y42.8250
X31.5750 Y40.4625
Y37.9875
X32.3625
X32.4750 Y40.6875
X33.3750 Y42.4875
X35.6250 Y44.6250
X39.3375 Y45.6375
X42.7125 Y44.5125
X44.0625 Y43.2750
X45.6375 Y40.1250
X45.5250 Y37.3125
X44.6250 Y35.5125
X42.7125 Y33.4875
X39.3375 Y32.3625
X37.9875 Y32.5875
Y31.4625
X39.5625 Y31.5750
X42.2625 Y30.6750
X44.2875 Y28.9875
X45.6375 Y26.1750
X45.5250 Y23.3625
X44.2875 Y21.0000
X43.0500 Y19.7625
X39.4500 Y18.4125
X35.5125 Y19.4250
X33.7125 Y21.0000
X32.4750 Y23.3625
X32.3625 Y25.9500
X31.5750
Y23.4750
X30.4500 Y21.2250
X28.8750 Y19.6500
X25.5000 Y18.4125
X24.6000
Y18.9750
X21.6750 Y19.9875
X19.7625 Y22.0125
X18.9750 Y23.5875
Y26.4000
X19.9875 Y28.4250
X21.9000 Y30.1125
X24.6000 Y31.0125
X26.6250 Y30.6750
Y33.3750
X24.7125 Y32.9250
X21.6750 Y33.9375
X19.9875 Y35.5125
X18.9750 Y37.6500
Y40.3500
X19.9875 Y42.4875
X21.6750 Y44.0625
X24.7125 Y45.0750
X28.3125 Y44.0625
X30.0000 Y42.4875
X31.0125 Y40.3500
X30.9000 Y37.2000
X31.5750 Y37.4250
X33.0375 Y37.2000
Y40.5750
X34.0500 Y42.4875
X35.9625 Y44.1750
X39.3375 Y45.0750
X42.3750 Y44.0625
X43.6125 Y42.9375
X45.0750 Y40.0125
X44.9625 Y37.4250
X44.1750 Y35.8500
X42.3750 Y33.9375
X39.3375 Y32.9250
X37.4250 Y33.2625
Y30.6750
X39.5625 Y31.0125
X42.7125 Y29.7750
X43.8375 Y28.6500
X44.9625 Y26.5125
Y23.4750
X43.8375 Y21.3375
X42.7125 Y20.2125
X39.4500 Y18.9750
X35.8500 Y19.8750
X34.1625 Y21.3375
X32.9250 Y24.0375
X33.1500 Y26.8500
X32.1375 Y26.5125
X30.9000 Y26.7375
X31.0125 Y23.5875
X30.0000 Y21.5625
X27.8625 Y19.7625
X24.6000 Y18.9750
Y19.5375
X22.2375 Y20.3250
X20.4375 Y21.9000
X19.7625 Y23.2500
X19.5375 Y26.2875
X20.4375 Y28.0875
X21.7875 Y29.4375
X24.6000 Y30.4500
X27.5250 Y29.7750
X27.0750 Y31.1250
Y32.9250
X27.6375 Y34.2750
X24.7125 Y33.4875
X22.0125 Y34.3875
X20.4375 Y35.8500
X19.5375 Y37.7625
Y40.2375
X20.4375 Y42.1500
X22.0125 Y43.6125
X24.7125 Y44.5125
X27.9750 Y43.6125
X29.5500 Y42.1500
X30.4500 Y40.2375
Y37.7625
X29.8875 Y36.3000
X31.5750 Y36.8625
X34.1625 Y36.3000
X33.4875 Y38.1000
X33.6000 Y40.4625
X34.5000 Y42.1500
X36.3000 Y43.7250
X39.3375 Y44.5125
X42.0375 Y43.6125
X43.1625 Y42.6000
X44.5125 Y39.9000
X44.4000 Y37.5375
X43.7250 Y36.1875
X42.0375 Y34.3875
X39.3375 Y33.4875
X36.4125 Y34.1625
X36.8625 Y33.1500
Y30.9000
X36.4125 Y29.7750
X39.5625 Y30.4500
X42.3750 Y29.3250
X43.3875 Y28.3125
X44.4000 Y26.4000
Y23.5875
X43.3875 Y21.6750
X42.3750 Y20.6625
X39.4500 Y19.5375
X38.5500
X36.1875 Y20.3250
X34.3875 Y22.0125
X33.4875 Y24.1500
Y25.9500
X34.1625 Y27.7500
X31.8000 Y27.0750
X29.7750 Y27.7500
X30.4500 Y26.2875
Y23.7000
X29.5500 Y21.9000
X27.5250 Y20.2125
X24.6000 Y19.5375
Y20.1000
X22.0125 Y21.1125
X20.5500 Y22.9125
X20.1000 Y23.8125
Y26.1750
X20.8875 Y27.7500
X22.1250 Y28.9875
X24.6000 Y29.8875
X27.5250 Y29.2125
X29.1000 Y27.7500
X29.8875 Y26.1750
Y23.8125
X29.1000 Y22.2375
X27.1875 Y20.6625
X24.6000 Y20.1000
Y20.6625
X22.3500 Y21.5625
X21.3375 Y22.5750
X20.6625 Y23.9250
Y26.0625
X21.3375 Y27.4125
X22.4625 Y28.5375
X24.6000 Y29.3250
X27.1875 Y28.7625
X28.6500 Y27.4125
X29.3250 Y26.0625
Y23.9250
X28.6500 Y22.5750
X26.8500 Y21.1125
X24.6000 Y20.6625
Y21.2250
X22.6875 Y22.0125
X21.5625 Y23.3625
X21.2250 Y24.0375
Y25.9500
X21.7875 Y27.0750
X22.8000 Y28.0875
X24.6000 Y28.7625
X26.8500 Y28.3125
X28.2000 Y27.0750
X28.7625 Y25.9500
Y24.0375
X28.2000 Y22.9125
X26.5125 Y21.5625
X24.6000 Y21.2250
Z0.5000
X25.5000 Y21.7875
Z0.0000 F600
X23.5875 Y22.1250 F1200
X22.2375 Y23.2500
X21.7875 Y24.1500
Y25.8375
X23.1375 Y27.6375
X24.6000 Y28.2000
X26.5125 Y27.8625
X27.7500 Y26.7375
X28.2000 Y25.8375
Y24.1500
X26.8500 Y22.3500
X25.5000 Y21.7875
X25.8375 Y22.4625
X24.6000 Y22.3500
X23.3625 Y22.9125
X22.3500 Y24.2625
Y25.7250
X22.6875 Y26.4000
X23.4750 Y27.1875
X24.6000 Y27.6375
X26.1750 Y27.4125
X27.3000 Y26.4000
X27.6375 Y25.7250
Y24.2625
X27.3000 Y23.5875
X25.8375 Y22.4625
Z0.5000
X25.9500 Y17.5125
Z0.0000 F600
Y17.1750 F1200
X27.1875 Y16.6125
X30.2250 Y16.1625
X34.8375 Y16.2750
X38.1000 Y17.1750
Y17.5125
X34.1625 Y18.9750
X32.8125 Y20.3250
X32.1375 Y21.6750
X29.5500 Y18.7500
X25.9500 Y17.5125
Z0.5000
X27.3000 Y17.4000
Z0.0000 F600
X27.8625 Y17.0625 F1200
X33.8250 Y16.7250
X36.7500 Y17.1750
X33.8250 Y18.5250
X32.1375 Y20.4375
X29.8875 Y18.3000
X27.3000 Y17.4000
Z0.5000
X29.6625
Z0.0000 F600
X34.3875 F1200
X32.1375 Y19.4250
X29.6625 Y17.4000
Z0.5000
X31.2375 Y17.8500
Z0.0000 F600
X32.7000 F1200
X32.1375 Y18.6375
X31.2375 Y17.8500
Z0.5000
X35.8500 Y21.2250
Z0.0000 F600
X34.1625 Y23.7000 F1200
X34.0500 Y25.8375
X35.0625 Y27.9750
X36.5250 Y29.2125
X38.5500 Y29.8875
X41.2500 Y29.3250
X43.1625 Y27.6375
X43.9500 Y25.8375
Y24.2625
X42.9375 Y22.0125
X41.4750 Y20.7750
X38.5500 Y20.1000
X35.8500 Y21.2250
X36.1875 Y21.6750
X34.9500 Y23.3625
X34.6125 Y25.7250
X35.2875 Y27.3000
X36.3000 Y28.4250
X38.5500 Y29.3250
X40.9125 Y28.8750
X42.7125 Y27.3000
X43.3875 Y25.7250
X43.2750 Y23.8125
X42.7125 Y22.6875
X41.1375 Y21.2250
X38.5500 Y20.6625
X36.1875 Y21.6750
Z0.5000
X37.2000
Z0.0000 F600
X35.8500 Y22.9125 F1200
X35.1750 Y24.4875
X35.2875 Y26.0625
X36.6375 Y27.9750
X38.5500 Y28.7625
X40.5750 Y28.4250
X42.0375 Y27.3000
X42.8250 Y25.6125
X42.7125 Y23.9250
X41.3625 Y22.0125
X39.4500 Y21.2250
X37.2000 Y21.6750
Z0.5000
X36.8625 Y22.5750
Z0.0000 F600
X35.9625 Y23.8125 F1200
X35.7375 Y25.5000
X36.1875 Y26.6250
X36.9750 Y27.5250
X38.5500 Y28.2000
X40.2375 Y27.9750
X41.5875 Y26.9625
X42.2625 Y25.5000
X41.8125 Y23.3625
X40.4625 Y22.1250
X38.5500 Y21.7875
X36.8625 Y22.5750
Y23.3625
X36.3000 Y24.7125
X36.4125 Y25.8375
X37.3125 Y27.0750
X38.5500 Y27.6375
X39.9000 Y27.5250
X41.1375 Y26.6250
X41.7000 Y25.3875
X41.5875 Y24.1500
X40.6875 Y22.9125
X39.4500 Y22.3500
X37.8750 Y22.5750
X36.8625 Y23.3625
Z0.5000
X34.2750 Y28.3125
Z0.0000 F600
X31.8000 Y27.6375 F1200
X29.5500 Y28.4250
X27.8625 Y30.5625
X27.6375 Y32.8125
X28.4250 Y34.5000
X29.4375 Y35.5125
X31.5750 Y36.3000
X34.3875 Y35.6250
X35.6250 Y34.3875
X36.3000 Y33.0375
Y31.0125
X35.5125 Y29.4375
X34.2750 Y28.3125
Y28.9875
X32.1375 Y28.2000
X29.8875 Y28.8750
X28.7625 Y30.0000
X28.2000 Y31.3500
X28.3125 Y33.0375
X29.7750 Y35.0625
X31.5750 Y35.7375
X34.0500 Y35.1750
X34.9500 Y34.3875
X35.7375 Y32.9250
Y31.1250
X34.2750 Y28.9875
X33.6000 Y29.2125
X31.8000 Y28.7625
X30.2250 Y29.3250
X29.2125 Y30.3375
X28.7625 Y31.4625
Y32.5875
X29.3250 Y33.8250
X30.1125 Y34.6125
X31.5750 Y35.1750
X33.7125 Y34.7250
X34.7250 Y33.7125
X35.1750 Y32.8125
Y31.2375
X34.6125 Y30.1125
X33.6000 Y29.2125
X33.2625 Y29.6625
X31.8000 Y29.3250
X30.5625 Y29.7750
X29.5500 Y30.9000
X29.3250 Y32.4750
X29.7750 Y33.4875
X31.5750 Y34.6125
X33.3750 Y34.2750
X34.2750 Y33.3750
X34.6125 Y31.3500
X34.1625 Y30.4500
X33.2625 Y29.6625
X32.5875 Y30.0000
X31.8000 Y29.8875
X30.5625 Y30.5625
X30.0000 Y31.2375
X29.8875 Y32.3625
X30.5625 Y33.4875
X31.5750 Y34.0500
X33.0375 Y33.8250
X33.6000 Y33.3750
X34.0500 Y32.5875
Y31.4625
X33.6000 Y30.6750
X32.5875 Y30.0000
Z0.5000
X36.1875 Y34.9500
Z0.0000 F600
X34.9500 Y36.1875 F1200
X34.1625 Y37.6500
X34.0500 Y39.7875
X34.9500 Y41.8125
X36.1875 Y43.0500
X38.7750 Y43.9500
X41.7000 Y43.1625
X43.2750 Y41.4750
X43.8375 Y40.3500
X43.9500 Y38.2125
X43.0500 Y36.1875
X41.7000 Y34.8375
X38.7750 Y34.0500
X36.1875 Y34.9500
X36.5250 Y35.4000
X34.9500 Y37.3125
X34.6125 Y39.6750
X35.1750 Y41.1375
X36.5250 Y42.6000
X38.7750 Y43.3875
X41.3625 Y42.7125
X42.8250 Y41.1375
X43.3875 Y39.6750
X43.2750 Y37.7625
X42.8250 Y36.8625
X41.3625 Y35.2875
X38.7750 Y34.6125
X36.5250 Y35.4000
X37.3125 Y35.6250
X35.8500 Y36.8625
X35.1750 Y38.4375
X35.2875 Y40.1250
X36.8625 Y42.1500
X38.7750 Y42.8250
X41.0250 Y42.2625
X41.8125 Y41.5875
X42.7125 Y40.1250
Y37.8750
X41.3625 Y35.9625
X39.3375 Y35.1750
X37.3125 Y35.6250
X37.2000 Y36.3000
X35.9625 Y37.7625
X35.7375 Y39.4500
X36.0750 Y40.4625
X37.2000 Y41.7000
X38.7750 Y42.2625
X40.6875 Y41.8125
X41.9250 Y40.4625
X42.2625 Y39.4500
X41.9250 Y37.5375
X40.6875 Y36.1875
X38.7750 Y35.7375
X37.2000 Y36.3000
X37.5375 Y36.7500
X36.6375 Y37.7625
X36.3000 Y38.6625
X36.5250 Y40.1250
X37.5375 Y41.2500
X38.7750 Y41.7000
X40.3500 Y41.3625
X41.2500 Y40.4625
X41.7000 Y39.3375
X41.4750 Y37.8750
X40.6875 Y36.8625
X39.3375 Y36.3000
X37.5375 Y36.7500
Z0.5000
X40.1250 Y31.9125
Z0.0000 F600
X42.8250 Y31.0125 F1200
X44.7375 Y29.3250
X46.0875 Y26.7375
X46.4250 Y24.0375
X47.7750 Y27.6375
X48.3375 Y30.7875
X47.8875 Y35.9625
X46.4250 Y40.0125
X46.0875 Y37.2000
X44.5125 Y34.3875
X43.0500 Y33.0375
X40.1250 Y31.9125
Z0.5000
X41.8125
Z0.0000 F600
X43.7250 Y31.1250 F1200
X45.1875 Y29.6625
X46.8750 Y26.6250
X47.7750 Y30.9000
X47.6625 Y34.1625
X46.8750 Y37.4250
X44.9625 Y34.0500
X43.7250 Y32.8125
X41.8125 Y31.9125
Z0.5000
X43.5000
Z0.0000 F600
X45.6375 Y30.0000 F1200
X46.7625 Y28.3125
X47.2125 Y31.0125
X46.7625 Y35.7375
X45.4125 Y33.7125
X43.5000 Y31.9125
Z0.5000
X44.6250 Y32.1375
Z0.0000 F600
X44.9625 Y31.4625 F1200
X46.5375 Y30.1125
Y33.9375
X46.2000
X44.6250 Y32.1375
X45.4125
X45.7500 Y31.4625
X46.0875 Y31.3500
Y32.5875
X45.4125 Y32.1375
Z0.5000
X40.8000 Y45.6375
Z0.0000 F600
X39.6750 Y46.6500 F1200
X37.6500 Y47.6625
X32.8125 Y48.4500
X27.5250 Y48.0000
X24.1500 Y46.5375
X23.3625 Y45.7500
X25.2750 Y46.2000
X29.3250 Y44.7375
X30.9000 Y43.1625
X31.9125 Y41.1375
X33.1500 Y43.1625
X34.8375 Y44.8500
X38.7750 Y46.2000
X40.9125 Y45.8625
X40.8000 Y45.6375
Z0.5000
X38.2125 Y46.7625
Z0.0000 F600
X35.2875 Y47.6625 F1200
X31.2375 Y47.8875
X27.5250 Y47.4375
X25.8375 Y46.5375
X29.6625 Y45.1875
X31.3500 Y43.5000
X31.9125 Y42.3750
X34.5000 Y45.3000
X38.2125 Y46.7625
Z0.5000
X36.5250 Y46.5375
Z0.0000 F600
X36.4125 Y46.8750 F1200
X31.2375 Y47.3250
X27.5250 Y46.8750
X27.4125 Y46.5375
X29.6625 Y45.8625
X31.9125 Y43.6125
X34.1625 Y45.7500
X36.5250 Y46.5375
Z0.5000
X34.3875 Y46.6500
Z0.0000 F600
X31.2375 Y46.7625 F1200
X29.6625 Y46.4250
X31.9125 Y44.5125
X34.3875 Y46.6500
Z0.5000
X32.8125 Y46.2000
Z0.0000 F600
X31.2375 F1200
X31.3500 Y45.8625
X31.9125 Y45.3000
X32.8125 Y46.2000
Z0.5000
X29.1000 Y41.8125
Z0.0000 F600
X29.8875 Y40.1250 F1200
Y37.8750
X29.1000 Y36.1875
X27.6375 Y34.8375
X24.7125 Y34.0500
X22.0125 Y35.0625
X20.5500 Y36.8625
X20.1000 Y37.8750
Y40.1250
X20.8875 Y41.8125
X22.3500 Y43.1625
X24.7125 Y43.9500
X27.6375 Y43.1625
X29.1000 Y41.8125
X28.6500 Y41.4750
X29.3250 Y40.0125
Y37.9875
X28.6500 Y36.5250
X27.3000 Y35.2875
X24.7125 Y34.6125
X22.3500 Y35.5125
X21.3375 Y36.5250
X20.6625 Y37.9875
Y40.0125
X21.3375 Y41.4750
X22.6875 Y42.7125
X24.7125 Y43.3875
X27.3000 Y42.7125
X28.6500 Y41.4750
X28.2000 Y41.1375
X28.7625 Y39.9000
Y38.1000
X28.2000 Y36.8625
X26.9625 Y35.7375
X24.7125 Y35.1750
X22.6875 Y35.9625
X21.5625 Y37.3125
X21.2250 Y38.1000
Y39.9000
X21.7875 Y41.1375
X23.0250 Y42.2625
X24.7125 Y42.8250
X26.9625 Y42.2625
X28.2000 Y41.1375
X27.7500 Y40.8000
X28.2000 Y39.7875
X27.9750 Y37.6500
X26.8500 Y36.3000
X25.2750 Y35.7375
X23.3625 Y36.1875
X22.2375 Y37.2000
X21.7875 Y38.2125
X22.0125 Y40.3500
X23.0250 Y41.5875
X24.7125 Y42.2625
X26.6250 Y41.8125
X27.7500 Y40.8000
X27.3000 Y40.4625
X27.6375 Y39.6750
X27.3000 Y37.5375
X26.2875 Y36.6375
X24.7125 Y36.3000
X23.3625 Y36.8625
X22.4625 Y38.1000
X22.3500 Y39.6750
X22.6875 Y40.4625
X23.7000 Y41.3625
X24.7125 Y41.7000
X26.2875 Y41.3625
X27.3000 Y40.4625
Z0.5000
X23.9250 Y31.9125
Z0.0000 F600
X21.0000 Y33.0375 F1200
X19.0875 Y34.8375
X17.8500 Y37.4250
Y40.0125
X17.5125 Y39.9000
X16.6125 Y37.6500
X15.7125 Y33.8250
X15.6000 Y31.3500
X16.1625 Y27.8625
X17.0625 Y25.0500
X17.8500 Y24.0375
Y26.6250
X19.0875 Y29.1000
X20.7750 Y30.7875
X23.9250 Y31.9125
Z0.5000
X22.2375
Z0.0000 F600
X20.3250 Y32.8125 F1200
X18.6375 Y34.5000
X17.4000 Y37.2000
X17.0625
X16.7250 Y36.0750
X16.1625 Y31.4625
X16.8375 Y27.5250
X17.0625 Y26.8500
X17.4000
X18.6375 Y29.4375
X20.4375 Y31.2375
X22.2375 Y31.9125
Z0.5000
X20.5500
Z0.0000 F600
X18.1875 Y34.1625 F1200
X17.5125 Y35.6250
X17.1750 Y35.4000
X16.7250 Y32.3625
X17.0625 Y29.2125
X17.5125 Y28.3125
X18.1875 Y29.7750
X20.5500 Y31.9125
Z0.5000
X19.4250 Y31.8000
Z0.0000 F600
X17.7375 Y33.9375 F1200
X17.2875 Y32.2500
X17.5125 Y30.0000
X19.4250 Y31.8000
X18.6375
X18.1875 Y32.5875
X17.8500 Y32.1375
X17.9625 Y31.3500
X18.6375 Y31.8000
Z0.5000
X23.8125 Y26.7375
Z-0.4490 F600
X24.6000 Y27.0750 F1200
X25.8375 Y26.9625
X26.8500 Y26.0625
X27.0750 Y24.3750
X25.5000 Y22.9125
X24.2625 Y23.0250
X23.2500 Y23.8125
X22.9125 Y24.3750
Y25.6125
X23.8125 Y26.7375
Z0.5000
X30.5625 Y31.3500
Z-0.4490 F600
Y32.5875 F1200
X31.5750 Y33.4875
X33.0375 Y33.1500
X33.4875 Y32.4750
Y31.5750
X32.9250 Y30.7875
X32.1375 Y30.4500
X31.2375 Y30.6750
X30.5625 Y31.3500
Z0.5000
X26.8500 Y37.8750
Z-0.4490 F600
X25.2750 Y36.8625 F1200
X24.0375 Y37.0875
X23.2500 Y37.7625
X22.9125 Y38.4375
X23.1375 Y40.1250
X24.7125 Y41.1375
X25.9500 Y40.9125
X26.8500 Y40.1250
X27.0750 Y39.5625
X26.8500 Y37.8750
Z0.5000
X36.8625 Y38.7750
Z-0.4490 F600
X37.2000 Y40.1250 F1200
X38.7750 Y41.1375
X40.0125 Y40.9125
X41.0250 Y39.7875
Y38.2125
X40.4625 Y37.4250
X39.3375 Y36.8625
X38.3250 Y36.9750
X37.2000 Y37.8750
X36.8625 Y38.7750
Z0.5000
X38.5500 Y27.0750
Z-0.4490 F600
X39.5625 F1200
X40.9125 Y25.9500
X41.1375 Y24.8250
X40.6875 Y23.7000
X39.7875 Y23.0250
X38.5500 Y22.9125
X37.3125 Y23.7000
X36.8625 Y24.8250
X37.3125 Y26.2875
X38.5500 Y27.0750
Z0.5000
X48.6750 Y18.4125
Z-0.4490 F600
X51.4875 Y22.9125 F1200
X53.2875 Y28.7625
X53.5125 Y31.3500
X53.2875 Y35.2875
X51.8250 Y40.3500
X50.4750 Y43.0500
X48.4500 Y45.8625
X43.9500 Y49.9125
X38.8875 Y52.3875
X35.9625 Y53.1750
X32.8125 Y53.5125
X28.6500 Y53.2875
X23.5875 Y51.8250
X19.0875 Y49.2375
X16.0500 Y46.4250
X12.7875 Y41.7000
X11.1000 Y37.2000
X10.5375 Y33.6000
X10.7625 Y28.5375
X12.3375 Y23.2500
X13.9125 Y20.3250
X15.7125 Y17.9625
X18.1875 Y15.4875
X20.3250 Y13.9125
X23.4750 Y12.2250
X27.1875 Y10.9875
X30.2250 Y10.5375
X33.8250
X39.1125 Y11.6625
X44.4000 Y14.3625
X48.6750 Y18.4125
Z0.0000
X48.1125 Y17.7375
Z-0.8990 F600
X50.0250 Y20.2125 F1200
X51.6000 Y23.1375
X53.2875 Y28.7625
X53.5125 Y31.3500
X53.2875 Y35.2875
X51.8250 Y40.3500
X50.4750 Y43.0500
X48.4500 Y45.8625
X43.9500 Y49.9125
X38.8875 Y52.3875
X35.9625 Y53.1750
X32.8125 Y53.5125
X28.6500 Y53.2875
X23.5875 Y51.8250
X19.0875 Y49.2375
X16.0500 Y46.4250
X12.7875 Y41.7000
X11.1000 Y37.2000
X10.5375 Y33.6000
X10.7625 Y28.5375
X12.3375 Y23.2500
X15.4875 Y18.1875
X18.1875 Y15.4875
X20.3250 Y13.9125
X22.9125 Y12.4500
X25.6125 Y11.4375
X30.2250 Y10.5375
X33.8250
X37.6500 Y11.2125
X41.0250 Y12.4500
X43.7250 Y13.9125
X48.1125 Y17.7375
Z0.5000
X39.9000 Y23.1375
Z0.0510
Z-0.8990 F600
X38.5500 Y23.0250 F1200
X37.7625 Y23.3625
X37.0875 Y24.2625
X36.9750 Y25.3875
X37.7625 Y26.6250
X39.0000 Y27.0750
X40.6875 Y26.1750
X41.0250 Y24.6000
X39.9000 Y23.1375
Z0.5000
X32.9250 Y30.7875
Z0.0510
Z-0.8990 F600
X32.1375 Y30.4500 F1200
X31.2375 Y30.6750
X30.5625 Y31.3500
Y32.5875
X31.5750 Y33.4875
X33.0375 Y33.1500
X33.4875 Y32.4750
Y31.5750
X32.9250 Y30.7875
Z0.5000
X26.4000 Y26.5125
Z0.0510
Z-0.8990 F600
X26.9625 Y25.6125 F1200
Y24.3750
X25.5000 Y23.0250
X24.1500 Y23.1375
X23.3625 Y23.8125
X22.9125 Y24.9375
X23.0250 Y25.6125
X23.4750 Y26.4000
X24.3750 Y26.9625
X25.7250
X26.4000 Y26.5125
Z0.5000
X25.2750 Y36.9750
Z0.0510
Z-0.8990 F600
X24.2625 Y37.0875 F1200
X23.3625 Y37.7625
X22.9125 Y39.0000
X23.1375 Y39.9000
X24.7125 Y41.0250
X25.7250 Y40.9125
X26.7375 Y40.1250
X26.9625 Y38.3250
X26.1750 Y37.3125
X25.2750 Y36.9750
Z0.5000
X36.9750 Y38.6625
Z0.0510
Z-0.8990 F600
X37.0875 Y39.7875 F1200
X37.9875 Y40.8000
X38.7750 Y41.0250
X40.5750 Y40.3500
X41.0250 Y39.3375
X40.9125 Y38.2125
X40.0125 Y37.2000
X39.2250 Y36.9750
X37.4250 Y37.6500
X36.9750 Y38.6625
Z-1.3490 F600
X37.0875 Y39.7875 F1200
X37.9875 Y40.8000
X38.7750 Y41.0250
X40.5750 Y40.3500
X41.0250 Y39.3375
X40.9125 Y38.2125
X40.0125 Y37.2000
X39.2250 Y36.9750
X37.4250 Y37.6500
X36.9750 Y38.6625
Z0.5000
X33.0375 Y33.1500
Z-0.3990
Z-1.3490 F600
X33.4875 Y32.4750 F1200
Y31.5750
X32.9250 Y30.7875
X32.1375 Y30.4500
X31.2375 Y30.6750
X30.5625 Y31.3500
Y32.5875
X31.5750 Y33.4875
X33.0375 Y33.1500
Z0.5000
X26.9625 Y38.3250
Z-0.3990
Z-1.3490 F600
X26.1750 Y37.3125 F1200
X25.2750 Y36.9750
X24.2625 Y37.0875
X23.3625 Y37.7625
X22.9125 Y39.0000
X23.1375 Y39.9000
X24.7125 Y41.0250
X25.7250 Y40.9125
X26.7375 Y40.1250
X26.9625 Y38.3250
Z0.5000
X25.7250 Y26.9625
Z-0.3990
Z-1.3490 F600
X26.4000 Y26.5125 F1200
X26.9625 Y25.6125
Y24.3750
X25.5000 Y23.0250
X24.1500 Y23.1375
X23.3625 Y23.8125
X22.9125 Y24.9375
X23.0250 Y25.6125
X23.4750 Y26.4000
X24.3750 Y26.9625
X25.7250
Z0.5000
X36.9750 Y25.3875
Z-0.3990
Z-1.3490 F600
X37.7625 Y26.6250 F1200
X39.0000 Y27.0750
X40.6875 Y26.1750
X41.0250 Y24.6000
X39.9000 Y23.1375
X38.5500 Y23.0250
X37.7625 Y23.3625
X37.0875 Y24.2625
X36.9750 Y25.3875
Z0.5000
X43.3875 Y13.6875
Z-0.3990
Z-1.3490 F600
X48.1125 Y17.7375 F1200
X50.0250 Y20.2125
X51.6000 Y23.1375
X53.2875 Y28.7625
X53.5125 Y31.3500
X53.2875 Y35.2875
X51.8250 Y40.3500
X50.4750 Y43.0500
X48.4500 Y45.8625
X43.9500 Y49.9125
X38.8875 Y52.3875
X35.9625 Y53.1750
X32.8125 Y53.5125
X28.6500 Y53.2875
X23.5875 Y51.8250
X19.0875 Y49.2375
X16.0500 Y46.4250
X12.7875 Y41.7000
X11.1000 Y37.2000
X10.5375 Y33.6000
X10.7625 Y28.5375
X12.3375 Y23.2500
X15.4875 Y18.1875
X19.3125 Y14.5875
X22.6875 Y12.5625
X25.6125 Y11.4375
X30.2250 Y10.5375
X33.8250
X37.6500 Y11.2125
X43.3875 Y13.6875
Z-1.7990 F600
X48.1125 Y17.7375 F1200
X50.0250 Y20.2125
X51.6000 Y23.1375
X53.2875 Y28.7625
X53.5125 Y31.3500
X53.2875 Y35.2875
X51.8250 Y40.3500
X50.4750 Y43.0500
X48.4500 Y45.8625
X43.9500 Y49.9125
X38.8875 Y52.3875
X35.9625 Y53.1750
X32.8125 Y53.5125
X28.6500 Y53.2875
X23.5875 Y51.8250
X19.0875 Y49.2375
X16.0500 Y46.4250
X12.7875 Y41.7000
X11.1000 Y37.2000
X10.5375 Y33.6000
X10.7625 Y28.5375
X12.3375 Y23.2500
X15.4875 Y18.1875
X19.3125 Y14.5875
X22.6875 Y12.5625
X25.6125 Y11.4375
X30.2250 Y10.5375
X33.8250
X37.6500 Y11.2125
X43.3875 Y13.6875
Z0.5000
X39.9000 Y23.1375
Z-0.8490
Z-1.7990 F600
X38.5500 Y23.0250 F1200
X37.7625 Y23.3625
X37.0875 Y24.2625
X36.9750 Y25.3875
X37.7625 Y26.6250
X39.0000 Y27.0750
X40.6875 Y26.1750
X41.0250 Y24.6000
X39.9000 Y23.1375
Z0.5000
X33.2625 Y31.1250
Z-0.8490
Z-1.7990 F600
X32.5875 Y30.5625 F1200
X31.8000 Y30.4500
X30.5625 Y31.4625
Y32.5875
X31.5750 Y33.4875
X33.1500 Y33.0375
X33.4875 Y32.4750
X33.2625 Y31.1250
Z0.5000
X37.4250 Y37.6500
Z-0.8490
Z-1.7990 F600
X36.9750 Y38.6625 F1200
X37.0875 Y39.7875
X37.9875 Y40.8000
X38.7750 Y41.0250
X40.5750 Y40.3500
X41.0250 Y39.3375
X40.9125 Y38.2125
X40.0125 Y37.2000
X39.2250 Y36.9750
X37.4250 Y37.6500
Z0.5000
X26.9625 Y38.3250
Z-0.8490
Z-1.7990 F600
X26.1750 Y37.3125 F1200
X25.2750 Y36.9750
X24.2625 Y37.0875
X23.3625 Y37.7625
X22.9125 Y39.0000
X23.1375 Y39.9000
X24.7125 Y41.0250
X25.7250 Y40.9125
X26.7375 Y40.1250
X26.9625 Y38.3250
Z0.5000
X25.7250 Y26.9625
Z-0.8490
Z-1.7990 F600
X26.4000 Y26.5125 F1200
X26.9625 Y25.6125
Y24.3750
X25.5000 Y23.0250
X24.1500 Y23.1375
X23.3625 Y23.8125
X22.9125 Y24.9375
X23.0250 Y25.6125
X23.4750 Y26.4000
X24.3750 Y26.9625
X25.7250
Z-2.2490 F600
X26.4000 Y26.5125 F1200
X26.9625 Y25.6125
Y24.3750
X25.5000 Y23.0250
X24.1500 Y23.1375
X23.3625 Y23.8125
X22.9125 Y24.9375
X23.0250 Y25.6125
X23.4750 Y26.4000
X24.3750 Y26.9625
X25.7250
Z0.5000
X30.5625 Y31.4625
Z-1.2990
Z-2.2490 F600
Y32.5875 F1200
X31.5750 Y33.4875
X33.1500 Y33.0375
X33.4875 Y32.4750
X33.2625 Y31.1250
X32.5875 Y30.5625
X31.8000 Y30.4500
X30.5625 Y31.4625
Z0.5000
X26.1750 Y37.3125
Z-1.2990
Z-2.2490 F600
X25.2750 Y36.9750 F1200
X24.2625 Y37.0875
X23.3625 Y37.7625
X22.9125 Y39.0000
X23.1375 Y39.9000
X24.7125 Y41.0250
X25.7250 Y40.9125
X26.7375 Y40.1250
X26.9625 Y38.3250
X26.1750 Y37.3125
Z0.5000
X36.9750 Y38.6625
Z-1.2990
Z-2.2490 F600
X37.0875 Y39.7875 F1200
X37.9875 Y40.8000
X38.7750 Y41.0250
X40.5750 Y40.3500
X41.0250 Y39.3375
X40.9125 Y38.2125
X40.0125 Y37.2000
X39.2250 Y36.9750
X37.4250 Y37.6500
X36.9750 Y38.6625
Z0.5000
X39.0000 Y27.0750
Z-1.2990
Z-2.2490 F600
X40.6875 Y26.1750 F1200
X41.0250 Y24.6000
X39.9000 Y23.1375
X38.5500 Y23.0250
X37.7625 Y23.3625
X37.0875 Y24.2625
X36.9750 Y25.3875
X37.7625 Y26.6250
X39.0000 Y27.0750
Z0.5000
X50.0250 Y20.2125
Z-1.2990
Z-2.2490 F600
X51.6000 Y23.1375 F1200
X53.2875 Y28.7625
X53.5125 Y31.3500
X53.2875 Y35.2875
X51.8250 Y40.3500
X50.4750 Y43.0500
X48.4500 Y45.8625
X43.9500 Y49.9125
X38.8875 Y52.3875
X35.9625 Y53.1750
X32.8125 Y53.5125
X28.6500 Y53.2875
X23.5875 Y51.8250
X19.0875 Y49.2375
X16.0500 Y46.4250
X12.7875 Y41.7000
X11.1000 Y37.2000
X10.5375 Y33.6000
X10.7625 Y28.5375
X12.3375 Y23.2500
X15.4875 Y18.1875
X19.3125 Y14.5875
X22.6875 Y12.5625
X25.6125 Y11.4375
X30.2250 Y10.5375
X33.8250
X37.6500 Y11.2125
X40.5750 Y12.2250
X43.3875 Y13.6875
X48.1125 Y17.7375
X50.0250 Y20.2125
Z-2.6990 F600
X51.6000 Y23.1375 F1200
X53.2875 Y28.7625
X53.5125 Y31.3500
X53.2875 Y35.2875
X51.8250 Y40.3500
X50.4750 Y43.0500
X48.4500 Y45.8625
X43.9500 Y49.9125
X38.8875 Y52.3875
X35.9625 Y53.1750
X32.8125 Y53.5125
X28.6500 Y53.2875
X23.5875 Y51.8250
X19.0875 Y49.2375
X16.0500 Y46.4250
X12.7875 Y41.7000
X11.1000 Y37.2000
X10.5375 Y33.6000
X10.7625 Y28.5375
X12.3375 Y23.2500
X15.4875 Y18.1875
X19.3125 Y14.5875
X22.6875 Y12.5625
X25.6125 Y11.4375
X30.2250 Y10.5375
X33.8250
X37.6500 Y11.2125
X40.5750 Y12.2250
X43.3875 Y13.6875
X48.1125 Y17.7375
X50.0250 Y20.2125
Z0.5000
X41.0250 Y24.6000
Z-1.7490
Z-2.6990 F600
X39.9000 Y23.1375 F1200
X38.5500 Y23.0250
X37.7625 Y23.3625
X37.0875 Y24.2625
X36.9750 Y25.3875
X37.7625 Y26.6250
X39.0000 Y27.0750
X40.6875 Y26.1750
X41.0250 Y24.6000
Z0.5000
X33.2625 Y31.1250
Z-1.7490
Z-2.6990 F600
X32.5875 Y30.5625 F1200
X31.8000 Y30.4500
X30.5625 Y31.4625
Y32.5875
X31.5750 Y33.4875
X33.1500 Y33.0375
X33.4875 Y32.4750
X33.2625 Y31.1250
Z0.5000
X37.4250 Y37.6500
Z-1.7490
Z-2.6990 F600
X36.9750 Y38.6625 F1200
X37.0875 Y39.7875
X37.9875 Y40.8000
X38.7750 Y41.0250
X40.5750 Y40.3500
X41.0250 Y39.3375
X40.9125 Y38.2125
X40.0125 Y37.2000
X39.2250 Y36.9750
X37.4250 Y37.6500
Z0.5000
X26.9625 Y38.3250
Z-1.7490
Z-2.6990 F600
X26.1750 Y37.3125 F1200
X25.2750 Y36.9750
X24.2625 Y37.0875
X23.3625 Y37.7625
X22.9125 Y39.0000
X23.1375 Y39.9000
X24.7125 Y41.0250
X25.7250 Y40.9125
X26.7375 Y40.1250
X26.9625 Y38.3250
Z0.5000
X25.6125 Y26.9625
Z-1.7490
Z-2.6990 F600
X26.4000 Y26.5125 F1200
X26.9625 Y25.6125
Y24.3750
X25.5000 Y23.0250
X24.1500 Y23.1375
X23.3625 Y23.8125
X23.0250 Y25.6125
X24.3750 Y26.9625
X25.6125
Z-3.1490 F600
X26.4000 Y26.5125 F1200
X26.9625 Y25.6125
Y24.3750
X25.5000 Y23.0250
X24.1500 Y23.1375
X23.3625 Y23.8125
X23.0250 Y25.6125
X24.3750 Y26.9625
X25.6125
Z0.5000
X30.5625 Y31.4625
Z-2.1990
Z-3.1490 F600
Y32.5875 F1200
X31.5750 Y33.4875
X33.1500 Y33.0375
X33.4875 Y32.4750
X33.2625 Y31.1250
X32.5875 Y30.5625
X31.8000 Y30.4500
X30.5625 Y31.4625
Z0.5000
X26.1750 Y37.3125
Z-2.1990
Z-3.1490 F600
X25.2750 Y36.9750 F1200
X24.2625 Y37.0875
X23.3625 Y37.7625
X22.9125 Y39.0000
X23.1375 Y39.9000
X24.7125 Y41.0250
X25.7250 Y40.9125
X26.7375 Y40.1250
X26.9625 Y38.3250
X26.1750 Y37.3125
Z0.5000
X36.9750 Y38.6625
Z-2.1990
Z-3.1490 F600
X37.0875 Y39.7875 F1200
X37.9875 Y40.8000
X38.7750 Y41.0250
X40.5750 Y40.3500
X41.0250 Y39.3375
X40.9125 Y38.2125
X40.0125 Y37.2000
X39.2250 Y36.9750
X37.4250 Y37.6500
X36.9750 Y38.6625
Z0.5000
X39.0000 Y27.0750
Z-2.1990
Z-3.1490 F600
X40.6875 Y26.1750 F1200
X41.0250 Y24.6000
X39.9000 Y23.1375
X38.5500 Y23.0250
X37.7625 Y23.3625
X37.0875 Y24.2625
X36.9750 Y25.3875
X37.7625 Y26.6250
X39.0000 Y27.0750
Z0.5000
X50.0250 Y20.2125
Z-2.1990
Z-3.1490 F600
X51.6000 Y23.1375 F1200
X53.2875 Y28.7625
X53.5125 Y31.3500
X53.2875 Y35.2875
X51.8250 Y40.3500
X50.4750 Y43.0500
X48.4500 Y45.8625
X43.9500 Y49.9125
X38.8875 Y52.3875
X35.9625 Y53.1750
X32.8125 Y53.5125
X28.6500 Y53.2875
X23.5875 Y51.8250
X19.0875 Y49.2375
X16.0500 Y46.4250
X12.7875 Y41.7000
X11.1000 Y37.2000
X10.5375 Y33.6000
X10.7625 Y28.5375
X12.3375 Y23.2500
X15.4875 Y18.1875
X19.3125 Y14.5875
X22.6875 Y12.5625
X25.6125 Y11.4375
X30.2250 Y10.5375
X33.8250
X37.6500 Y11.2125
X40.5750 Y12.2250
X43.3875 Y13.6875
X48.1125 Y17.7375
X50.0250 Y20.2125
Z-3.5990 F600
X51.6000 Y23.1375 F1200
X53.2875 Y28.7625
X53.5125 Y31.3500
X53.2875 Y35.2875
X51.8250 Y40.3500
X50.4750 Y43.0500
X48.4500 Y45.8625
X43.9500 Y49.9125
X38.8875 Y52.3875
X35.9625 Y53.1750
X32.8125 Y53.5125
X28.6500 Y53.2875
X23.5875 Y51.8250
X19.0875 Y49.2375
X16.0500 Y46.4250
X12.7875 Y41.7000
X11.1000 Y37.2000
X10.5375 Y33.6000
X10.7625 Y28.5375
X12.3375 Y23.2500
X15.4875 Y18.1875
X19.3125 Y14.5875
X22.6875 Y12.5625
X25.6125 Y11.4375
X30.2250 Y10.5375
X33.8250
X37.6500 Y11.2125
X40.5750 Y12.2250
X43.3875 Y13.6875
X48.1125 Y17.7375
X50.0250 Y20.2125
Z0.5000
X41.0250 Y24.6000
Z-2.6490
Z-3.5990 F600
X39.9000 Y23.1375 F1200
X38.5500 Y23.0250
X37.7625 Y23.3625
X37.0875 Y24.2625
X36.9750 Y25.3875
X37.7625 Y26.6250
X39.0000 Y27.0750
X40.6875 Y26.1750
X41.0250 Y24.6000
Z0.5000
X33.2625 Y31.1250
Z-2.6490
Z-3.5990 F600
X32.5875 Y30.5625 F1200
X31.8000 Y30.4500
X30.5625 Y31.4625
Y32.5875
X31.5750 Y33.4875
X33.1500 Y33.0375
X33.4875 Y32.4750
X33.2625 Y31.1250
Z0.5000
X37.4250 Y37.6500
Z-2.6490
Z-3.5990 F600
X36.9750 Y38.6625 F1200
X37.0875 Y39.7875
X37.9875 Y40.8000
X38.7750 Y41.0250
X40.5750 Y40.3500
X41.0250 Y39.3375
X40.9125 Y38.2125
X40.0125 Y37.2000
X39.2250 Y36.9750
X37.4250 Y37.6500
Z0.5000
X26.9625 Y38.3250
Z-2.6490
Z-3.5990 F600
X26.1750 Y37.3125 F1200
X25.2750 Y36.9750
X24.2625 Y37.0875
X23.3625 Y37.7625
X22.9125 Y39.0000
X23.1375 Y39.9000
X24.7125 Y41.0250
X25.7250 Y40.9125
X26.7375 Y40.1250
X26.9625 Y38.3250
Z0.5000
X25.6125 Y26.9625
Z-2.6490
Z-3.5990 F600
X26.4000 Y26.5125 F1200
X26.9625 Y25.6125
Y24.3750
X25.5000 Y23.0250
X24.1500 Y23.1375
X23.3625 Y23.8125
X23.0250 Y25.6125
X24.3750 Y26.9625
X25.6125
Z-4.0490 F600
X26.4000 Y26.5125 F1200
X26.9625 Y25.6125
Y24.3750
X25.5000 Y23.0250
X24.1500 Y23.1375
X23.3625 Y23.8125
X23.0250 Y25.6125
X24.3750 Y26.9625
X25.6125
Z0.5000
X30.5625 Y31.4625
Z-3.0990
Z-4.0490 F600
Y32.5875 F1200
X31.5750 Y33.4875
X33.1500 Y33.0375
X33.4875 Y32.4750
X33.2625 Y31.1250
X32.5875 Y30.5625
X31.8000 Y30.4500
X30.5625 Y31.4625
Z0.5000
X26.1750 Y37.3125
Z-3.0990
Z-4.0490 F600
X25.2750 Y36.9750 F1200
X24.2625 Y37.0875
X23.3625 Y37.7625
X22.9125 Y39.0000
X23.1375 Y39.9000
X24.7125 Y41.0250
X25.7250 Y40.9125
X26.7375 Y40.1250
X26.9625 Y38.3250
X26.1750 Y37.3125
Z0.5000
X36.9750 Y38.6625
Z-3.0990
Z-4.0490 F600
X37.0875 Y39.7875 F1200
X37.9875 Y40.8000
X38.7750 Y41.0250
X40.5750 Y40.3500
X41.0250 Y39.3375
X40.9125 Y38.2125
X40.0125 Y37.2000
X39.2250 Y36.9750
X37.4250 Y37.6500
X36.9750 Y38.6625
Z0.5000
X39.0000 Y27.0750
Z-3.0990
Z-4.0490 F600
X40.6875 Y26.1750 F1200
X41.0250 Y24.6000
X39.9000 Y23.1375
X38.5500 Y23.0250
X37.7625 Y23.3625
X37.0875 Y24.2625
X36.9750 Y25.3875
X37.7625 Y26.6250
X39.0000 Y27.0750
Z0.5000
X50.0250 Y20.2125
Z-3.0990
Z-4.0490 F600
X51.6000 Y23.1375 F1200
X53.2875 Y28.7625
X53.5125 Y31.3500
X53.2875 Y35.2875
X51.8250 Y40.3500
X50.4750 Y43.0500
X48.4500 Y45.8625
X43.9500 Y49.9125
X38.8875 Y52.3875
X35.9625 Y53.1750
X32.8125 Y53.5125
X28.6500 Y53.2875
X23.5875 Y51.8250
X19.0875 Y49.2375
X16.0500 Y46.4250
X12.7875 Y41.7000
X11.1000 Y37.2000
X10.5375 Y33.6000
X10.7625 Y28.5375
X12.3375 Y23.2500
X15.4875 Y18.1875
X19.3125 Y14.5875
X22.6875 Y12.5625
X25.6125 Y11.4375
X30.2250 Y10.5375
X33.8250
X37.6500 Y11.2125
X40.5750 Y12.2250
X43.3875 Y13.6875
X48.1125 Y17.7375
X50.0250 Y20.2125
Z-4.4990 F600
X51.6000 Y23.1375 F1200
X53.2875 Y28.7625
X53.5125 Y31.3500
X53.2875 Y35.2875
X51.8250 Y40.3500
X50.4750 Y43.0500
X48.4500 Y45.8625
X43.9500 Y49.9125
X38.8875 Y52.3875
X35.9625 Y53.1750
X32.8125 Y53.5125
X28.6500 Y53.2875
X23.5875 Y51.8250
X19.0875 Y49.2375
X16.0500 Y46.4250
X12.7875 Y41.7000
X11.1000 Y37.2000
X10.5375 Y33.6000
X10.7625 Y28.5375
X12.3375 Y23.2500
X15.4875 Y18.1875
X19.3125 Y14.5875
X22.6875 Y12.5625
X25.6125 Y11.4375
X30.2250 Y10.5375
X33.8250
X37.6500 Y11.2125
X40.5750 Y12.2250
X43.3875 Y13.6875
X48.1125 Y17.7375
X50.0250 Y20.2125
Z0.5000
X41.0250 Y24.6000
Z-3.5490
Z-4.4990 F600
X39.9000 Y23.1375 F1200
X38.5500 Y23.0250
X37.7625 Y23.3625
X37.0875 Y24.2625
X36.9750 Y25.3875
X37.7625 Y26.6250
X39.0000 Y27.0750
X40.6875 Y26.1750
X41.0250 Y24.6000
Z0.5000
X33.2625 Y31.1250
Z-3.5490
Z-4.4990 F600
X32.5875 Y30.5625 F1200
X31.8000 Y30.4500
X30.5625 Y31.4625
Y32.5875
X31.5750 Y33.4875
X33.1500 Y33.0375
X33.4875 Y32.4750
X33.2625 Y31.1250
Z0.5000
X37.4250 Y37.6500
Z-3.5490
Z-4.4990 F600
X36.9750 Y38.6625 F1200
X37.0875 Y39.7875
X37.9875 Y40.8000
X38.7750 Y41.0250
X40.5750 Y40.3500
X41.0250 Y39.3375
X40.9125 Y38.2125
X40.0125 Y37.2000
X39.2250 Y36.9750
X37.4250 Y37.6500
Z0.5000
X26.9625 Y38.3250
Z-3.5490
Z-4.4990 F600
X26.1750 Y37.3125 F1200
X25.2750 Y36.9750
X24.2625 Y37.0875
X23.3625 Y37.7625
X22.9125 Y39.0000
X23.1375 Y39.9000
X24.7125 Y41.0250
X25.7250 Y40.9125
X26.7375 Y40.1250
X26.9625 Y38.3250
Z0.5000
X25.6125 Y26.9625
Z-3.5490
Z-4.4990 F600
X26.4000 Y26.5125 F1200
X26.9625 Y25.6125
Y24.3750
X25.5000 Y23.0250
X24.1500 Y23.1375
X23.3625 Y23.8125
X23.0250 Y25.6125
X24.3750 Y26.9625
X25.6125
Z-4.9490 F600
X26.4000 Y26.5125 F1200
X26.9625 Y25.6125
Y24.3750
X25.5000 Y23.0250
X24.1500 Y23.1375
X23.3625 Y23.8125
X23.0250 Y25.6125
X24.3750 Y26.9625
X25.6125
Z0.5000
X30.5625 Y31.4625
Z-3.9990
Z-4.9490 F600
Y32.5875 F1200
X31.5750 Y33.4875
X33.1500 Y33.0375
X33.4875 Y32.4750
X33.2625 Y31.1250
X32.5875 Y30.5625
X31.8000 Y30.4500
X30.5625 Y31.4625
Z0.5000
X26.1750 Y37.3125
Z-3.9990
Z-4.9490 F600
X25.2750 Y36.9750 F1200
X24.2625 Y37.0875
X23.3625 Y37.7625
X22.9125 Y39.0000
X23.1375 Y39.9000
X24.7125 Y41.0250
X25.7250 Y40.9125
X26.7375 Y40.1250
X26.9625 Y38.3250
X26.1750 Y37.3125
Z0.5000
X36.9750 Y38.6625
Z-3.9990
Z-4.9490 F600
X37.0875 Y39.7875 F1200
X37.9875 Y40.8000
X38.7750 Y41.0250
X40.5750 Y40.3500
X41.0250 Y39.3375
X40.9125 Y38.2125
X40.0125 Y37.2000
X39.2250 Y36.9750
X37.4250 Y37.6500
X36.9750 Y38.6625
Z0.5000
X39.0000 Y27.0750
Z-3.9990
Z-4.9490 F600
X40.6875 Y26.1750 F1200
X41.0250 Y24.6000
X39.9000 Y23.1375
X38.5500 Y23.0250
X37.7625 Y23.3625
X37.0875 Y24.2625
X36.9750 Y25.3875
X37.7625 Y26.6250
X39.0000 Y27.0750
Z0.5000
X50.0250 Y20.2125
Z-3.9990
Z-4.9490 F600
X51.6000 Y23.1375 F1200
X53.2875 Y28.7625
X53.5125 Y31.3500
X53.2875 Y35.2875
X51.8250 Y40.3500
X50.4750 Y43.0500
X48.4500 Y45.8625
X43.9500 Y49.9125
X38.8875 Y52.3875
X35.9625 Y53.1750
X32.8125 Y53.5125
X28.6500 Y53.2875
X23.5875 Y51.8250
X19.0875 Y49.2375
X16.0500 Y46.4250
X12.7875 Y41.7000
X11.1000 Y37.2000
X10.5375 Y33.6000
X10.7625 Y28.5375
X12.3375 Y23.2500
X15.4875 Y18.1875
X19.3125 Y14.5875
X22.6875 Y12.5625
X25.6125 Y11.4375
X30.2250 Y10.5375
X33.8250
X37.6500 Y11.2125
X40.5750 Y12.2250
X43.3875 Y13.6875
X48.1125 Y17.7375
X50.0250 Y20.2125
Z-5.3990 F600
X51.6000 Y23.1375 F1200
X53.2875 Y28.7625
X53.5125 Y31.3500
X53.2875 Y35.2875
X51.8250 Y40.3500
X50.4750 Y43.0500
X48.4500 Y45.8625
X43.9500 Y49.9125
X38.8875 Y52.3875
X35.9625 Y53.1750
X32.8125 Y53.5125
X28.6500 Y53.2875
X23.5875 Y51.8250
X19.0875 Y49.2375
X16.0500 Y46.4250
X12.7875 Y41.7000
X11.1000 Y37.2000
X10.5375 Y33.6000
X10.7625 Y28.5375
X12.3375 Y23.2500
X15.4875 Y18.1875
X19.3125 Y14.5875
X22.6875 Y12.5625
X25.6125 Y11.4375
X30.2250 Y10.5375
X33.8250
X37.6500 Y11.2125
X40.5750 Y12.2250
X43.3875 Y13.6875
X48.1125 Y17.7375
X50.0250 Y20.2125
Z0.5000
X41.0250 Y24.6000
Z-4.4490
Z-5.3990 F600
X39.9000 Y23.1375 F1200
X38.5500 Y23.0250
X37.7625 Y23.3625
X37.0875 Y24.2625
X36.9750 Y25.3875
X37.7625 Y26.6250
X39.0000 Y27.0750
X40.6875 Y26.1750
X41.0250 Y24.6000
Z0.5000
X33.2625 Y31.1250
Z-4.4490
Z-5.3990 F600
X32.5875 Y30.5625 F1200
X31.8000 Y30.4500
X30.5625 Y31.4625
Y32.5875
X31.5750 Y33.4875
X32.7000 Y33.3750
X33.3750 Y32.7000
X33.2625 Y31.1250
Z0.5000
X37.4250 Y37.6500
Z-4.4490
Z-5.3990 F600
X36.9750 Y38.6625 F1200
X37.0875 Y39.7875
X37.9875 Y40.8000
X38.7750 Y41.0250
X40.5750 Y40.3500
X41.0250 Y39.3375
X40.9125 Y38.2125
X40.0125 Y37.2000
X39.2250 Y36.9750
X37.4250 Y37.6500
Z0.5000
X26.9625 Y38.3250
Z-4.4490
Z-5.3990 F600
X26.1750 Y37.3125 F1200
X25.2750 Y36.9750
X24.2625 Y37.0875
X23.3625 Y37.7625
X22.9125 Y39.0000
X23.1375 Y39.9000
X24.7125 Y41.0250
X25.7250 Y40.9125
X26.7375 Y40.1250
X26.9625 Y38.3250
Z0.5000
X25.6125 Y26.9625
Z-4.4490
Z-5.3990 F600
X26.4000 Y26.5125 F1200
X26.9625 Y25.6125
Y24.3750
X25.5000 Y23.0250
X24.1500 Y23.1375
X23.3625 Y23.8125
X23.0250 Y25.6125
X24.3750 Y26.9625
X25.6125
Z-5.8490 F600
X26.4000 Y26.5125 F1200
X26.9625 Y25.6125
Y24.3750
X25.5000 Y23.0250
X24.1500 Y23.1375
X23.3625 Y23.8125
X23.0250 Y25.6125
X24.3750 Y26.9625
X25.6125
Z0.5000
X30.5625 Y31.4625
Z-4.8990
Z-5.8490 F600
Y32.5875 F1200
X31.5750 Y33.4875
X32.7000 Y33.3750
X33.3750 Y32.7000
X33.2625 Y31.1250
X32.5875 Y30.5625
X31.8000 Y30.4500
X30.5625 Y31.4625
Z0.5000
X26.1750 Y37.3125
Z-4.8990
Z-5.8490 F600
X25.2750 Y36.9750 F1200
X24.2625 Y37.0875
X23.3625 Y37.7625
X22.9125 Y39.0000
X23.1375 Y39.9000
X24.7125 Y41.0250
X25.7250 Y40.9125
X26.7375 Y40.1250
X26.9625 Y38.3250
X26.1750 Y37.3125
Z0.5000
X36.9750 Y38.6625
Z-4.8990
Z-5.8490 F600
X37.0875 Y39.7875 F1200
X37.9875 Y40.8000
X38.7750 Y41.0250
X40.5750 Y40.3500
X41.0250 Y39.3375
X40.9125 Y38.2125
X40.0125 Y37.2000
X39.2250 Y36.9750
X37.4250 Y37.6500
X36.9750 Y38.6625
Z0.5000
X39.0000 Y27.0750
Z-4.8990
Z-5.8490 F600
X40.6875 Y26.1750 F1200
X41.0250 Y24.6000
X39.9000 Y23.1375
X38.5500 Y23.0250
X37.7625 Y23.3625
X37.0875 Y24.2625
X36.9750 Y25.3875
X37.7625 Y26.6250
X39.0000 Y27.0750
Z0.5000
X50.0250 Y20.2125
Z-4.8990
Z-5.8490 F600
X51.6000 Y23.1375 F1200
X53.2875 Y28.7625
X53.5125 Y31.3500
X53.2875 Y35.2875
X51.8250 Y40.3500
X50.4750 Y43.0500
X48.4500 Y45.8625
X43.9500 Y49.9125
X38.8875 Y52.3875
X35.9625 Y53.1750
X32.8125 Y53.5125
X28.6500 Y53.2875
X23.5875 Y51.8250
X19.0875 Y49.2375
X16.0500 Y46.4250
X12.7875 Y41.7000
X11.1000 Y37.2000
X10.5375 Y33.6000
X10.7625 Y28.5375
X12.3375 Y23.2500
X15.4875 Y18.1875
X19.3125 Y14.5875
X22.6875 Y12.5625
X25.6125 Y11.4375
X30.2250 Y10.5375
X33.8250
X37.6500 Y11.2125
X40.5750 Y12.2250
X43.3875 Y13.6875
X48.1125 Y17.7375
X50.0250 Y20.2125
Z-6.2990 F600
X51.6000 Y23.1375 F1200
X53.2875 Y28.7625
X53.5125 Y31.3500
X53.2875 Y35.2875
X51.8250 Y40.3500
X50.4750 Y43.0500
X48.4500 Y45.8625
X43.9500 Y49.9125
X38.8875 Y52.3875
X35.9625 Y53.1750
X32.8125 Y53.5125
X28.6500 Y53.2875
X23.5875 Y51.8250
X19.0875 Y49.2375
X16.0500 Y46.4250
X12.7875 Y41.7000
X11.1000 Y37.2000
X10.5375 Y33.6000
X10.7625 Y28.5375
X12.3375 Y23.2500
X15.4875 Y18.1875
X19.3125 Y14.5875
X22.6875 Y12.5625
X25.6125 Y11.4375
X30.2250 Y10.5375
X33.8250
X37.6500 Y11.2125
X40.5750 Y12.2250
X43.3875 Y13.6875
X48.1125 Y17.7375
X50.0250 Y20.2125
Z0.5000
X41.0250 Y24.6000
Z-5.3490
Z-6.2990 F600
X39.9000 Y23.1375 F1200
X38.5500 Y23.0250
X37.7625 Y23.3625
X37.0875 Y24.2625
X36.9750 Y25.3875
X37.7625 Y26.6250
X39.0000 Y27.0750
X40.6875 Y26.1750
X41.0250 Y24.6000
Z0.5000
X33.2625 Y31.1250
Z-5.3490
Z-6.2990 F600
X32.5875 Y30.5625 F1200
X31.8000 Y30.4500
X30.5625 Y31.4625
Y32.5875
X31.5750 Y33.4875
X32.7000 Y33.3750
X33.3750 Y32.7000
X33.2625 Y31.1250
Z0.5000
X37.4250 Y37.6500
Z-5.3490
Z-6.2990 F600
X36.9750 Y38.6625 F1200
X37.0875 Y39.7875
X37.9875 Y40.8000
X38.7750 Y41.0250
X40.5750 Y40.3500
X41.0250 Y39.3375
X40.9125 Y38.2125
X40.0125 Y37.2000
X39.2250 Y36.9750
X37.4250 Y37.6500
Z0.5000
X26.9625 Y38.3250
Z-5.3490
Z-6.2990 F600
X26.1750 Y37.3125 F1200
X25.2750 Y36.9750
X24.2625 Y37.0875
X23.3625 Y37.7625
X22.9125 Y39.0000
X23.1375 Y39.9000
X24.7125 Y41.0250
X25.7250 Y40.9125
X26.7375 Y40.1250
X26.9625 Y38.3250
Z0.5000
X25.6125 Y26.9625
Z-5.3490
Z-6.2990 F600
X26.4000 Y26.5125 F1200
X26.9625 Y25.6125
Y24.3750
X25.5000 Y23.0250
X24.1500 Y23.1375
X23.3625 Y23.8125
X23.0250 Y25.6125
X24.3750 Y26.9625
X25.6125
Z-6.7490 F600
X26.4000 Y26.5125 F1200
X26.9625 Y25.6125
Y24.3750
X25.5000 Y23.0250
X24.1500 Y23.1375
X23.3625 Y23.8125
X23.0250 Y25.6125
X24.3750 Y26.9625
X25.6125
Z0.5000
X30.5625 Y31.4625
Z-5.7990
Z-6.7490 F600
Y32.5875 F1200
X31.5750 Y33.4875
X32.7000 Y33.3750
X33.3750 Y32.7000
X33.2625 Y31.1250
X32.5875 Y30.5625
X31.8000 Y30.4500
X30.5625 Y31.4625
Z0.5000
X26.1750 Y37.3125
Z-5.7990
Z-6.7490 F600
X25.2750 Y36.9750 F1200
X24.2625 Y37.0875
X23.3625 Y37.7625
X22.9125 Y39.0000
X23.1375 Y39.9000
X24.7125 Y41.0250
X25.7250 Y40.9125
X26.7375 Y40.1250
X26.9625 Y38.3250
X26.1750 Y37.3125
Z0.5000
X36.9750 Y38.6625
Z-5.7990
Z-6.7490 F600
X37.0875 Y39.7875 F1200
X37.9875 Y40.8000
X38.7750 Y41.0250
X40.5750 Y40.3500
X41.0250 Y39.3375
X40.9125 Y38.2125
X40.0125 Y37.2000
X39.2250 Y36.9750
X37.4250 Y37.6500
X36.9750 Y38.6625
Z0.5000
X39.0000 Y27.0750
Z-5.7990
Z-6.7490 F600
X40.6875 Y26.1750 F1200
X41.0250 Y24.6000
X39.9000 Y23.1375
X38.5500 Y23.0250
X37.7625 Y23.3625
X37.0875 Y24.2625
X36.9750 Y25.3875
X37.7625 Y26.6250
X39.0000 Y27.0750
Z0.5000
X50.0250 Y20.2125
Z-5.7990
Z-6.7490 F600
X51.6000 Y23.1375 F1200
X53.2875 Y28.7625
X53.5125 Y31.3500
X53.2875 Y35.2875
X51.8250 Y40.3500
X50.4750 Y43.0500
X48.4500 Y45.8625
X43.9500 Y49.9125
X38.8875 Y52.3875
X35.9625 Y53.1750
X32.8125 Y53.5125
X28.6500 Y53.2875
X23.5875 Y51.8250
X19.0875 Y49.2375
X16.0500 Y46.4250
X12.7875 Y41.7000
X11.1000 Y37.2000
X10.5375 Y33.6000
X10.7625 Y28.5375
X12.3375 Y23.2500
X15.4875 Y18.1875
X19.3125 Y14.5875
X22.6875 Y12.5625
X25.6125 Y11.4375
X30.2250 Y10.5375
X33.8250
X37.6500 Y11.2125
X40.5750 Y12.2250
X43.3875 Y13.6875
X48.1125 Y17.7375
X50.0250 Y20.2125
Z-7.1990 F600
X51.6000 Y23.1375 F1200
X53.2875 Y28.7625
X53.5125 Y31.3500
X53.2875 Y35.2875
X51.8250 Y40.3500
X50.4750 Y43.0500
X48.4500 Y45.8625
X43.9500 Y49.9125
X38.8875 Y52.3875
X35.9625 Y53.1750
X32.8125 Y53.5125
X28.6500 Y53.2875
X23.5875 Y51.8250
X19.0875 Y49.2375
X16.0500 Y46.4250
X12.7875 Y41.7000
X11.1000 Y37.2000
X10.5375 Y33.6000
X10.7625 Y28.5375
X12.3375 Y23.2500
X15.4875 Y18.1875
X19.3125 Y14.5875
X22.6875 Y12.5625
X25.6125 Y11.4375
X30.2250 Y10.5375
X33.8250
X37.6500 Y11.2125
X40.5750 Y12.2250
X43.3875 Y13.6875
X48.1125 Y17.7375
X50.0250 Y20.2125
Z0.5000
X41.0250 Y24.6000
Z-6.2490
Z-7.1990 F600
X39.9000 Y23.1375 F1200
X38.5500 Y23.0250
X37.7625 Y23.3625
X37.0875 Y24.2625
X36.9750 Y25.3875
X37.7625 Y26.6250
X39.0000 Y27.0750
X40.6875 Y26.1750
X41.0250 Y24.6000
Z0.5000
X33.2625 Y31.1250
Z-6.2490
Z-7.1990 F600
X32.5875 Y30.5625 F1200
X31.8000 Y30.4500
X30.5625 Y31.4625
Y32.5875
X31.5750 Y33.4875
X32.7000 Y33.3750
X33.3750 Y32.7000
X33.2625 Y31.1250
Z0.5000
X37.4250 Y37.6500
Z-6.2490
Z-7.1990 F600
X36.9750 Y38.6625 F1200
X37.0875 Y39.7875
X37.9875 Y40.8000
X38.7750 Y41.0250
X40.5750 Y40.3500
X41.0250 Y39.3375
X40.9125 Y38.2125
X40.0125 Y37.2000
X39.2250 Y36.9750
X37.4250 Y37.6500
Z0.5000
X26.9625 Y38.3250
Z-6.2490
Z-7.1990 F600
X26.1750 Y37.3125 F1200
X25.2750 Y36.9750
X24.2625 Y37.0875
X23.3625 Y37.7625
X22.9125 Y39.0000
X23.1375 Y39.9000
X24.7125 Y41.0250
X25.7250 Y40.9125
X26.7375 Y40.1250
X26.9625 Y38.3250
Z0.5000
X25.6125 Y26.9625
Z-6.2490
Z-7.1990 F600
X26.4000 Y26.5125 F1200
X26.9625 Y25.6125
Y24.3750
X25.5000 Y23.0250
X24.1500 Y23.1375
X23.3625 Y23.8125
X23.0250 Y25.6125
X24.3750 Y26.9625
X25.6125
Z-7.6490 F600
X26.4000 Y26.5125 F1200
X26.9625 Y25.6125
Y24.3750
X25.5000 Y23.0250
X24.1500 Y23.1375
X23.3625 Y23.8125
X23.0250 Y25.6125
X24.3750 Y26.9625
X25.6125
Z0.5000
X30.5625 Y31.4625
Z-6.6990
Z-7.6490 F600
Y32.5875 F1200
X31.5750 Y33.4875
X32.7000 Y33.3750
X33.3750 Y32.7000
X33.2625 Y31.1250
X32.5875 Y30.5625
X31.8000 Y30.4500
X30.5625 Y31.4625
Z0.5000
X26.1750 Y37.3125
Z-6.6990
Z-7.6490 F600
X25.2750 Y36.9750 F1200
X24.2625 Y37.0875
X23.3625 Y37.7625
X22.9125 Y39.0000
X23.1375 Y39.9000
X24.7125 Y41.0250
X25.7250 Y40.9125
X26.7375 Y40.1250
X26.9625 Y38.3250
X26.1750 Y37.3125
Z0.5000
X36.9750 Y38.6625
Z-6.6990
Z-7.6490 F600
X37.0875 Y39.7875 F1200
X37.9875 Y40.8000
X38.7750 Y41.0250
X40.5750 Y40.3500
X41.0250 Y39.3375
X40.9125 Y38.2125
X40.0125 Y37.2000
X39.2250 Y36.9750
X37.4250 Y37.6500
X36.9750 Y38.6625
Z0.5000
X39.0000 Y27.0750
Z-6.6990
Z-7.6490 F600
X40.6875 Y26.1750 F1200
X41.0250 Y24.6000
X39.9000 Y23.1375
X38.5500 Y23.0250
X37.7625 Y23.3625
X37.0875 Y24.2625
X36.9750 Y25.3875
X37.7625 Y26.6250
X39.0000 Y27.0750
Z0.5000
X50.0250 Y20.2125
Z-6.6990
Z-7.6490 F600
X51.6000 Y23.1375 F1200
X53.2875 Y28.7625
X53.5125 Y31.3500
X53.2875 Y35.2875
X51.8250 Y40.3500
X50.4750 Y43.0500
X48.4500 Y45.8625
X43.9500 Y49.9125
X38.8875 Y52.3875
X35.9625 Y53.1750
X32.8125 Y53.5125
X28.6500 Y53.2875
X23.5875 Y51.8250
X19.0875 Y49.2375
X16.0500 Y46.4250
X12.7875 Y41.7000
X11.1000 Y37.2000
X10.5375 Y33.6000
X10.7625 Y28.5375
X12.3375 Y23.2500
X15.4875 Y18.1875
X19.3125 Y14.5875
X22.6875 Y12.5625
X25.6125 Y11.4375
X30.2250 Y10.5375
X33.8250
X37.6500 Y11.2125
X40.5750 Y12.2250
X43.3875 Y13.6875
X48.1125 Y17.7375
X50.0250 Y20.2125
Z-8.0990 F600
X51.6000 Y23.1375 F1200
X53.2875 Y28.7625
X53.5125 Y31.3500
X53.2875 Y35.2875
X51.8250 Y40.3500
X50.4750 Y43.0500
X48.4500 Y45.8625
X43.9500 Y49.9125
X38.8875 Y52.3875
X35.9625 Y53.1750
X32.8125 Y53.5125
X28.6500 Y53.2875
X23.5875 Y51.8250
X19.0875 Y49.2375
X16.0500 Y46.4250
X12.7875 Y41.7000
X11.1000 Y37.2000
X10.5375 Y33.6000
X10.7625 Y28.5375
X12.3375 Y23.2500
X15.4875 Y18.1875
X19.3125 Y14.5875
X22.6875 Y12.5625
X25.6125 Y11.4375
X30.2250 Y10.5375
X33.8250
X37.6500 Y11.2125
X40.5750 Y12.2250
X43.3875 Y13.6875
X48.1125 Y17.7375
X50.0250 Y20.2125
Z0.5000
X41.0250 Y24.6000
Z-7.1490
Z-8.0990 F600
X39.9000 Y23.1375 F1200
X38.5500 Y23.0250
X37.7625 Y23.3625
X37.0875 Y24.2625
X36.9750 Y25.3875
X37.7625 Y26.6250
X39.0000 Y27.0750
X40.6875 Y26.1750
X41.0250 Y24.6000
Z0.5000
X33.2625 Y31.1250
Z-7.1490
Z-8.0990 F600
X32.5875 Y30.5625 F1200
X31.8000 Y30.4500
X30.5625 Y31.4625
Y32.5875
X31.5750 Y33.4875
X32.7000 Y33.3750
X33.3750 Y32.7000
X33.2625 Y31.1250
Z0.5000
X37.4250 Y37.6500
Z-7.1490
Z-8.0990 F600
X36.9750 Y38.6625 F1200
X37.0875 Y39.7875
X37.9875 Y40.8000
X38.7750 Y41.0250
X40.5750 Y40.3500
X41.0250 Y39.3375
X40.9125 Y38.2125
X40.0125 Y37.2000
X39.2250 Y36.9750
X37.4250 Y37.6500
Z0.5000
X26.9625 Y38.3250
Z-7.1490
Z-8.0990 F600
X26.1750 Y37.3125 F1200
X25.2750 Y36.9750
X24.2625 Y37.0875
X23.3625 Y37.7625
X22.9125 Y39.0000
X23.1375 Y39.9000
X24.7125 Y41.0250
X25.7250 Y40.9125
X26.7375 Y40.1250
X26.9625 Y38.3250
Z0.5000
X25.6125 Y26.9625
Z-7.1490
Z-8.0990 F600
X26.4000 Y26.5125 F1200
X26.9625 Y25.6125
Y24.3750
X25.5000 Y23.0250
X24.1500 Y23.1375
X23.3625 Y23.8125
X23.0250 Y25.6125
X24.3750 Y26.9625
X25.6125
Z-8.5490 F600
X26.4000 Y26.5125 F1200
X26.9625 Y25.6125
Y24.3750
X25.5000 Y23.0250
X24.1500 Y23.1375
X23.3625 Y23.8125
X23.0250 Y25.6125
X24.3750 Y26.9625
X25.6125
Z0.5000
X30.5625 Y31.4625
Z-7.5990
Z-8.5490 F600
Y32.5875 F1200
X31.5750 Y33.4875
X32.7000 Y33.3750
X33.3750 Y32.7000
X33.2625 Y31.1250
X32.5875 Y30.5625
X31.8000 Y30.4500
X30.5625 Y31.4625
Z0.5000
X26.1750 Y37.3125
Z-7.5990
Z-8.5490 F600
X25.2750 Y36.9750 F1200
X24.2625 Y37.0875
X23.3625 Y37.7625
X22.9125 Y39.0000
X23.1375 Y39.9000
X24.7125 Y41.0250
X25.7250 Y40.9125
X26.7375 Y40.1250
X26.9625 Y38.3250
X26.1750 Y37.3125
Z0.5000
X36.9750 Y38.6625
Z-7.5990
Z-8.5490 F600
X37.0875 Y39.7875 F1200
X37.9875 Y40.8000
X38.7750 Y41.0250
X40.5750 Y40.3500
X41.0250 Y39.3375
X40.9125 Y38.2125
X40.0125 Y37.2000
X39.2250 Y36.9750
X37.4250 Y37.6500
X36.9750 Y38.6625
Z0.5000
X39.0000 Y27.0750
Z-7.5990
Z-8.5490 F600
X40.6875 Y26.1750 F1200
X41.0250 Y24.6000
X39.9000 Y23.1375
X38.5500 Y23.0250
X37.7625 Y23.3625
X37.0875 Y24.2625
X36.9750 Y25.3875
X37.7625 Y26.6250
X39.0000 Y27.0750
Z0.5000
X50.0250 Y20.2125
Z-7.5990
Z-8.5490 F600
X51.6000 Y23.1375 F1200
X53.2875 Y28.7625
X53.5125 Y31.3500
X53.2875 Y35.2875
X51.8250 Y40.3500
X50.4750 Y43.0500
X48.4500 Y45.8625
X43.9500 Y49.9125
X38.8875 Y52.3875
X35.9625 Y53.1750
X32.8125 Y53.5125
X28.6500 Y53.2875
X23.5875 Y51.8250
X19.0875 Y49.2375
X16.0500 Y46.4250
X12.7875 Y41.7000
X11.1000 Y37.2000
X10.5375 Y33.6000
X10.7625 Y28.5375
X12.3375 Y23.2500
X15.4875 Y18.1875
X19.3125 Y14.5875
X22.6875 Y12.5625
X25.6125 Y11.4375
X30.2250 Y10.5375
X33.8250
X37.6500 Y11.2125
X40.5750 Y12.2250
X43.3875 Y13.6875
X48.1125 Y17.7375
X50.0250 Y20.2125
Z-8.9990 F600
X51.6000 Y23.1375 F1200
X53.2875 Y28.7625
X53.5125 Y31.3500
X53.2875 Y35.2875
X51.8250 Y40.3500
X50.4750 Y43.0500
X48.4500 Y45.8625
X43.9500 Y49.9125
X38.8875 Y52.3875
X35.9625 Y53.1750
X32.8125 Y53.5125
X28.6500 Y53.2875
X23.5875 Y51.8250
X19.0875 Y49.2375
X16.0500 Y46.4250
X12.7875 Y41.7000
X11.1000 Y37.2000
X10.5375 Y33.6000
X10.7625 Y28.5375
X12.3375 Y23.2500
X15.4875 Y18.1875
X19.3125 Y14.5875
X22.6875 Y12.5625
X25.6125 Y11.4375
X30.2250 Y10.5375
X33.8250
X37.6500 Y11.2125
X40.5750 Y12.2250
X43.3875 Y13.6875
X48.1125 Y17.7375
X50.0250 Y20.2125
Z0.5000
X41.0250 Y24.6000
Z-8.0490
Z-8.9990 F600
X39.9000 Y23.1375 F1200
X38.5500 Y23.0250
X37.7625 Y23.3625
X37.0875 Y24.2625
X36.9750 Y25.3875
X37.7625 Y26.6250
X39.0000 Y27.0750
X40.6875 Y26.1750
X41.0250 Y24.6000
Z0.5000
X33.2625 Y31.1250
Z-8.0490
Z-8.9990 F600
X32.5875 Y30.5625 F1200
X31.8000 Y30.4500
X30.5625 Y31.4625
Y32.5875
X31.5750 Y33.4875
X32.7000 Y33.3750
X33.3750 Y32.7000
X33.2625 Y31.1250
Z0.5000
X37.4250 Y37.6500
Z-8.0490
Z-8.9990 F600
X36.9750 Y38.6625 F1200
X37.0875 Y39.7875
X37.9875 Y40.8000
X38.7750 Y41.0250
X40.5750 Y40.3500
X41.0250 Y39.3375
X40.9125 Y38.2125
X40.0125 Y37.2000
X39.2250 Y36.9750
X37.4250 Y37.6500
Z0.5000
X26.9625 Y38.3250
Z-8.0490
Z-8.9990 F600
X26.1750 Y37.3125 F1200
X25.2750 Y36.9750
X24.2625 Y37.0875
X23.3625 Y37.7625
X22.9125 Y39.0000
X23.1375 Y39.9000
X24.7125 Y41.0250
X25.7250 Y40.9125
X26.7375 Y40.1250
X26.9625 Y38.3250
Z0.5000
X25.6125 Y26.9625
Z-8.0490
Z-8.9990 F600
X26.4000 Y26.5125 F1200
X26.9625 Y25.6125
Y24.3750
X25.5000 Y23.0250
X24.1500 Y23.1375
X23.3625 Y23.8125
X23.0250 Y25.6125
X24.3750 Y26.9625
X25.6125
Z-9.4490 F600
X26.4000 Y26.5125 F1200
X26.9625 Y25.6125
Y24.3750
X25.5000 Y23.0250
X24.1500 Y23.1375
X23.3625 Y23.8125
X23.0250 Y25.6125
X24.3750 Y26.9625
X25.6125
Z0.5000
X30.5625 Y31.4625
Z-8.4990
Z-9.4490 F600
Y32.5875 F1200
X31.5750 Y33.4875
X32.7000 Y33.3750
X33.3750 Y32.7000
X33.2625 Y31.1250
X32.5875 Y30.5625
X31.8000 Y30.4500
X30.5625 Y31.4625
Z0.5000
X26.1750 Y37.3125
Z-8.4990
Z-9.4490 F600
X25.2750 Y36.9750 F1200
X24.2625 Y37.0875
X23.3625 Y37.7625
X22.9125 Y39.0000
X23.1375 Y39.9000
X24.7125 Y41.0250
X25.7250 Y40.9125
X26.7375 Y40.1250
X26.9625 Y38.3250
X26.1750 Y37.3125
Z0.5000
X36.9750 Y38.6625
Z-8.4990
Z-9.4490 F600
X37.0875 Y39.7875 F1200
X37.9875 Y40.8000
X38.7750 Y41.0250
X40.5750 Y40.3500
X41.0250 Y39.3375
X40.9125 Y38.2125
X40.0125 Y37.2000
X39.2250 Y36.9750
X37.4250 Y37.6500
X36.9750 Y38.6625
Z0.5000
X39.0000 Y27.0750
Z-8.4990
Z-9.4490 F600
X40.6875 Y26.1750 F1200
X41.0250 Y24.6000
X39.9000 Y23.1375
X38.5500 Y23.0250
X37.7625 Y23.3625
X37.0875 Y24.2625
X36.9750 Y25.3875
X37.7625 Y26.6250
X39.0000 Y27.0750
Z0.5000
X50.0250 Y20.2125
Z-8.4990
Z-9.4490 F600
X51.6000 Y23.1375 F1200
X53.2875 Y28.7625
X53.5125 Y31.3500
X53.2875 Y35.2875
X51.8250 Y40.3500
X50.4750 Y43.0500
X48.4500 Y45.8625
X43.9500 Y49.9125
X38.8875 Y52.3875
X35.9625 Y53.1750
X32.8125 Y53.5125
X28.6500 Y53.2875
X23.5875 Y51.8250
X19.0875 Y49.2375
X16.0500 Y46.4250
X12.7875 Y41.7000
X11.1000 Y37.2000
X10.5375 Y33.6000
X10.7625 Y28.5375
X12.3375 Y23.2500
X15.4875 Y18.1875
X19.3125 Y14.5875
X22.6875 Y12.5625
X25.6125 Y11.4375
X30.2250 Y10.5375
X33.8250
X37.6500 Y11.2125
X40.5750 Y12.2250
X43.3875 Y13.6875
X48.1125 Y17.7375
X50.0250 Y20.2125
Z-9.8990 F600
X51.6000 Y23.1375 F1200
X53.2875 Y28.7625
X53.5125 Y31.3500
X53.2875 Y35.2875
X51.8250 Y40.3500
X50.4750 Y43.0500
X48.4500 Y45.8625
X43.9500 Y49.9125
X38.8875 Y52.3875
X35.9625 Y53.1750
X32.8125 Y53.5125
X28.6500 Y53.2875
X23.5875 Y51.8250
X19.0875 Y49.2375
X16.0500 Y46.4250
X12.7875 Y41.7000
X11.1000 Y37.2000
X10.5375 Y33.6000
X10.7625 Y28.5375
X12.3375 Y23.2500
X15.4875 Y18.1875
X19.3125 Y14.5875
X22.6875 Y12.5625
X25.6125 Y11.4375
X30.2250 Y10.5375
X33.8250
X37.6500 Y11.2125
X40.5750 Y12.2250
X43.3875 Y13.6875
X48.1125 Y17.7375
X50.0250 Y20.2125
Z0.5000
X41.0250 Y24.6000
Z-8.9490
Z-9.8990 F600
X39.9000 Y23.1375 F1200
X38.5500 Y23.0250
X37.7625 Y23.3625
X37.0875 Y24.2625
X36.9750 Y25.3875
X37.7625 Y26.6250
X39.0000 Y27.0750
X40.6875 Y26.1750
X41.0250 Y24.6000
Z0.5000
X33.2625 Y31.1250
Z-8.9490
Z-9.8990 F600
X32.5875 Y30.5625 F1200
X31.8000 Y30.4500
X30.5625 Y31.4625
Y32.5875
X31.5750 Y33.4875
X32.7000 Y33.3750
X33.3750 Y32.7000
X33.2625 Y31.1250
Z0.5000
X37.4250 Y37.6500
Z-8.9490
Z-9.8990 F600
X36.9750 Y38.6625 F1200
X37.0875 Y39.7875
X37.9875 Y40.8000
X38.7750 Y41.0250
X40.5750 Y40.3500
X41.0250 Y39.3375
X40.9125 Y38.2125
X40.0125 Y37.2000
X39.2250 Y36.9750
X37.4250 Y37.6500
Z0.5000
X26.9625 Y38.3250
Z-8.9490
Z-9.8990 F600
X26.1750 Y37.3125 F1200
X25.2750 Y36.9750
X24.2625 Y37.0875
X23.3625 Y37.7625
X22.9125 Y39.0000
X23.1375 Y39.9000
X24.7125 Y41.0250
X25.7250 Y40.9125
X26.7375 Y40.1250
X26.9625 Y38.3250
Z0.5000
X25.6125 Y26.9625
Z-8.9490
Z-9.8990 F600
X26.4000 Y26.5125 F1200
X26.9625 Y25.6125
Y24.3750
X25.5000 Y23.0250
X24.1500 Y23.1375
X23.3625 Y23.8125
X23.0250 Y25.6125
X24.3750 Y26.9625
X25.6125
Z-10.3490 F600
X26.4000 Y26.5125 F1200
X26.9625 Y25.6125
Y24.3750
X25.5000 Y23.0250
X24.1500 Y23.1375
X23.3625 Y23.8125
X23.0250 Y25.6125
X24.3750 Y26.9625
X25.6125
Z0.5000
X30.5625 Y31.4625
Z-9.3990
Z-10.3490 F600
Y32.5875 F1200
X31.5750 Y33.4875
X32.7000 Y33.3750
X33.3750 Y32.7000
X33.2625 Y31.1250
X32.5875 Y30.5625
X31.8000 Y30.4500
X30.5625 Y31.4625
Z0.5000
X26.1750 Y37.3125
Z-9.3990
Z-10.3490 F600
X25.2750 Y36.9750 F1200
X24.2625 Y37.0875
X23.3625 Y37.7625
X22.9125 Y39.0000
X23.1375 Y39.9000
X24.7125 Y41.0250
X25.7250 Y40.9125
X26.7375 Y40.1250
X26.9625 Y38.3250
X26.1750 Y37.3125
Z0.5000
X36.9750 Y38.6625
Z-9.3990
Z-10.3490 F600
X37.0875 Y39.7875 F1200
X37.9875 Y40.8000
X38.7750 Y41.0250
X40.5750 Y40.3500
X41.0250 Y39.3375
X40.9125 Y38.2125
X40.0125 Y37.2000
X39.2250 Y36.9750
X37.4250 Y37.6500
X36.9750 Y38.6625
Z0.5000
X39.0000 Y27.0750
Z-9.3990
Z-10.3490 F600
X40.6875 Y26.1750 F1200
X41.0250 Y24.6000
X39.9000 Y23.1375
X38.5500 Y23.0250
X37.7625 Y23.3625
X37.0875 Y24.2625
X36.9750 Y25.3875
X37.7625 Y26.6250
X39.0000 Y27.0750
Z0.5000
X50.0250 Y20.2125
Z-9.3990
Z-10.3490 F600
X51.6000 Y23.1375 F1200
X53.2875 Y28.7625
X53.5125 Y31.3500
X53.2875 Y35.2875
X51.8250 Y40.3500
X50.4750 Y43.0500
X48.4500 Y45.8625
X43.9500 Y49.9125
X38.8875 Y52.3875
X35.9625 Y53.1750
X32.8125 Y53.5125
X28.6500 Y53.2875
X23.5875 Y51.8250
X19.0875 Y49.2375
X16.0500 Y46.4250
X12.7875 Y41.7000
X11.1000 Y37.2000
X10.5375 Y33.6000
X10.7625 Y28.5375
X12.3375 Y23.2500
X15.4875 Y18.1875
X19.3125 Y14.5875
X22.6875 Y12.5625
X25.6125 Y11.4375
X30.2250 Y10.5375
X33.8250
X37.6500 Y11.2125
X40.5750 Y12.2250
X43.3875 Y13.6875
X48.1125 Y17.7375
X50.0250 Y20.2125
Z-10.7990 F600
X51.6000 Y23.1375 F1200
X53.2875 Y28.7625
X53.5125 Y31.3500
X53.2875 Y35.2875
X51.8250 Y40.3500
X50.4750 Y43.0500
X48.4500 Y45.8625
X43.9500 Y49.9125
X38.8875 Y52.3875
X35.9625 Y53.1750
X32.8125 Y53.5125
X28.6500 Y53.2875
X23.5875 Y51.8250
X19.0875 Y49.2375
X16.0500 Y46.4250
X12.7875 Y41.7000
X11.1000 Y37.2000
X10.5375 Y33.6000
X10.7625 Y28.5375
X12.3375 Y23.2500
X15.4875 Y18.1875
X19.3125 Y14.5875
X22.6875 Y12.5625
X25.6125 Y11.4375
X30.2250 Y10.5375
X33.8250
X37.6500 Y11.2125
X40.5750 Y12.2250
X43.3875 Y13.6875
X48.1125 Y17.7375
X50.0250 Y20.2125
Z0.5000
X41.0250 Y24.6000
Z-9.8490
Z-10.7990 F600
X39.9000 Y23.1375 F1200
X38.5500 Y23.0250
X37.7625 Y23.3625
X37.0875 Y24.2625
X36.9750 Y25.3875
X37.7625 Y26.6250
X39.0000 Y27.0750
X40.6875 Y26.1750
X41.0250 Y24.6000
Z0.5000
X33.2625 Y31.1250
Z-9.8490
Z-10.7990 F600
X32.5875 Y30.5625 F1200
X31.8000 Y30.4500
X30.5625 Y31.4625
Y32.5875
X31.5750 Y33.4875
X32.7000 Y33.3750
X33.3750 Y32.7000
X33.2625 Y31.1250
Z0.5000
X37.4250 Y37.6500
Z-9.8490
Z-10.7990 F600
X36.9750 Y38.6625 F1200
X37.0875 Y39.7875
X37.9875 Y40.8000
X38.7750 Y41.0250
X40.5750 Y40.3500
X41.0250 Y39.3375
X40.9125 Y38.2125
X40.0125 Y37.2000
X39.2250 Y36.9750
X37.4250 Y37.6500
Z0.5000
X26.9625 Y38.3250
Z-9.8490
Z-10.7990 F600
X26.1750 Y37.3125 F1200
X25.2750 Y36.9750
X24.2625 Y37.0875
X23.3625 Y37.7625
X22.9125 Y39.0000
X23.1375 Y39.9000
X24.7125 Y41.0250
X25.7250 Y40.9125
X26.7375 Y40.1250
X26.9625 Y38.3250
Z0.5000
X25.6125 Y26.9625
Z-9.8490
Z-10.7990 F600
X26.4000 Y26.5125 F1200
X26.9625 Y25.6125
Y24.3750
X25.5000 Y23.0250
X24.1500 Y23.1375
X23.3625 Y23.8125
X23.0250 Y25.6125
X24.3750 Y26.9625
X25.6125
Z-11.2490 F600
X26.4000 Y26.5125 F1200
X26.9625 Y25.6125
Y24.3750
X25.5000 Y23.0250
X24.1500 Y23.1375
X23.3625 Y23.8125
X23.0250 Y25.6125
X24.3750 Y26.9625
X25.6125
Z0.5000
X30.5625 Y31.4625
Z-10.2990
Z-11.2490 F600
Y32.5875 F1200
X31.5750 Y33.4875
X32.7000 Y33.3750
X33.3750 Y32.7000
X33.2625 Y31.1250
X32.5875 Y30.5625
X31.8000 Y30.4500
X30.5625 Y31.4625
Z0.5000
X26.1750 Y37.3125
Z-10.2990
Z-11.2490 F600
X25.2750 Y36.9750 F1200
X24.2625 Y37.0875
X23.3625 Y37.7625
X22.9125 Y39.0000
X23.1375 Y39.9000
X24.7125 Y41.0250
X25.7250 Y40.9125
X26.7375 Y40.1250
X26.9625 Y38.3250
X26.1750 Y37.3125
Z0.5000
X36.9750 Y38.6625
Z-10.2990
Z-11.2490 F600
X37.0875 Y39.7875 F1200
X37.9875 Y40.8000
X38.7750 Y41.0250
X40.5750 Y40.3500
X41.0250 Y39.3375
X40.9125 Y38.2125
X40.0125 Y37.2000
X39.2250 Y36.9750
X37.4250 Y37.6500
X36.9750 Y38.6625
Z0.5000
X39.0000 Y27.0750
Z-10.2990
Z-11.2490 F600
X40.6875 Y26.1750 F1200
X41.0250 Y24.6000
X39.9000 Y23.1375
X38.5500 Y23.0250
X37.7625 Y23.3625
X37.0875 Y24.2625
X36.9750 Y25.3875
X37.7625 Y26.6250
X39.0000 Y27.0750
Z0.5000
X50.0250 Y20.2125
Z-10.2990
Z-11.2490 F600
X51.6000 Y23.1375 F1200
X53.2875 Y28.7625
X53.5125 Y31.3500
X53.2875 Y35.2875
X51.8250 Y40.3500
X50.4750 Y43.0500
X48.4500 Y45.8625
X43.9500 Y49.9125
X38.8875 Y52.3875
X35.9625 Y53.1750
X32.8125 Y53.5125
X28.6500 Y53.2875
X23.5875 Y51.8250
X19.0875 Y49.2375
X16.0500 Y46.4250
X12.7875 Y41.7000
X11.1000 Y37.2000
X10.5375 Y33.6000
X10.7625 Y28.5375
X12.3375 Y23.2500
X15.4875 Y18.1875
X19.3125 Y14.5875
X22.6875 Y12.5625
X25.6125 Y11.4375
X30.2250 Y10.5375
X33.8250
X37.6500 Y11.2125
X40.5750 Y12.2250
X43.3875 Y13.6875
X48.1125 Y17.7375
X50.0250 Y20.2125
Z-11.6990 F600
X51.6000 Y23.1375 F1200
X53.2875 Y28.7625
X53.5125 Y31.3500
X53.2875 Y35.2875
X51.8250 Y40.3500
X50.4750 Y43.0500
X48.4500 Y45.8625
X43.9500 Y49.9125
X38.8875 Y52.3875
X35.9625 Y53.1750
X32.8125 Y53.5125
X28.6500 Y53.2875
X23.5875 Y51.8250
X19.0875 Y49.2375
X16.0500 Y46.4250
X12.7875 Y41.7000
X11.1000 Y37.2000
X10.5375 Y33.6000
X10.7625 Y28.5375
X12.3375 Y23.2500
X15.4875 Y18.1875
X19.3125 Y14.5875
X22.6875 Y12.5625
X25.6125 Y11.4375
X30.2250 Y10.5375
X33.8250
X37.6500 Y11.2125
X40.5750 Y12.2250
X43.3875 Y13.6875
X48.1125 Y17.7375
X50.0250 Y20.2125
Z0.5000
X41.0250 Y24.6000
Z-10.7490
Z-11.6990 F600
X39.9000 Y23.1375 F1200
X38.5500 Y23.0250
X37.7625 Y23.3625
X37.0875 Y24.2625
X36.9750 Y25.3875
X37.7625 Y26.6250
X39.0000 Y27.0750
X40.6875 Y26.1750
X41.0250 Y24.6000
Z0.5000
X33.2625 Y31.1250
Z-10.7490
Z-11.6990 F600
X32.5875 Y30.5625 F1200
X31.8000 Y30.4500
X30.5625 Y31.4625
Y32.5875
X31.5750 Y33.4875
X32.7000 Y33.3750
X33.3750 Y32.7000
X33.2625 Y31.1250
Z0.5000
X37.4250 Y37.6500
Z-10.7490
Z-11.6990 F600
X36.9750 Y38.6625 F1200
X37.0875 Y39.7875
X37.9875 Y40.8000
X38.7750 Y41.0250
X40.5750 Y40.3500
X41.0250 Y39.3375
X40.9125 Y38.2125
X40.0125 Y37.2000
X39.2250 Y36.9750
X37.4250 Y37.6500
Z0.5000
X26.9625 Y38.3250
Z-10.7490
Z-11.6990 F600
X26.1750 Y37.3125 F1200
X25.2750 Y36.9750
X24.2625 Y37.0875
X23.3625 Y37.7625
X22.9125 Y39.0000
X23.1375 Y39.9000
X24.7125 Y41.0250
X25.7250 Y40.9125
X26.7375 Y40.1250
X26.9625 Y38.3250
Z0.5000
X25.6125 Y26.9625
Z-10.7490
Z-11.6990 F600
X26.4000 Y26.5125 F1200
X26.9625 Y25.6125
Y24.3750
X25.5000 Y23.0250
X24.1500 Y23.1375
X23.3625 Y23.8125
X23.0250 Y25.6125
X24.3750 Y26.9625
X25.6125
Z-12.1490 F600
X26.4000 Y26.5125 F1200
X26.9625 Y25.6125
Y24.3750
X25.5000 Y23.0250
X24.1500 Y23.1375
X23.3625 Y23.8125
X23.0250 Y25.6125
X24.3750 Y26.9625
X25.6125
Z0.5000
X30.5625 Y31.4625
Z-11.1990
Z-12.1490 F600
Y32.5875 F1200
X31.5750 Y33.4875
X32.7000 Y33.3750
X33.3750 Y32.7000
X33.2625 Y31.1250
X32.5875 Y30.5625
X31.8000 Y30.4500
X30.5625 Y31.4625
Z0.5000
X26.1750 Y37.3125
Z-11.1990
Z-12.1490 F600
X25.2750 Y36.9750 F1200
X24.2625 Y37.0875
X23.3625 Y37.7625
X22.9125 Y39.0000
X23.1375 Y39.9000
X24.7125 Y41.0250
X25.7250 Y40.9125
X26.7375 Y40.1250
X26.9625 Y38.3250
X26.1750 Y37.3125
Z0.5000
X36.9750 Y38.6625
Z-11.1990
Z-12.1490 F600
X37.0875 Y39.7875 F1200
X37.9875 Y40.8000
X38.7750 Y41.0250
X40.5750 Y40.3500
X41.0250 Y39.3375
X40.9125 Y38.2125
X40.0125 Y37.2000
X39.2250 Y36.9750
X37.4250 Y37.6500
X36.9750 Y38.6625
Z0.5000
X39.0000 Y27.0750
Z-11.1990
Z-12.1490 F600
X40.6875 Y26.1750 F1200
X41.0250 Y24.6000
X39.9000 Y23.1375
X38.5500 Y23.0250
X37.7625 Y23.3625
X37.0875 Y24.2625
X36.9750 Y25.3875
X37.7625 Y26.6250
X39.0000 Y27.0750
Z0.5000
X50.0250 Y20.2125
Z-11.1990
Z-12.1490 F600
X51.6000 Y23.1375 F1200
X53.2875 Y28.7625
X53.5125 Y31.3500
X53.2875 Y35.2875
X51.8250 Y40.3500
X50.4750 Y43.0500
X48.4500 Y45.8625
X43.9500 Y49.9125
X38.8875 Y52.3875
X35.9625 Y53.1750
X32.8125 Y53.5125
X28.6500 Y53.2875
X23.5875 Y51.8250
X19.0875 Y49.2375
X16.0500 Y46.4250
X12.7875 Y41.7000
X11.1000 Y37.2000
X10.5375 Y33.6000
X10.7625 Y28.5375
X12.3375 Y23.2500
X15.4875 Y18.1875
X19.3125 Y14.5875
X22.6875 Y12.5625
X25.6125 Y11.4375
X30.2250 Y10.5375
X33.8250
X37.6500 Y11.2125
X40.5750 Y12.2250
X43.3875 Y13.6875
X48.1125 Y17.7375
X50.0250 Y20.2125
Z-12.5990 F600
X51.6000 Y23.1375 F1200
X53.2875 Y28.7625
X53.5125 Y31.3500
X53.2875 Y35.2875
X51.8250 Y40.3500
X50.4750 Y43.0500
X48.4500 Y45.8625
X43.9500 Y49.9125
X38.8875 Y52.3875
X35.9625 Y53.1750
X32.8125 Y53.5125
X28.6500 Y53.2875
X23.5875 Y51.8250
X19.0875 Y49.2375
X16.0500 Y46.4250
X12.7875 Y41.7000
X11.1000 Y37.2000
X10.5375 Y33.6000
X10.7625 Y28.5375
X12.3375 Y23.2500
X15.4875 Y18.1875
X19.3125 Y14.5875
X22.6875 Y12.5625
X25.6125 Y11.4375
X30.2250 Y10.5375
X33.8250
X37.6500 Y11.2125
X40.5750 Y12.2250
X43.3875 Y13.6875
X48.1125 Y17.7375
X50.0250 Y20.2125
Z0.5000
X41.0250 Y24.6000
Z-11.6490
Z-12.5990 F600
X39.9000 Y23.1375 F1200
X38.5500 Y23.0250
X37.7625 Y23.3625
X37.0875 Y24.2625
X36.9750 Y25.3875
X37.7625 Y26.6250
X39.0000 Y27.0750
X40.6875 Y26.1750
X41.0250 Y24.6000
Z0.5000
X33.2625 Y31.1250
Z-11.6490
Z-12.5990 F600
X32.5875 Y30.5625 F1200
X31.8000 Y30.4500
X30.5625 Y31.4625
Y32.5875
X31.5750 Y33.4875
X32.7000 Y33.3750
X33.3750 Y32.7000
X33.2625 Y31.1250
Z0.5000
X37.4250 Y37.6500
Z-11.6490
Z-12.5990 F600
X36.9750 Y38.6625 F1200
X37.0875 Y39.7875
X37.9875 Y40.8000
X38.7750 Y41.0250
X40.5750 Y40.3500
X41.0250 Y39.3375
X40.9125 Y38.2125
X40.0125 Y37.2000
X39.2250 Y36.9750
X37.4250 Y37.6500
Z0.5000
X26.9625 Y38.3250
Z-11.6490
Z-12.5990 F600
X26.1750 Y37.3125 F1200
X25.2750 Y36.9750
X24.2625 Y37.0875
X23.3625 Y37.7625
X22.9125 Y39.0000
X23.1375 Y39.9000
X24.7125 Y41.0250
X25.7250 Y40.9125
X26.7375 Y40.1250
X26.9625 Y38.3250
Z0.5000
X25.6125 Y26.9625
Z-11.6490
Z-12.5990 F600
X26.4000 Y26.5125 F1200
X26.9625 Y25.6125
Y24.3750
X25.5000 Y23.0250
X24.1500 Y23.1375
X23.3625 Y23.8125
X23.0250 Y25.6125
X24.3750 Y26.9625
X25.6125
Z-13.0490 F600
X26.4000 Y26.5125 F1200
X26.9625 Y25.6125
Y24.3750
X25.5000 Y23.0250
X24.1500 Y23.1375
X23.3625 Y23.8125
X23.0250 Y25.6125
X24.3750 Y26.9625
X25.6125
Z0.5000
X30.5625 Y31.4625
Z-12.0990
Z-13.0490 F600
Y32.5875 F1200
X31.5750 Y33.4875
X32.7000 Y33.3750
X33.3750 Y32.7000
X33.2625 Y31.1250
X32.5875 Y30.5625
X31.8000 Y30.4500
X30.5625 Y31.4625
Z0.5000
X26.1750 Y37.3125
Z-12.0990
Z-13.0490 F600
X25.2750 Y36.9750 F1200
X24.2625 Y37.0875
X23.3625 Y37.7625
X22.9125 Y39.0000
X23.1375 Y39.9000
X24.7125 Y41.0250
X25.7250 Y40.9125
X26.7375 Y40.1250
X26.9625 Y38.3250
X26.1750 Y37.3125
Z0.5000
X36.9750 Y38.6625
Z-12.0990
Z-13.0490 F600
X37.0875 Y39.7875 F1200
X37.9875 Y40.8000
X38.7750 Y41.0250
X40.5750 Y40.3500
X41.0250 Y39.3375
X40.9125 Y38.2125
X40.0125 Y37.2000
X39.2250 Y36.9750
X37.4250 Y37.6500
X36.9750 Y38.6625
Z0.5000
X39.0000 Y27.0750
Z-12.0990
Z-13.0490 F600
X40.6875 Y26.1750 F1200
X41.0250 Y24.6000
X39.9000 Y23.1375
X38.5500 Y23.0250
X37.7625 Y23.3625
X37.0875 Y24.2625
X36.9750 Y25.3875
X37.7625 Y26.6250
X39.0000 Y27.0750
Z0.5000
X50.0250 Y20.2125
Z-12.0990
Z-13.0490 F600
X51.6000 Y23.1375 F1200
X53.2875 Y28.7625
X53.5125 Y31.3500
X53.2875 Y35.2875
X51.8250 Y40.3500
X50.4750 Y43.0500
X48.4500 Y45.8625
X43.9500 Y49.9125
X38.8875 Y52.3875
X35.9625 Y53.1750
X32.8125 Y53.5125
X28.6500 Y53.2875
X23.5875 Y51.8250
X19.0875 Y49.2375
X16.0500 Y46.4250
X12.7875 Y41.7000
X11.1000 Y37.2000
X10.5375 Y33.6000
X10.7625 Y28.5375
X12.3375 Y23.2500
X15.4875 Y18.1875
X19.3125 Y14.5875
X22.6875 Y12.5625
X25.6125 Y11.4375
X30.2250 Y10.5375
X33.8250
X37.6500 Y11.2125
X40.5750 Y12.2250
X43.3875 Y13.6875
X48.1125 Y17.7375
X50.0250 Y20.2125
Z-13.4990 F600
X51.6000 Y23.1375 F1200
X53.2875 Y28.7625
X53.5125 Y31.3500
X53.2875 Y35.2875
X51.8250 Y40.3500
X50.4750 Y43.0500
X48.4500 Y45.8625
X43.9500 Y49.9125
X38.8875 Y52.3875
X35.9625 Y53.1750
X32.8125 Y53.5125
X28.6500 Y53.2875
X23.5875 Y51.8250
X19.0875 Y49.2375
X16.0500 Y46.4250
X12.7875 Y41.7000
X11.1000 Y37.2000
X10.5375 Y33.6000
X10.7625 Y28.5375
X12.3375 Y23.2500
X15.4875 Y18.1875
X19.3125 Y14.5875
X22.6875 Y12.5625
X25.6125 Y11.4375
X30.2250 Y10.5375
X33.8250
X37.6500 Y11.2125
X40.5750 Y12.2250
X43.3875 Y13.6875
X48.1125 Y17.7375
X50.0250 Y20.2125
Z0.5000
X41.0250 Y24.6000
Z-12.5490
Z-13.4990 F600
X39.9000 Y23.1375 F1200
X38.5500 Y23.0250
X37.7625 Y23.3625
X37.0875 Y24.2625
X36.9750 Y25.3875
X37.7625 Y26.6250
X39.0000 Y27.0750
X40.6875 Y26.1750
X41.0250 Y24.6000
Z0.5000
X33.2625 Y31.1250
Z-12.5490
Z-13.4990 F600
X32.5875 Y30.5625 F1200
X31.8000 Y30.4500
X30.5625 Y31.4625
Y32.5875
X31.5750 Y33.4875
X32.7000 Y33.3750
X33.3750 Y32.7000
X33.2625 Y31.1250
Z0.5000
X37.4250 Y37.6500
Z-12.5490
Z-13.4990 F600
X36.9750 Y38.6625 F1200
X37.0875 Y39.7875
X37.9875 Y40.8000
X38.7750 Y41.0250
X40.5750 Y40.3500
X41.0250 Y39.3375
X40.9125 Y38.2125
X40.0125 Y37.2000
X39.2250 Y36.9750
X37.4250 Y37.6500
Z0.5000
X26.9625 Y38.3250
Z-12.5490
Z-13.4990 F600
X26.1750 Y37.3125 F1200
X25.2750 Y36.9750
X24.2625 Y37.0875
X23.3625 Y37.7625
X22.9125 Y39.0000
X23.1375 Y39.9000
X24.7125 Y41.0250
X25.7250 Y40.9125
X26.7375 Y40.1250
X26.9625 Y38.3250
Z0.5000
X25.6125 Y26.9625
Z-12.5490
Z-13.4990 F600
X26.4000 Y26.5125 F1200
X26.9625 Y25.6125
Y24.3750
X25.5000 Y23.0250
X24.1500 Y23.1375
X23.3625 Y23.8125
X23.0250 Y25.6125
X24.3750 Y26.9625
X25.6125
Z-13.9490 F600
X26.4000 Y26.5125 F1200
X26.9625 Y25.6125
Y24.3750
X25.5000 Y23.0250
X24.1500 Y23.1375
X23.3625 Y23.8125
X23.0250 Y25.6125
X24.3750 Y26.9625
X25.6125
Z0.5000
X30.5625 Y31.4625
Z-12.9990
Z-13.9490 F600
Y32.5875 F1200
X31.5750 Y33.4875
X32.7000 Y33.3750
X33.3750 Y32.7000
X33.2625 Y31.1250
X32.5875 Y30.5625
X31.8000 Y30.4500
X30.5625 Y31.4625
Z0.5000
X26.1750 Y37.3125
Z-12.9990
Z-13.9490 F600
X25.2750 Y36.9750 F1200
X24.2625 Y37.0875
X23.3625 Y37.7625
X22.9125 Y39.0000
X23.1375 Y39.9000
X24.7125 Y41.0250
X25.7250 Y40.9125
X26.7375 Y40.1250
X26.9625 Y38.3250
X26.1750 Y37.3125
Z0.5000
X36.9750 Y38.6625
Z-12.9990
Z-13.9490 F600
X37.0875 Y39.7875 F1200
X37.9875 Y40.8000
X38.7750 Y41.0250
X40.5750 Y40.3500
X41.0250 Y39.3375
X40.9125 Y38.2125
X40.0125 Y37.2000
X39.2250 Y36.9750
X37.4250 Y37.6500
X36.9750 Y38.6625
Z0.5000
X39.0000 Y27.0750
Z-12.9990
Z-13.9490 F600
X40.6875 Y26.1750 F1200
X41.0250 Y24.6000
X39.9000 Y23.1375
X38.5500 Y23.0250
X37.7625 Y23.3625
X37.0875 Y24.2625
X36.9750 Y25.3875
X37.7625 Y26.6250
X39.0000 Y27.0750
Z0.5000
X50.0250 Y20.2125
Z-12.9990
Z-13.9490 F600
X51.6000 Y23.1375 F1200
X53.2875 Y28.7625
X53.5125 Y31.3500
X53.2875 Y35.2875
X51.8250 Y40.3500
X50.4750 Y43.0500
X48.4500 Y45.8625
X43.9500 Y49.9125
X38.8875 Y52.3875
X35.9625 Y53.1750
X32.8125 Y53.5125
X28.6500 Y53.2875
X23.5875 Y51.8250
X19.0875 Y49.2375
X16.0500 Y46.4250
X12.7875 Y41.7000
X11.1000 Y37.2000
X10.5375 Y33.6000
X10.7625 Y28.5375
X12.3375 Y23.2500
X15.4875 Y18.1875
X19.3125 Y14.5875
X22.6875 Y12.5625
X25.6125 Y11.4375
X30.2250 Y10.5375
X33.8250
X37.6500 Y11.2125
X40.5750 Y12.2250
X43.3875 Y13.6875
X48.1125 Y17.7375
X50.0250 Y20.2125
Z-14.3990 F600
X51.6000 Y23.1375 F1200
X53.2875 Y28.7625
X53.5125 Y31.3500
X53.2875 Y35.2875
X51.8250 Y40.3500
X50.4750 Y43.0500
X48.4500 Y45.8625
X43.9500 Y49.9125
X38.8875 Y52.3875
X35.9625 Y53.1750
X32.8125 Y53.5125
X28.6500 Y53.2875
X23.5875 Y51.8250
X19.0875 Y49.2375
X16.0500 Y46.4250
X12.7875 Y41.7000
X11.1000 Y37.2000
X10.5375 Y33.6000
X10.7625 Y28.5375
X12.3375 Y23.2500
X15.4875 Y18.1875
X19.3125 Y14.5875
X22.6875 Y12.5625
X25.6125 Y11.4375
X30.2250 Y10.5375
X33.8250
X37.6500 Y11.2125
X40.5750 Y12.2250
X43.3875 Y13.6875
X48.1125 Y17.7375
X50.0250 Y20.2125
Z0.5000
X41.0250 Y24.6000
Z-13.4490
Z-14.3990 F600
X39.9000 Y23.1375 F1200
X38.5500 Y23.0250
X37.7625 Y23.3625
X37.0875 Y24.2625
X36.9750 Y25.3875
X37.7625 Y26.6250
X39.0000 Y27.0750
X40.6875 Y26.1750
X41.0250 Y24.6000
Z0.5000
X33.2625 Y31.1250
Z-13.4490
Z-14.3990 F600
X32.5875 Y30.5625 F1200
X31.8000 Y30.4500
X30.5625 Y31.4625
Y32.5875
X31.5750 Y33.4875
X32.7000 Y33.3750
X33.3750 Y32.7000
X33.2625 Y31.1250
Z0.5000
X37.4250 Y37.6500
Z-13.4490
Z-14.3990 F600
X36.9750 Y38.6625 F1200
X37.0875 Y39.7875
X37.9875 Y40.8000
X38.7750 Y41.0250
X40.5750 Y40.3500
X41.0250 Y39.3375
X40.9125 Y38.2125
X40.0125 Y37.2000
X39.2250 Y36.9750
X37.4250 Y37.6500
Z0.5000
X26.9625 Y38.3250
Z-13.4490
Z-14.3990 F600
X26.1750 Y37.3125 F1200
X25.2750 Y36.9750
X24.2625 Y37.0875
X23.3625 Y37.7625
X22.9125 Y39.0000
X23.1375 Y39.9000
X24.7125 Y41.0250
X25.7250 Y40.9125
X26.7375 Y40.1250
X26.9625 Y38.3250
Z0.5000
X25.6125 Y26.9625
Z-13.4490
Z-14.3990 F600
X26.4000 Y26.5125 F1200
X26.9625 Y25.6125
Y24.3750
X25.5000 Y23.0250
X24.1500 Y23.1375
X23.3625 Y23.8125
X23.0250 Y25.6125
X24.3750 Y26.9625
X25.6125
Z-14.8490 F600
X26.4000 Y26.5125 F1200
X26.9625 Y25.6125
Y24.3750
X25.5000 Y23.0250
X24.1500 Y23.1375
X23.3625 Y23.8125
X23.0250 Y25.6125
X24.3750 Y26.9625
X25.6125
Z0.5000
X30.5625 Y31.4625
Z-13.8990
Z-14.8490 F600
Y32.5875 F1200
X31.5750 Y33.4875
X32.7000 Y33.3750
X33.3750 Y32.7000
X33.2625 Y31.1250
X32.5875 Y30.5625
X31.8000 Y30.4500
X30.5625 Y31.4625
Z0.5000
X26.1750 Y37.3125
Z-13.8990
Z-14.8490 F600
X25.2750 Y36.9750 F1200
X24.2625 Y37.0875
X23.3625 Y37.7625
X22.9125 Y39.0000
X23.1375 Y39.9000
X24.7125 Y41.0250
X25.7250 Y40.9125
X26.7375 Y40.1250
X26.9625 Y38.3250
X26.1750 Y37.3125
Z0.5000
X36.9750 Y38.6625
Z-13.8990
Z-14.8490 F600
X37.0875 Y39.7875 F1200
X37.9875 Y40.8000
X38.7750 Y41.0250
X40.5750 Y40.3500
X41.0250 Y39.3375
X40.9125 Y38.2125
X40.0125 Y37.2000
X39.2250 Y36.9750
X37.4250 Y37.6500
X36.9750 Y38.6625
Z0.5000
X39.0000 Y27.0750
Z-13.8990
Z-14.8490 F600
X40.6875 Y26.1750 F1200
X41.0250 Y24.6000
X39.9000 Y23.1375
X38.5500 Y23.0250
X37.7625 Y23.3625
X37.0875 Y24.2625
X36.9750 Y25.3875
X37.7625 Y26.6250
X39.0000 Y27.0750
Z0.5000
X50.0250 Y20.2125
Z-13.8990
Z-14.8490 F600
X51.6000 Y23.1375 F1200
X53.2875 Y28.7625
X53.5125 Y31.3500
X53.2875 Y35.2875
X51.8250 Y40.3500
X50.4750 Y43.0500
X48.4500 Y45.8625
X43.9500 Y49.9125
X38.8875 Y52.3875
X35.9625 Y53.1750
X32.8125 Y53.5125
X28.6500 Y53.2875
X23.5875 Y51.8250
X19.0875 Y49.2375
X16.0500 Y46.4250
X12.7875 Y41.7000
X11.1000 Y37.2000
X10.5375 Y33.6000
X10.7625 Y28.5375
X12.3375 Y23.2500
X15.4875 Y18.1875
X19.3125 Y14.5875
X22.6875 Y12.5625
X25.6125 Y11.4375
X30.2250 Y10.5375
X33.8250
X37.6500 Y11.2125
X40.5750 Y12.2250
X43.3875 Y13.6875
X48.1125 Y17.7375
X50.0250 Y20.2125
Z-15.2990 F600
X51.6000 Y23.1375 F1200
X53.2875 Y28.7625
X53.5125 Y31.3500
X53.2875 Y35.2875
X51.8250 Y40.3500
X50.4750 Y43.0500
X48.4500 Y45.8625
X43.9500 Y49.9125
X38.8875 Y52.3875
X35.9625 Y53.1750
X32.8125 Y53.5125
X28.6500 Y53.2875
X23.5875 Y51.8250
X19.0875 Y49.2375
X16.0500 Y46.4250
X12.7875 Y41.7000
X11.1000 Y37.2000
X10.5375 Y33.6000
X10.7625 Y28.5375
X12.3375 Y23.2500
X15.4875 Y18.1875
X19.3125 Y14.5875
X22.6875 Y12.5625
X25.6125 Y11.4375
X30.2250 Y10.5375
X33.8250
X37.6500 Y11.2125
X40.5750 Y12.2250
X43.3875 Y13.6875
X48.1125 Y17.7375
X50.0250 Y20.2125
Z0.5000
X41.0250 Y24.6000
Z-14.3490
Z-15.2990 F600
X39.9000 Y23.1375 F1200
X38.5500 Y23.0250
X37.7625 Y23.3625
X37.0875 Y24.2625
X36.9750 Y25.3875
X37.7625 Y26.6250
X39.0000 Y27.0750
X40.6875 Y26.1750
X41.0250 Y24.6000
Z0.5000
X33.2625 Y31.1250
Z-14.3490
Z-15.2990 F600
X32.5875 Y30.5625 F1200
X31.8000 Y30.4500
X30.5625 Y31.4625
Y32.5875
X31.5750 Y33.4875
X32.7000 Y33.3750
X33.3750 Y32.7000
X33.2625 Y31.1250
Z0.5000
X37.4250 Y37.6500
Z-14.3490
Z-15.2990 F600
X36.9750 Y38.6625 F1200
X37.0875 Y39.7875
X37.9875 Y40.8000
X38.7750 Y41.0250
X40.5750 Y40.3500
X41.0250 Y39.3375
X40.9125 Y38.2125
X40.0125 Y37.2000
X39.2250 Y36.9750
X37.4250 Y37.6500
Z0.5000
X26.9625 Y38.3250
Z-14.3490
Z-15.2990 F600
X26.1750 Y37.3125 F1200
X25.2750 Y36.9750
X24.2625 Y37.0875
X23.3625 Y37.7625
X22.9125 Y39.0000
X23.1375 Y39.9000
X24.7125 Y41.0250
X25.7250 Y40.9125
X26.7375 Y40.1250
X26.9625 Y38.3250
Z0.5000
X25.6125 Y26.9625
Z-14.3490
Z-15.2990 F600
X26.4000 Y26.5125 F1200
X26.9625 Y25.6125
Y24.3750
X25.5000 Y23.0250
X24.1500 Y23.1375
X23.3625 Y23.8125
X23.0250 Y25.6125
X24.3750 Y26.9625
X25.6125
Z-15.7490 F600
X26.4000 Y26.5125 F1200
X26.9625 Y25.6125
Y24.3750
X25.5000 Y23.0250
X24.1500 Y23.1375
X23.3625 Y23.8125
X23.0250 Y25.6125
X24.3750 Y26.9625
X25.6125
Z0.5000
X30.5625 Y31.4625
Z-14.7990
Z-15.7490 F600
Y32.5875 F1200
X31.5750 Y33.4875
X32.7000 Y33.3750
X33.3750 Y32.7000
X33.2625 Y31.1250
X32.5875 Y30.5625
X31.8000 Y30.4500
X30.5625 Y31.4625
Z0.5000
X26.1750 Y37.3125
Z-14.7990
Z-15.7490 F600
X25.2750 Y36.9750 F1200
X24.2625 Y37.0875
X23.3625 Y37.7625
X22.9125 Y39.0000
X23.1375 Y39.9000
X24.7125 Y41.0250
X25.7250 Y40.9125
X26.7375 Y40.1250
X26.9625 Y38.3250
X26.1750 Y37.3125
Z0.5000
X36.9750 Y38.6625
Z-14.7990
Z-15.7490 F600
X37.0875 Y39.7875 F1200
X37.9875 Y40.8000
X38.7750 Y41.0250
X40.5750 Y40.3500
X41.0250 Y39.3375
X40.9125 Y38.2125
X40.0125 Y37.2000
X39.2250 Y36.9750
X37.4250 Y37.6500
X36.9750 Y38.6625
Z0.5000
X39.0000 Y27.0750
Z-14.7990
Z-15.7490 F600
X40.6875 Y26.1750 F1200
X41.0250 Y24.6000
X39.9000 Y23.1375
X38.5500 Y23.0250
X37.7625 Y23.3625
X37.0875 Y24.2625
X36.9750 Y25.3875
X37.7625 Y26.6250
X39.0000 Y27.0750
Z0.5000
X50.0250 Y20.2125
Z-14.7990
Z-15.7490 F600
X51.6000 Y23.1375 F1200
X53.2875 Y28.7625
X53.5125 Y31.3500
X53.2875 Y35.2875
X51.8250 Y40.3500
X50.4750 Y43.0500
X48.4500 Y45.8625
X43.9500 Y49.9125
X38.8875 Y52.3875
X35.9625 Y53.1750
X32.8125 Y53.5125
X28.6500 Y53.2875
X23.5875 Y51.8250
X19.0875 Y49.2375
X16.0500 Y46.4250
X12.7875 Y41.7000
X11.1000 Y37.2000
X10.5375 Y33.6000
X10.7625 Y28.5375
X12.3375 Y23.2500
X15.4875 Y18.1875
X19.3125 Y14.5875
X22.6875 Y12.5625
X25.6125 Y11.4375
X30.2250 Y10.5375
X33.8250
X37.6500 Y11.2125
X40.5750 Y12.2250
X43.3875 Y13.6875
X48.1125 Y17.7375
X50.0250 Y20.2125
Z-16.1990 F600
X51.6000 Y23.1375 F1200
X53.2875 Y28.7625
X53.5125 Y31.3500
X53.2875 Y35.2875
X51.8250 Y40.3500
X50.4750 Y43.0500
X48.4500 Y45.8625
X43.9500 Y49.9125
X38.8875 Y52.3875
X35.9625 Y53.1750
X32.8125 Y53.5125
X28.6500 Y53.2875
X23.5875 Y51.8250
X19.0875 Y49.2375
X16.0500 Y46.4250
X12.7875 Y41.7000
X11.1000 Y37.2000
X10.5375 Y33.6000
X10.7625 Y28.5375
X12.3375 Y23.2500
X15.4875 Y18.1875
X19.3125 Y14.5875
X22.6875 Y12.5625
X25.6125 Y11.4375
X30.2250 Y10.5375
X33.8250
X37.6500 Y11.2125
X40.5750 Y12.2250
X43.3875 Y13.6875
X48.1125 Y17.7375
X50.0250 Y20.2125
Z0.5000
X41.0250 Y24.6000
Z-15.2490
Z-16.1990 F600
X39.9000 Y23.1375 F1200
X38.5500 Y23.0250
X37.7625 Y23.3625
X37.0875 Y24.2625
X36.9750 Y25.3875
X37.7625 Y26.6250
X39.0000 Y27.0750
X40.6875 Y26.1750
X41.0250 Y24.6000
Z0.5000
X33.2625 Y31.1250
Z-15.2490
Z-16.1990 F600
X32.5875 Y30.5625 F1200
X31.8000 Y30.4500
X30.5625 Y31.4625
Y32.5875
X31.5750 Y33.4875
X32.7000 Y33.3750
X33.3750 Y32.7000
X33.2625 Y31.1250
Z0.5000
X37.4250 Y37.6500
Z-15.2490
Z-16.1990 F600
X36.9750 Y38.6625 F1200
X37.0875 Y39.7875
X37.9875 Y40.8000
X38.7750 Y41.0250
X40.5750 Y40.3500
X41.0250 Y39.3375
X40.9125 Y38.2125
X40.0125 Y37.2000
X39.2250 Y36.9750
X37.4250 Y37.6500
Z0.5000
X26.9625 Y38.3250
Z-15.2490
Z-16.1990 F600
X26.1750 Y37.3125 F1200
X25.2750 Y36.9750
X24.2625 Y37.0875
X23.3625 Y37.7625
X22.9125 Y39.0000
X23.1375 Y39.9000
X24.7125 Y41.0250
X25.7250 Y40.9125
X26.7375 Y40.1250
X26.9625 Y38.3250
Z0.5000
X25.6125 Y26.9625
Z-15.2490
Z-16.1990 F600
X26.4000 Y26.5125 F1200
X26.9625 Y25.6125
Y24.3750
X25.5000 Y23.0250
X24.1500 Y23.1375
X23.3625 Y23.8125
X23.0250 Y25.6125
X24.3750 Y26.9625
X25.6125
Z-16.6490 F600
X26.4000 Y26.5125 F1200
X26.9625 Y25.6125
Y24.3750
X25.5000 Y23.0250
X24.1500 Y23.1375
X23.3625 Y23.8125
X23.0250 Y25.6125
X24.3750 Y26.9625
X25.6125
Z0.5000
X30.5625 Y31.4625
Z-15.6990
Z-16.6490 F600
Y32.5875 F1200
X31.5750 Y33.4875
X32.7000 Y33.3750
X33.3750 Y32.7000
X33.2625 Y31.1250
X32.5875 Y30.5625
X31.8000 Y30.4500
X30.5625 Y31.4625
Z0.5000
X26.1750 Y37.3125
Z-15.6990
Z-16.6490 F600
X25.2750 Y36.9750 F1200
X24.2625 Y37.0875
X23.3625 Y37.7625
X22.9125 Y39.0000
X23.1375 Y39.9000
X24.7125 Y41.0250
X25.7250 Y40.9125
X26.7375 Y40.1250
X26.9625 Y38.3250
X26.1750 Y37.3125
Z0.5000
X36.9750 Y38.6625
Z-15.6990
Z-16.6490 F600
X37.0875 Y39.7875 F1200
X37.9875 Y40.8000
X38.7750 Y41.0250
X40.5750 Y40.3500
X41.0250 Y39.3375
X40.9125 Y38.2125
X40.0125 Y37.2000
X39.2250 Y36.9750
X37.4250 Y37.6500
X36.9750 Y38.6625
Z0.5000
X39.0000 Y27.0750
Z-15.6990
Z-16.6490 F600
X40.6875 Y26.1750 F1200
X41.0250 Y24.6000
X39.9000 Y23.1375
X38.5500 Y23.0250
X37.7625 Y23.3625
X37.0875 Y24.2625
X36.9750 Y25.3875
X37.7625 Y26.6250
X39.0000 Y27.0750
Z0.5000
X50.0250 Y20.2125
Z-15.6990
Z-16.6490 F600
X51.6000 Y23.1375 F1200
X53.2875 Y28.7625
X53.5125 Y31.3500
X53.2875 Y35.2875
X51.8250 Y40.3500
X50.4750 Y43.0500
X48.4500 Y45.8625
X43.9500 Y49.9125
X38.8875 Y52.3875
X35.9625 Y53.1750
X32.8125 Y53.5125
X28.6500 Y53.2875
X23.5875 Y51.8250
X19.0875 Y49.2375
X16.0500 Y46.4250
X12.7875 Y41.7000
X11.1000 Y37.2000
X10.5375 Y33.6000
X10.7625 Y28.5375
X12.3375 Y23.2500
X15.4875 Y18.1875
X19.3125 Y14.5875
X22.6875 Y12.5625
X25.6125 Y11.4375
X30.2250 Y10.5375
X33.8250
X37.6500 Y11.2125
X40.5750 Y12.2250
X43.3875 Y13.6875
X48.1125 Y17.7375
X50.0250 Y20.2125
Z-17.0990 F600
X51.6000 Y23.1375 F1200
X53.2875 Y28.7625
X53.5125 Y31.3500
X53.2875 Y35.2875
X51.8250 Y40.3500
X50.4750 Y43.0500
X48.4500 Y45.8625
X43.9500 Y49.9125
X38.8875 Y52.3875
X35.9625 Y53.1750
X32.8125 Y53.5125
X28.6500 Y53.2875
X23.5875 Y51.8250
X19.0875 Y49.2375
X16.0500 Y46.4250
X12.7875 Y41.7000
X11.1000 Y37.2000
X10.5375 Y33.6000
X10.7625 Y28.5375
X12.3375 Y23.2500
X15.4875 Y18.1875
X19.3125 Y14.5875
X22.6875 Y12.5625
X25.6125 Y11.4375
X30.2250 Y10.5375
X33.8250
X37.6500 Y11.2125
X40.5750 Y12.2250
X43.3875 Y13.6875
X48.1125 Y17.7375
X50.0250 Y20.2125
Z0.5000
X41.0250 Y24.6000
Z-16.1490
Z-17.0990 F600
X39.9000 Y23.1375 F1200
X38.5500 Y23.0250
X37.7625 Y23.3625
X37.0875 Y24.2625
X36.9750 Y25.3875
X37.7625 Y26.6250
X39.0000 Y27.0750
X40.6875 Y26.1750
X41.0250 Y24.6000
Z0.5000
X33.2625 Y31.1250
Z-16.1490
Z-17.0990 F600
X32.5875 Y30.5625 F1200
X31.8000 Y30.4500
X30.5625 Y31.4625
Y32.5875
X31.5750 Y33.4875
X32.7000 Y33.3750
X33.3750 Y32.7000
X33.2625 Y31.1250
Z0.5000
X37.4250 Y37.6500
Z-16.1490
Z-17.0990 F600
X36.9750 Y38.6625 F1200
X37.0875 Y39.7875
X37.9875 Y40.8000
X38.7750 Y41.0250
X40.5750 Y40.3500
X41.0250 Y39.3375
X40.9125 Y38.2125
X40.0125 Y37.2000
X39.2250 Y36.9750
X37.4250 Y37.6500
Z0.5000
X26.9625 Y38.3250
Z-16.1490
Z-17.0990 F600
X26.1750 Y37.3125 F1200
X25.2750 Y36.9750
X24.2625 Y37.0875
X23.3625 Y37.7625
X22.9125 Y39.0000
X23.1375 Y39.9000
X24.7125 Y41.0250
X25.7250 Y40.9125
X26.7375 Y40.1250
X26.9625 Y38.3250
Z0.5000
X25.6125 Y26.9625
Z-16.1490
Z-17.0990 F600
X26.4000 Y26.5125 F1200
X26.9625 Y25.6125
Y24.3750
X25.5000 Y23.0250
X24.1500 Y23.1375
X23.3625 Y23.8125
X23.0250 Y25.6125
X24.3750 Y26.9625
X25.6125
Z-17.5490 F600
X26.4000 Y26.5125 F1200
X26.9625 Y25.6125
Y24.3750
X25.5000 Y23.0250
X24.1500 Y23.1375
X23.3625 Y23.8125
X23.0250 Y25.6125
X24.3750 Y26.9625
X25.6125
Z0.5000
X30.5625 Y31.4625
Z-16.5990
Z-17.5490 F600
Y32.5875 F1200
X31.5750 Y33.4875
X32.7000 Y33.3750
X33.3750 Y32.7000
X33.2625 Y31.1250
X32.5875 Y30.5625
X31.8000 Y30.4500
X30.5625 Y31.4625
Z0.5000
X26.1750 Y37.3125
Z-16.5990
Z-17.5490 F600
X25.2750 Y36.9750 F1200
X24.2625 Y37.0875
X23.3625 Y37.7625
X22.9125 Y39.0000
X23.1375 Y39.9000
X24.7125 Y41.0250
X25.7250 Y40.9125
X26.7375 Y40.1250
X26.9625 Y38.3250
X26.1750 Y37.3125
Z0.5000
X36.9750 Y38.6625
Z-16.5990
Z-17.5490 F600
X37.0875 Y39.7875 F1200
X37.9875 Y40.8000
X38.7750 Y41.0250
X40.5750 Y40.3500
X41.0250 Y39.3375
X40.9125 Y38.2125
X40.0125 Y37.2000
X39.2250 Y36.9750
X37.4250 Y37.6500
X36.9750 Y38.6625
Z0.5000
X39.0000 Y27.0750
Z-16.5990
Z-17.5490 F600
X40.6875 Y26.1750 F1200
X41.0250 Y24.6000
X39.9000 Y23.1375
X38.5500 Y23.0250
X37.7625 Y23.3625
X37.0875 Y24.2625
X36.9750 Y25.3875
X37.7625 Y26.6250
X39.0000 Y27.0750
Z0.5000
X50.0250 Y20.2125
Z-16.5990
Z-17.5490 F600
X51.6000 Y23.1375 F1200
X53.2875 Y28.7625
X53.5125 Y31.3500
X53.2875 Y35.2875
X51.8250 Y40.3500
X50.4750 Y43.0500
X48.4500 Y45.8625
X43.9500 Y49.9125
X38.8875 Y52.3875
X35.9625 Y53.1750
X32.8125 Y53.5125
X28.6500 Y53.2875
X23.5875 Y51.8250
X19.0875 Y49.2375
X16.0500 Y46.4250
X12.7875 Y41.7000
X11.1000 Y37.2000
X10.5375 Y33.6000
X10.7625 Y28.5375
X12.3375 Y23.2500
X15.4875 Y18.1875
X19.3125 Y14.5875
X22.6875 Y12.5625
X25.6125 Y11.4375
X30.2250 Y10.5375
X33.8250
X37.6500 Y11.2125
X40.5750 Y12.2250
X43.3875 Y13.6875
X48.1125 Y17.7375
X50.0250 Y20.2125
Z-17.9990 F600
X51.6000 Y23.1375 F1200
X53.2875 Y28.7625
X53.5125 Y31.3500
X53.2875 Y35.2875
X51.8250 Y40.3500
X50.4750 Y43.0500
X48.4500 Y45.8625
X43.9500 Y49.9125
X38.8875 Y52.3875
X35.9625 Y53.1750
X32.8125 Y53.5125
X28.6500 Y53.2875
X23.5875 Y51.8250
X19.0875 Y49.2375
X16.0500 Y46.4250
X12.7875 Y41.7000
X11.1000 Y37.2000
X10.5375 Y33.6000
X10.7625 Y28.5375
X12.3375 Y23.2500
X15.4875 Y18.1875
X19.3125 Y14.5875
X22.6875 Y12.5625
X25.6125 Y11.4375
X30.2250 Y10.5375
X33.8250
X37.6500 Y11.2125
X40.5750 Y12.2250
X43.3875 Y13.6875
X48.1125 Y17.7375
X50.0250 Y20.2125
Z0.5000
X41.0250 Y24.6000
Z-17.0490
Z-17.9990 F600
X39.9000 Y23.1375 F1200
X38.5500 Y23.0250
X37.7625 Y23.3625
X37.0875 Y24.2625
X36.9750 Y25.3875
X37.7625 Y26.6250
X39.0000 Y27.0750
X40.6875 Y26.1750
X41.0250 Y24.6000
Z0.5000
X33.2625 Y31.1250
Z-17.0490
Z-17.9990 F600
X32.5875 Y30.5625 F1200
X31.8000 Y30.4500
X30.5625 Y31.4625
Y32.5875
X31.5750 Y33.4875
X32.7000 Y33.3750
X33.3750 Y32.7000
X33.2625 Y31.1250
Z0.5000
X37.4250 Y37.6500
Z-17.0490
Z-17.9990 F600
X36.9750 Y38.6625 F1200
X37.0875 Y39.7875
X37.9875 Y40.8000
X38.7750 Y41.0250
X40.5750 Y40.3500
X41.0250 Y39.3375
X40.9125 Y38.2125
X40.0125 Y37.2000
X39.2250 Y36.9750
X37.4250 Y37.6500
Z0.5000
X26.9625 Y38.3250
Z-17.0490
Z-17.9990 F600
X26.1750 Y37.3125 F1200
X25.2750 Y36.9750
X24.2625 Y37.0875
X23.3625 Y37.7625
X22.9125 Y39.0000
X23.1375 Y39.9000
X24.7125 Y41.0250
X25.7250 Y40.9125
X26.7375 Y40.1250
X26.9625 Y38.3250
Z0.5000
X25.6125 Y26.9625
Z-17.0490
Z-17.9990 F600
X26.4000 Y26.5125 F1200
X26.9625 Y25.6125
Y24.3750
X25.5000 Y23.0250
X24.1500 Y23.1375
X23.3625 Y23.8125
X23.0250 Y25.6125
X24.3750 Y26.9625
X25.6125
Z-18.4490 F600
X26.4000 Y26.5125 F1200
X26.9625 Y25.6125
Y24.3750
X25.5000 Y23.0250
X24.1500 Y23.1375
X23.3625 Y23.8125
X23.0250 Y25.6125
X24.3750 Y26.9625
X25.6125
Z0.5000
X30.5625 Y31.4625
Z-17.4990
Z-18.4490 F600
Y32.5875 F1200
X31.5750 Y33.4875
X32.7000 Y33.3750
X33.3750 Y32.7000
X33.2625 Y31.1250
X32.5875 Y30.5625
X31.8000 Y30.4500
X30.5625 Y31.4625
Z0.5000
X26.1750 Y37.3125
Z-17.4990
Z-18.4490 F600
X25.2750 Y36.9750 F1200
X24.2625 Y37.0875
X23.3625 Y37.7625
X22.9125 Y39.0000
X23.1375 Y39.9000
X24.7125 Y41.0250
X25.7250 Y40.9125
X26.7375 Y40.1250
X26.9625 Y38.3250
X26.1750 Y37.3125
Z0.5000
X36.9750 Y38.6625
Z-17.4990
Z-18.4490 F600
X37.0875 Y39.7875 F1200
X37.9875 Y40.8000
X38.7750 Y41.0250
X40.5750 Y40.3500
X41.0250 Y39.3375
X40.9125 Y38.2125
X40.0125 Y37.2000
X39.2250 Y36.9750
X37.4250 Y37.6500
X36.9750 Y38.6625
Z0.5000
X39.0000 Y27.0750
Z-17.4990
Z-18.4490 F600
X40.6875 Y26.1750 F1200
X41.0250 Y24.6000
X39.9000 Y23.1375
X38.5500 Y23.0250
X37.7625 Y23.3625
X37.0875 Y24.2625
X36.9750 Y25.3875
X37.7625 Y26.6250
X39.0000 Y27.0750
Z0.5000
X50.0250 Y20.2125
Z-17.4990
Z-18.4490 F600
X51.6000 Y23.1375 F1200
X53.2875 Y28.7625
X53.5125 Y31.3500
X53.2875 Y35.2875
X51.8250 Y40.3500
X50.4750 Y43.0500
X48.4500 Y45.8625
X43.9500 Y49.9125
X38.8875 Y52.3875
X35.9625 Y53.1750
X32.8125 Y53.5125
X28.6500 Y53.2875
X23.5875 Y51.8250
X19.0875 Y49.2375
X16.0500 Y46.4250
X12.7875 Y41.7000
X11.1000 Y37.2000
X10.5375 Y33.6000
X10.7625 Y28.5375
X12.3375 Y23.2500
X15.4875 Y18.1875
X19.3125 Y14.5875
X22.6875 Y12.5625
X25.6125 Y11.4375
X30.2250 Y10.5375
X33.8250
X37.6500 Y11.2125
X40.5750 Y12.2250
X43.3875 Y13.6875
X48.1125 Y17.7375
X50.0250 Y20.2125
Z-18.8990 F600
X51.6000 Y23.1375 F1200
X53.2875 Y28.7625
X53.5125 Y31.3500
X53.2875 Y35.2875
X51.8250 Y40.3500
X50.4750 Y43.0500
X48.4500 Y45.8625
X43.9500 Y49.9125
X38.8875 Y52.3875
X35.9625 Y53.1750
X32.8125 Y53.5125
X28.6500 Y53.2875
X23.5875 Y51.8250
X19.0875 Y49.2375
X16.0500 Y46.4250
X12.7875 Y41.7000
X11.1000 Y37.2000
X10.5375 Y33.6000
X10.7625 Y28.5375
X12.3375 Y23.2500
X15.4875 Y18.1875
X19.3125 Y14.5875
X22.6875 Y12.5625
X25.6125 Y11.4375
X30.2250 Y10.5375
X33.8250
X37.6500 Y11.2125
X40.5750 Y12.2250
X43.3875 Y13.6875
X48.1125 Y17.7375
X50.0250 Y20.2125
Z0.5000
X41.0250 Y24.6000
Z-17.9490
Z-18.8990 F600
X39.9000 Y23.1375 F1200
X38.5500 Y23.0250
X37.7625 Y23.3625
X37.0875 Y24.2625
X36.9750 Y25.3875
X37.7625 Y26.6250
X39.0000 Y27.0750
X40.6875 Y26.1750
X41.0250 Y24.6000
Z0.5000
X33.2625 Y31.1250
Z-17.9490
Z-18.8990 F600
X32.5875 Y30.5625 F1200
X31.8000 Y30.4500
X30.5625 Y31.4625
Y32.5875
X31.5750 Y33.4875
X32.7000 Y33.3750
X33.3750 Y32.7000
X33.2625 Y31.1250
Z0.5000
X37.4250 Y37.6500
Z-17.9490
Z-18.8990 F600
X36.9750 Y38.6625 F1200
X37.0875 Y39.7875
X37.9875 Y40.8000
X38.7750 Y41.0250
X40.5750 Y40.3500
X41.0250 Y39.3375
X40.9125 Y38.2125
X40.0125 Y37.2000
X39.2250 Y36.9750
X37.4250 Y37.6500
Z0.5000
X26.9625 Y38.3250
Z-17.9490
Z-18.8990 F600
X26.1750 Y37.3125 F1200
X25.2750 Y36.9750
X24.2625 Y37.0875
X23.3625 Y37.7625
X22.9125 Y39.0000
X23.1375 Y39.9000
X24.7125 Y41.0250
X25.7250 Y40.9125
X26.7375 Y40.1250
X26.9625 Y38.3250
Z0.5000
X25.6125 Y26.9625
Z-17.9490
Z-18.8990 F600
X26.4000 Y26.5125 F1200
X26.9625 Y25.6125
Y24.3750
X25.5000 Y23.0250
X24.1500 Y23.1375
X23.3625 Y23.8125
X23.0250 Y25.6125
X24.3750 Y26.9625
X25.6125
Z-19.3490 F600
X26.4000 Y26.5125 F1200
X26.9625 Y25.6125
Y24.3750
X25.5000 Y23.0250
X24.1500 Y23.1375
X23.3625 Y23.8125
X23.0250 Y25.6125
X24.3750 Y26.9625
X25.6125
Z0.5000
X30.5625 Y31.4625
Z-18.3990
Z-19.3490 F600
Y32.5875 F1200
X31.5750 Y33.4875
X32.7000 Y33.3750
X33.3750 Y32.7000
X33.2625 Y31.1250
X32.5875 Y30.5625
X31.8000 Y30.4500
X30.5625 Y31.4625
Z0.5000
X26.1750 Y37.3125
Z-18.3990
Z-19.3490 F600
X25.2750 Y36.9750 F1200
X24.2625 Y37.0875
X23.3625 Y37.7625
X22.9125 Y39.0000
X23.1375 Y39.9000
X24.7125 Y41.0250
X25.7250 Y40.9125
X26.7375 Y40.1250
X26.9625 Y38.3250
X26.1750 Y37.3125
Z0.5000
X36.9750 Y38.6625
Z-18.3990
Z-19.3490 F600
X37.0875 Y39.7875 F1200
X37.9875 Y40.8000
X38.7750 Y41.0250
X40.5750 Y40.3500
X41.0250 Y39.3375
X40.9125 Y38.2125
X40.0125 Y37.2000
X39.2250 Y36.9750
X37.4250 Y37.6500
X36.9750 Y38.6625
Z0.5000
X39.0000 Y27.0750
Z-18.3990
Z-19.3490 F600
X40.6875 Y26.1750 F1200
X41.0250 Y24.6000
X39.9000 Y23.1375
X38.5500 Y23.0250
X37.7625 Y23.3625
X37.0875 Y24.2625
X36.9750 Y25.3875
X37.7625 Y26.6250
X39.0000 Y27.0750
Z0.5000
X50.0250 Y20.2125
Z-18.3990
Z-19.3490 F600
X51.6000 Y23.1375 F1200
X53.2875 Y28.7625
X53.5125 Y31.3500
X53.2875 Y35.2875
X51.8250 Y40.3500
X50.4750 Y43.0500
X48.4500 Y45.8625
X43.9500 Y49.9125
X38.8875 Y52.3875
X35.9625 Y53.1750
X32.8125 Y53.5125
X28.6500 Y53.2875
X23.5875 Y51.8250
X19.0875 Y49.2375
X16.0500 Y46.4250
X12.7875 Y41.7000
X11.1000 Y37.2000
X10.5375 Y33.6000
X10.7625 Y28.5375
X12.3375 Y23.2500
X15.4875 Y18.1875
X19.3125 Y14.5875
X22.6875 Y12.5625
X25.6125 Y11.4375
X30.2250 Y10.5375
X33.8250
X37.6500 Y11.2125
X40.5750 Y12.2250
X43.3875 Y13.6875
X48.1125 Y17.7375
X50.0250 Y20.2125
Z-19.7990 F600
X51.6000 Y23.1375 F1200
X53.2875 Y28.7625
X53.5125 Y31.3500
X53.2875 Y35.2875
X51.8250 Y40.3500
X50.4750 Y43.0500
X48.4500 Y45.8625
X43.9500 Y49.9125
X38.8875 Y52.3875
X35.9625 Y53.1750
X32.8125 Y53.5125
X28.6500 Y53.2875
X23.5875 Y51.8250
X19.0875 Y49.2375
X16.0500 Y46.4250
X12.7875 Y41.7000
X11.1000 Y37.2000
X10.5375 Y33.6000
X10.7625 Y28.5375
X12.3375 Y23.2500
X15.4875 Y18.1875
X19.3125 Y14.5875
X22.6875 Y12.5625
X25.6125 Y11.4375
X30.2250 Y10.5375
X33.8250
X37.6500 Y11.2125
X40.5750 Y12.2250
X43.3875 Y13.6875
X48.1125 Y17.7375
X50.0250 Y20.2125
Z0.5000
X41.0250 Y24.6000
Z-18.8490
Z-19.7990 F600
X39.9000 Y23.1375 F1200
X38.5500 Y23.0250
X37.7625 Y23.3625
X37.0875 Y24.2625
X36.9750 Y25.3875
X37.7625 Y26.6250
