E_HEAD(3678207,0,0,0,300,300,-40,71,17,1,20,0,1,20,,1,7,6,100,1,,1);*RO*
;*************************************
;Projekt motor
;Erstellt mit Estlcam Version 11 Build 11,244
;Laufzeit ca. 00:22:12 Stunden
;*************************************

T="Fräser 3mm" 
L6
S24000 F1200 M3


G00 Z5.0000
;*************************************
;Nr. 1 Linear schruppen X: 
;*************************************
X28.6000 Y8.8000
G01 Z-1.0000 F1200 S24000
X89.6000
Z0.5000
X93.4000 Y11.2000
Z-1.0000
X27.0000
X26.6000 Y13.6000
X93.8000
Y16.0000
X24.6000
X24.0000 Y18.4000
X94.0000
X95.4000 Y20.8000
X53.8000
X51.6000 Z-0.3498
X31.6000
X29.2000 Z-1.0000
X12.0000
Z0.5000
X8.2000 Y23.2000
Z-1.0000
X29.0000
X29.2000 Z-0.2125
X29.0000 Y25.6000
Z-1.0000
X7.8000
Y28.0000
X29.0000
Y30.4000
X7.8000
X8.6000 Y32.8000
X29.0000
X29.2000 Z-0.2301
Z0.2699
X23.0000 Y35.2000
Z-1.0000
X29.2000
X31.2000 Z-0.3650
X51.8000 Z-0.3651
X53.8000 Z-1.0000
X95.4000
X96.2000 Y32.8000
X54.0000 Z-0.7675
X53.6000 Z-0.0054
X54.0000 Y30.4000
Z-0.5074
X90.4000 Z-0.5119
X97.8000 Z-1.0000
Y28.0000
X91.8000
X91.6000 Z-0.5004
X54.0000 Z-0.5000
Y25.6000
Z-0.5074
X90.4000 Z-0.5119
X97.8000 Z-1.0000
X96.2000 Y23.2000
X54.0000 Z-0.7676
X53.6000 Z-0.0013
G00 Z5.0000
X24.0000 Y37.6000
G01 Z-1.0000
X94.0000
X93.8000 Y40.0000
X24.6000
X26.6000 Y42.4000
X93.8000
X93.4000 Y44.8000
X27.0000
X28.6000 Y47.2000
X89.6000
G00 Z5.0000
Y8.8000
G01 Z-2.0000
X28.6000
X27.0000 Y11.2000
X93.4000
X93.8000 Y13.6000
X26.6000
X24.6000 Y16.0000
X93.8000
X94.0000 Y18.4000
X53.6000
X51.8000 Z-1.3861
X31.2000 Z-1.4238
X29.4000 Z-2.0000
X24.0000
Z-0.6734
X29.2000 Y20.8000
Z-1.1734
X28.8000 Z-2.0000
X12.0000
Z0.5000
X8.2000 Y23.2000
Z-2.0000
X29.0000
Y25.6000
X7.8000
Y28.0000
X29.0000
Y30.4000
X7.8000
X8.6000 Y32.8000
X29.0000
Z-1.2246
X29.2000 Y35.2000
X28.8000 Z-2.0000
X23.0000
X24.0000 Y37.6000
X29.4000
X31.2000 Z-1.4160
X51.8000 Z-1.3861
X53.6000 Z-2.0000
X94.0000
X95.4000 Y35.2000
X89.6000 Z-1.4272
X53.8000 Z-1.2167
G00 Z5.0000
X24.6000 Y40.0000
G01 Z-2.0000
X93.8000
Y42.4000
X26.6000
X27.0000 Y44.8000
X93.4000
X89.6000 Y47.2000
X28.6000
G00 Z5.0000
X53.8000 Y20.8000
G01 Z-1.1732
X89.6000 Z-1.4011
X95.4000 Z-2.0000
X96.2000 Y23.2000
X91.8000
X91.4000 Z-1.0209
X91.8000 Y25.6000
Z-2.0000
X97.8000
Y28.0000
X91.8000
Y30.4000
X97.8000
X96.2000 Y32.8000
X91.8000
X91.4000 Z-1.0632
G00 Z5.0000
X89.6000 Y8.8000
G01 Z-3.0000
X28.6000
X27.0000 Y11.2000
X93.4000
X93.8000 Y13.6000
X26.6000
X24.6000 Y16.0000
X93.8000
X94.0000 Y18.4000
X89.6000 Z-2.5228
X55.0000 Z-2.6102
X53.6000 Z-2.1139
Z1.0000
Y37.6000
Z-2.1138
X53.8000 Z-2.6100
X94.0000 Z-3.0000
X95.4000 Y35.2000
X91.8000
X91.6000 Z-2.3372
X91.8000 Y32.8000
Z-3.0000
X96.2000
X97.8000 Y30.4000
X91.8000
Y28.0000
X97.8000
Y25.6000
X91.8000
Y23.2000
X96.2000
X95.4000 Y20.8000
X91.8000
X91.6000 Z-2.3532
Z-1.8532
X93.8000 Y40.0000
Z-3.0000
X24.6000
X24.0000 Y37.6000
X28.8000
X29.4000 Z-2.1048
X28.8000 Y35.2000
Z-3.0000
X23.0000
Z-2.5000
X29.0000 Y32.8000
Z-3.0000
X8.6000
X7.8000 Y30.4000
X29.0000
Y28.0000
X7.8000
Y25.6000
X29.0000
Y23.2000
X8.2000
X12.0000 Y20.8000
X28.8000
Z-2.1049
X29.4000 Y18.4000
X28.8000 Z-3.0000
X24.0000
G00 Z5.0000
X26.6000 Y42.4000
G01 Z-3.0000
X93.8000
X93.4000 Y44.8000
X27.0000
X28.6000 Y47.2000
X89.6000
G00 Z5.0000
Y8.8000
G01 Z-4.0000
X28.6000
X27.0000 Y11.2000
X93.4000
X93.8000 Y13.6000
X26.6000
X24.6000 Y16.0000
X29.4000
X31.0000 Z-3.0514
X28.8000 Y18.4000
Z-4.0000
X24.0000
Z-3.5000
X28.8000 Y20.8000
Z-4.0000
X12.0000
Z0.5000
X8.2000 Y23.2000
Z-4.0000
X29.0000
Y25.6000
X7.8000
Y28.0000
X29.0000
Y30.4000
X7.8000
X8.6000 Y32.8000
X29.0000
X28.8000 Y35.2000
X23.0000
X24.0000 Y37.6000
X28.8000
Z-3.1496
X31.0000 Y40.0000
X29.4000 Z-4.0000
X24.6000
X26.6000 Y42.4000
X93.8000
Y40.0000
X53.8000
X52.0000 Z-3.0955
G00 Z5.0000
X27.0000 Y44.8000
G01 Z-4.0000
X93.4000
X89.6000 Y47.2000
X28.6000
G00 Z5.0000
X52.0000 Y16.0000
G01 Z-3.0852
X53.8000 Z-4.0000
X93.8000
X94.0000 Y18.4000
X91.8000
X91.2000 Z-3.0288
X91.8000 Y20.8000
Z-4.0000
X95.4000
X96.2000 Y23.2000
X91.8000
X95.6000 Y25.6000
X97.8000
Y28.0000
X95.8000
X95.6000 Y30.4000
X97.8000
X96.2000 Y32.8000
X91.8000
Y35.2000
X95.4000
X94.0000 Y37.6000
X91.8000
X91.2000 Z-3.0288
G00 Z5.0000
X89.6000 Y8.8000
G01 Z-5.0000
X28.6000
X27.0000 Y11.2000
X93.4000
X93.8000 Y13.6000
X26.6000
X24.6000 Y16.0000
X28.8000
X29.4000 Z-4.1346
X28.8000 Y18.4000
Z-4.7167
X24.0000 Z-5.0000
Z-4.5000
X28.8000 Y20.8000
Z-5.0000
X12.0000
Z0.5000
X8.2000 Y23.2000
Z-5.0000
X29.0000
Y25.6000
X7.8000
Y28.0000
X29.0000
Y30.4000
X7.8000
X8.6000 Y32.8000
X29.0000
X28.8000 Y35.2000
X23.0000
X24.0000 Y37.6000
X28.6000
X28.8000 Z-4.3037
Z-4.0699
X29.4000 Y40.0000
X29.2000 Z-4.9926
X24.6000 Z-5.0000
X26.6000 Y42.4000
X93.8000
Y40.0000
X91.2000
X89.6000 Z-4.2872
X53.8000 Z-4.3793
G00 Z5.0000
X27.0000 Y44.8000
G01 Z-5.0000
X93.4000
X89.6000 Y47.2000
X28.6000
G00 Z5.0000
X53.8000 Y16.0000
G01 Z-4.1286
X89.6000 Z-4.2532
X91.2000 Z-5.0000
X93.8000
X94.0000 Y18.4000
X91.8000
Y20.8000
X95.4000
X96.2000 Y23.2000
X91.8000
X95.6000 Y25.6000
X97.8000
Y28.0000
X95.8000
X95.6000 Y30.4000
X97.8000
X96.2000 Y32.8000
X91.8000
Y35.2000
X95.4000
X94.0000 Y37.6000
X91.8000
G00 Z5.0000
X89.6000 Y8.8000
G01 Z-6.0000
X28.6000
X27.0000 Y11.2000
X93.4000
X93.8000 Y13.6000
X53.2000
X51.6000 Z-5.1778
X31.8000
X29.8000 Z-6.0000
X26.6000
X24.6000 Y16.0000
X28.8000
X28.6000 Y18.4000
X24.0000
Z-5.5000
X28.8000 Y20.8000
Z-6.0000
X12.0000
Z0.5000
X8.2000 Y23.2000
Z-6.0000
X29.0000
Y25.6000
X7.8000
Y28.0000
X29.0000
Y30.4000
X7.8000
X8.6000 Y32.8000
X29.0000
X28.8000 Y35.2000
X23.0000
X24.0000 Y37.6000
X28.6000 Z-5.8362
X28.8000 Y40.0000
Z-6.0000
X24.6000
X26.6000 Y42.4000
X29.8000
X31.6000 Z-5.2918
X51.8000
X53.2000 Z-6.0000
X93.8000
Y40.0000
X91.6000
X91.2000 Z-5.0865
X91.8000 Y37.6000
Z-6.0000
X94.0000
X95.4000 Y35.2000
X91.8000
Y32.8000
X96.2000
X95.6000 Y30.4000
X97.8000
Y28.0000
X95.8000
X95.6000 Y25.6000
X97.8000
X96.2000 Y23.2000
X91.8000
Y20.8000
X95.4000
X94.0000 Y18.4000
X91.8000
Z-5.1045
X91.2000 Y16.0000
X91.6000 Z-6.0000
X93.8000
G00 Z5.0000
X93.4000 Y44.8000
G01 Z-6.0000
X27.0000
X28.6000 Y47.2000
X89.6000
G00 Z5.0000
Y8.8000
G01 Z-7.0000
X28.6000
X27.0000 Y11.2000
X93.4000
X93.8000 Y13.6000
X55.0000
X53.6000 Z-6.9391
X53.2000 Z-6.1215
G00 Z5.0000
X29.8000
G01 Z-6.1428
X29.4000 Z-7.0000
X26.6000
X24.6000 Y16.0000
X28.8000
Z-6.7886
X28.6000 Y18.4000
X24.0000 Z-7.0000
Z-6.4259
X28.8000 Y20.8000
Z-6.9259
X12.0000 Z-7.0000
Z0.5000
X8.2000 Y23.2000
Z-7.0000
X26.0000
X26.4000 Z-6.5000
X29.0000
Y25.6000
X26.2000
X26.0000 Z-7.0000
X7.8000
Y28.0000
X26.0000
X26.2000 Z-6.5000
X29.0000
Y30.4000
X26.2000
X26.0000 Z-7.0000
X7.8000
X8.6000 Y32.8000
X25.8000
X26.4000 Z-6.5000
X29.0000
X28.8000 Y35.2000
Z-6.9259
X23.0000 Z-7.0000
X24.0000 Y37.6000
X28.4000
X28.8000 Y40.0000
X24.6000
X26.6000 Y42.4000
X29.4000
X29.8000 Z-6.1426
X27.0000 Y44.8000
Z-7.0000
X93.4000
X93.8000 Y42.4000
X53.8000
X53.2000 Z-6.1217
G00 Z5.0000
X28.6000 Y47.2000
G01 Z-7.0000
X89.6000
Z-5.9466
X91.6000 Y40.0000
Z-6.4466
X91.8000 Z-7.0000
X93.8000
X94.0000 Y37.6000
X91.8000
Y35.2000
X95.4000
X96.2000 Y32.8000
X91.8000
X95.6000 Y30.4000
X97.8000
Y28.0000
X95.8000
X95.6000 Y25.6000
X97.8000
X96.2000 Y23.2000
X91.8000
Y20.8000
X95.4000
X94.0000 Y18.4000
X91.8000
Z-6.4468
X91.6000 Y16.0000
X91.8000 Z-7.0000
X93.8000
Z-6.5000
X89.6000 Y8.8000
Z-8.0000
X28.6000
X27.0000 Y11.2000
X93.4000
X93.8000 Y13.6000
X91.2000
X89.6000 Z-6.9244
X55.0000 Z-7.0737
G00 Z5.0000
X29.4000
G01 Z-7.1224
X29.2000 Z-8.0000
X26.6000
X24.6000 Y16.0000
X28.8000 Z-7.8949
X28.4000 Y18.4000
Z-8.0000
X24.0000
Z-7.0058
X28.0000 Y20.8000
X26.2000 Z-8.0000
X12.0000
Z0.5000
X8.2000 Y23.2000
Z-8.0000
X26.0000
Y25.6000
X7.8000
Y28.0000
X26.0000
Y30.4000
X7.8000
X8.6000 Y32.8000
X25.8000
Z-7.0834
X28.0000 Y35.2000
X26.2000 Z-8.0000
X23.0000
X24.0000 Y37.6000
X28.2000
X28.4000 Z-7.3687
Z-7.2842
X28.8000 Y40.0000
X28.6000 Z-8.0000
X24.6000
X26.6000 Y42.4000
X29.2000
X29.4000 Z-7.0688
X27.0000 Y44.8000
Z-8.0000
X93.4000
X93.8000 Y42.4000
X91.2000
X89.6000 Z-6.9242
X53.8000 Z-7.0734
G00 Z5.0000
X28.6000 Y47.2000
G01 Z-8.0000
X89.6000
Z-7.4140
X91.8000 Y40.0000
Z-8.0000
X93.8000
X94.0000 Y37.6000
X91.8000
Y35.2000
X95.4000
X96.2000 Y32.8000
X91.8000
X95.6000 Y30.4000
X97.8000
Y28.0000
X95.8000
X95.6000 Y25.6000
X97.8000
X96.2000 Y23.2000
X91.8000
Y20.8000
X95.4000
X94.0000 Y18.4000
X91.8000
Y16.0000
X93.8000
Z-7.5000
X89.6000 Y8.8000
Z-9.0000
X28.6000
X27.0000 Y11.2000
X93.4000
X93.8000 Y13.6000
X91.4000
X91.2000 Z-8.4280
X91.8000 Y16.0000
Z-9.0000
X93.8000
X94.0000 Y18.4000
X91.8000
Y20.8000
X95.4000
X96.2000 Y23.2000
X91.8000
X95.6000 Y25.6000
X97.8000
Y28.0000
X95.8000
X95.6000 Y30.4000
X97.8000
X96.2000 Y32.8000
X91.8000
Y35.2000
X95.4000
X94.0000 Y37.6000
X91.8000
Y40.0000
X93.8000
Y42.4000
X91.4000
X91.2000 Z-8.3738
X93.4000 Y44.8000
Z-9.0000
X27.0000
X26.6000 Y42.4000
X29.0000
X29.2000 Z-8.4060
X28.6000 Y40.0000
Z-9.0000
X24.6000
X24.0000 Y37.6000
X28.2000 Z-8.9012
Z-8.6016
X26.2000 Y35.2000
X23.0000 Z-9.0000
X25.8000 Y32.8000
X8.6000
X7.8000 Y30.4000
X26.0000
Y28.0000
X7.8000
Y25.6000
X26.0000
Y23.2000
X8.2000
X12.0000 Y20.8000
X26.2000 Z-8.6018
X24.0000 Y18.4000
Z-9.0000
X28.4000 Z-8.8605
X28.6000 Y16.0000
Z-9.0000
X24.6000
X26.6000 Y13.6000
X29.0000
X29.2000 Z-8.3841
G00 Z5.0000
X28.6000 Y47.2000
G01 Z-9.0000
X89.6000
G00 Z5.0000
Y8.8000
G01 Z-10.0000
X28.6000
X27.0000 Y11.2000
X30.2000
X31.4000 Z-9.1554
X51.6000 Z-9.2395
X52.8000 Z-10.0000
X93.4000
X93.8000 Y13.6000
X91.6000
X91.4000 Z-9.0221
X91.8000 Y16.0000
Z-10.0000
X93.8000
X94.0000 Y18.4000
X91.8000
Y20.8000
X95.4000
X96.2000 Y23.2000
X91.8000 Z-9.7287
X95.6000 Y25.6000
Z-10.0000
X97.8000
Y28.0000
X95.8000
X95.6000 Y30.4000
X97.8000
X96.2000 Y32.8000
X91.8000 Z-9.7286
Y35.2000
Z-10.0000
X95.4000
X94.0000 Y37.6000
X91.8000
Y40.0000
X93.8000
Y42.4000
X91.6000
X91.4000 Z-9.2210
X93.4000 Y44.8000
Z-10.0000
X52.8000
X51.8000 Z-9.2645
X31.4000 Z-9.1554
X30.2000 Z-10.0000
X27.0000
X26.6000 Y42.4000
X29.0000
Z-9.5759
X28.6000 Y40.0000
X28.4000 Z-10.0000
X24.6000
X24.0000 Y37.6000
X26.6000
X28.0000 Z-9.2016
X26.0000 Y35.2000
Z-10.0000
X23.0000
X25.8000 Y32.8000
X8.6000
X7.8000 Y30.4000
X26.0000
Y28.0000
X7.8000
Y25.6000
X26.0000
Y23.2000
X8.2000
X12.0000 Y20.8000
X26.0000
X24.0000 Y18.4000
X26.6000
X28.0000 Z-9.1233
X28.6000 Y16.0000
Z-10.0000
X24.6000
X26.6000 Y13.6000
X29.0000
G00 Z5.0000
X28.6000 Y47.2000
G01 Z-10.0000
X89.6000
G00 Z5.0000
Y8.8000
G01 Z-11.0000
X28.6000
Z-10.2597
X30.2000 Y11.2000
X29.6000 Z-11.0000
X27.0000
X26.6000 Y13.6000
X29.0000
Z-10.9536
X28.6000 Y16.0000
X24.6000 Z-11.0000
X24.0000 Y18.4000
X26.2000
X26.6000 Z-10.0015
X26.0000 Y20.8000
Z-11.0000
X12.0000
Z0.5000
X8.2000 Y23.2000
Z-11.0000
X26.0000
Y25.6000
X7.8000
Y28.0000
X26.0000
Y30.4000
X7.8000
X8.6000 Y32.8000
X25.8000
X26.0000 Y35.2000
X23.0000
X24.0000 Y37.6000
X26.2000
X26.6000 Z-10.0013
X28.4000 Y40.0000
Z-11.0000
X24.6000
X26.6000 Y42.4000
X29.0000
Z-10.2597
X30.2000 Y44.8000
X29.6000 Z-11.0000
X27.0000
X28.6000 Y47.2000
X89.6000
Z0.5000
X93.4000 Y44.8000
Z-11.0000
X53.4000
X52.8000 Z-10.2153
G00 Z5.0000
Y11.2000
G01 Z-10.0749
X53.4000 Z-11.0000
X93.4000
X93.8000 Y13.6000
X91.6000
X91.8000 Y16.0000
X93.8000
X94.0000 Y18.4000
X91.8000
Y20.8000
X95.4000
X96.2000 Y23.2000
X93.2000
X92.8000 Z-10.0961
X95.6000 Y25.6000
Z-11.0000
X97.8000
Y28.0000
X95.8000
X95.6000 Y30.4000
X97.8000
X96.2000 Y32.8000
X93.2000
X92.8000 Z-10.0961
X91.8000 Y35.2000
Z-11.0000
X95.4000
X94.0000 Y37.6000
X91.8000
Y40.0000
X93.8000
Y42.4000
X91.6000
G00 Z5.0000
X89.6000 Y8.8000
G01 Z-12.0000
X28.6000
Z-11.6583
X29.6000 Y11.2000
X27.0000 Z-12.0000
X26.6000 Y13.6000
X29.0000
X28.4000 Y16.0000
X24.6000
X24.0000 Y18.4000
X26.2000
X26.0000 Y20.8000
X12.0000
X8.2000 Y23.2000
X26.0000
Y25.6000
X7.8000
Y28.0000
X26.0000
Y30.4000
X7.8000
X8.6000 Y32.8000
X25.8000
X26.0000 Y35.2000
X23.0000
X24.0000 Y37.6000
X26.2000
X24.6000 Y40.0000
X28.4000 Z-11.8676
X29.0000 Y42.4000
Z-12.0000
X26.6000
X27.0000 Y44.8000
X29.6000 Z-11.7155
X28.6000 Y47.2000
Z-12.0000
X89.6000
X93.4000 Y44.8000
X53.4000 Z-11.6483
G00 Z5.0000
Y11.2000
G01 Z-11.6486
X93.4000 Z-12.0000
X93.8000 Y13.6000
X91.8000
X91.6000 Z-11.1451
X91.8000 Y16.0000
Z-12.0000
X93.8000
X94.0000 Y18.4000
X91.8000
Z-11.8734
Y20.8000
X95.4000 Z-12.0000
X96.2000 Y23.2000
X93.4000
X93.2000 Z-11.0574
X95.6000 Y25.6000
Z-12.0000
X97.8000
Y28.0000
X95.8000
X95.6000 Y30.4000
X97.8000
X96.2000 Y32.8000
X93.4000
X93.2000 Z-11.0574
X91.8000 Y35.2000
Z-11.8732
X95.4000 Z-12.0000
X94.0000 Y37.6000
X91.8000
Y40.0000
X93.8000
Y42.4000
X91.8000
X91.6000 Z-11.1449
G00 Z5.0000
X89.6000 Y8.8000
G01 Z-13.0000
X28.6000
X29.4000 Y11.2000
X27.0000
X26.6000 Y13.6000
X29.0000
X28.4000 Y16.0000
X24.6000
X24.0000 Y18.4000
X26.0000
X26.2000 Z-12.4150
X26.0000 Y20.8000
Z-13.0000
X12.0000
X8.2000 Y23.2000
X26.0000
Z-12.5361
Y25.6000
X7.8000 Z-13.0000
Y28.0000
X9.8000
X10.0000 Z-12.5010
X26.0000 Z-12.5000
Y30.4000
Z-12.5360
X7.8000 Z-13.0000
X8.6000 Y32.8000
X25.8000
X26.0000 Y35.2000
X23.0000
X24.0000 Y37.6000
X26.0000
X26.2000 Z-12.4148
X24.6000 Y40.0000
Z-13.0000
X28.2000
X29.0000 Y42.4000
X26.6000
X27.0000 Y44.8000
X29.4000
X28.6000 Y47.2000
X89.6000
X93.4000 Y44.8000
X89.8000
X89.6000 Z-12.5173
X53.6000 Z-12.5368
G00 Z5.0000
Y11.2000
G01 Z-12.3913
X89.0000
X89.8000 Z-13.0000
X93.4000
X93.8000 Y13.6000
X91.8000
Y16.0000
X93.8000
X94.0000 Y18.4000
X91.8000
Z-12.0679
X92.2000 Y20.8000
X93.0000 Z-13.0000
X95.4000
X96.2000 Y23.2000
X93.4000
X95.6000 Y25.6000
X97.8000
Y28.0000
X95.8000
X95.6000 Y30.4000
X97.8000
X96.2000 Y32.8000
X93.4000
Z-12.0677
X92.2000 Y35.2000
X93.0000 Z-13.0000
X95.4000
X94.0000 Y37.6000
X91.8000
Y40.0000
X93.8000
Y42.4000
X91.8000
G00 Z5.0000
X89.6000 Y8.8000
G01 Z-14.0000
X28.6000
Z-13.7354
X29.4000 Y11.2000
X27.0000 Z-14.0000
X26.6000 Y13.6000
X29.0000
X28.4000 Y16.0000
X24.6000
X24.0000 Y18.4000
X26.0000
Y20.8000
X12.0000
X8.2000 Y23.2000
X26.0000
Z-12.0000
X25.8000 Y32.8000
Z-14.0000
X8.6000
X7.8000 Y30.4000
X10.0000 Z-13.6177
X9.8000 Y28.0000
Z-14.0000
X7.8000
Y25.6000
X10.0000 Z-13.5828
Z-12.0000
X23.0000 Y35.2000
Z-14.0000
X26.0000
Y37.6000
X24.0000
X24.6000 Y40.0000
X28.2000
X29.0000 Y42.4000
X26.6000
X27.0000 Y44.8000
X29.4000 Z-13.7351
X28.6000 Y47.2000
Z-14.0000
X89.6000
X89.8000 Y44.8000
X93.4000
X93.8000 Y42.4000
X91.8000
Y40.0000
X93.8000
X94.0000 Y37.6000
X91.8000
Z-13.9679
X93.0000 Y35.2000
X95.4000 Z-14.0000
X96.2000 Y32.8000
X93.4000
X95.6000 Y30.4000
X97.8000
Y28.0000
X95.8000
X95.6000 Y25.6000
X97.8000
X96.2000 Y23.2000
X93.4000
Z-13.9679
X93.0000 Y20.8000
X95.4000 Z-14.0000
X94.0000 Y18.4000
X91.8000
Y16.0000
X93.8000
Y13.6000
X91.8000
X93.4000 Y11.2000
X89.8000 Z-13.8631
X89.6000 Y8.8000
Z-15.0000
X28.6000
X29.2000 Y11.2000
X27.0000
X26.6000 Y13.6000
X29.0000
Z-14.0124
X28.4000 Y16.0000
X28.0000 Z-15.0000
X24.6000
X24.0000 Y18.4000
X26.0000
Y20.8000
X12.0000
X8.2000 Y23.2000
X11.0000
X12.4000 Z-14.2174
X26.0000 Z-14.2190
Z-12.0000
X25.8000 Y32.8000
Z-14.3517
X24.0000 Z-14.3576
X23.0000 Z-15.0000
X8.6000
X7.8000 Y30.4000
X9.8000
Y28.0000
X7.8000
Y25.6000
X9.8000
Z-12.0000
X23.0000 Y35.2000
Z-15.0000
X26.0000
Y37.6000
X24.0000
X24.6000 Y40.0000
X28.0000
X28.2000 Z-14.1592
X29.0000 Y42.4000
Z-15.0000
X26.6000
X27.0000 Y44.8000
X29.2000
X28.6000 Y47.2000
X89.6000
Z-14.0109
X89.8000 Y44.8000
X90.4000 Z-14.0238
X90.6000 Z-15.0000
X93.4000
X93.8000 Y42.4000
X91.8000
Y40.0000
X93.8000
X94.0000 Y37.6000
X91.8000
X93.2000 Y35.2000
X95.4000
X96.2000 Y32.8000
X93.4000
X95.6000 Y30.4000
X97.8000
Y28.0000
X95.8000
X95.6000 Y25.6000
X97.8000
X96.2000 Y23.2000
X93.4000
X93.2000 Y20.8000
X95.4000
X94.0000 Y18.4000
X91.8000
Y16.0000
X93.8000
Y13.6000
X91.8000
X93.4000 Y11.2000
X90.6000
X90.0000 Z-14.0112
X89.6000 Y8.8000
Z-16.0000
X28.6000
X29.2000 Y11.2000
X27.0000
X26.6000 Y13.6000
X29.0000
X28.0000 Y16.0000
X24.6000
X24.0000 Y18.4000
X26.0000
Y20.8000
X12.0000
X11.0000 Y23.2000
X8.2000
X7.8000 Y25.6000
X9.8000
Y28.0000
X7.8000
Y30.4000
X9.8000
X8.6000 Y32.8000
X23.0000
Y35.2000
X26.0000
Y37.6000
X24.0000
X24.6000 Y40.0000
X28.0000
X29.0000 Y42.4000
X26.6000
X27.0000 Y44.8000
X29.2000
X28.6000 Y47.2000
X89.6000
X90.6000 Y44.8000
X93.4000
X93.8000 Y42.4000
X91.8000
Y40.0000
X93.8000
X94.0000 Y37.6000
X91.8000
X93.2000 Y35.2000
X95.4000
X96.2000 Y32.8000
X93.4000
X95.6000 Y30.4000
X97.8000
Y28.0000
X95.8000
X95.6000 Y25.6000
X97.8000
X96.2000 Y23.2000
X93.4000
X93.2000 Y20.8000
X95.4000
X94.0000 Y18.4000
X91.8000
Y16.0000
X93.8000
Y13.6000
X91.8000
X90.6000 Y11.2000
X93.4000
X89.6000 Y8.8000
Z-17.0000
X28.6000
X29.2000 Y11.2000
X27.0000
X26.6000 Y13.6000
X29.0000
X28.0000 Y16.0000
X24.6000
X24.0000 Y18.4000
X26.0000
Y20.8000
X12.0000
X11.0000 Y23.2000
X8.2000
X7.8000 Y25.6000
X9.8000
Y28.0000
X7.8000
Y30.4000
X9.8000
X8.6000 Y32.8000
X23.0000
Y35.2000
X26.0000
Y37.6000
X24.0000
X24.6000 Y40.0000
X28.0000
X29.0000 Y42.4000
X26.6000
X27.0000 Y44.8000
X29.2000
X28.6000 Y47.2000
X89.6000
X90.6000 Y44.8000
X93.4000
X93.8000 Y42.4000
X91.8000
Y40.0000
X93.8000
X94.0000 Y37.6000
X91.8000
X93.2000 Y35.2000
X95.4000
X96.2000 Y32.8000
X93.4000
X95.6000 Y30.4000
X97.8000
Y28.0000
X95.8000
X95.6000 Y25.6000
X97.8000
X96.2000 Y23.2000
X93.4000
X93.2000 Y20.8000
X95.4000
X94.0000 Y18.4000
X91.8000
Y16.0000
X93.8000
Y13.6000
X91.8000
X90.6000 Y11.2000
X93.4000
X89.6000 Y8.8000
Z-18.0000
X28.6000
X29.2000 Y11.2000
X27.0000
X26.6000 Y13.6000
X29.0000
X28.0000 Y16.0000
X24.6000
X24.0000 Y18.4000
X26.0000
Y20.8000
X12.0000
X11.0000 Y23.2000
X8.2000
X7.8000 Y25.6000
X9.8000
Y28.0000
X7.8000
Y30.4000
X9.8000
X8.6000 Y32.8000
X23.0000
Y35.2000
X26.0000
Y37.6000
X24.0000
X24.6000 Y40.0000
X28.0000
X29.0000 Y42.4000
X26.6000
X27.0000 Y44.8000
X29.2000
X28.6000 Y47.2000
X89.6000
X90.6000 Y44.8000
X93.4000
X93.8000 Y42.4000
X91.8000
Y40.0000
X93.8000
X94.0000 Y37.6000
X91.8000
X93.2000 Y35.2000
X95.4000
X96.2000 Y32.8000
X93.4000
X95.6000 Y30.4000
X97.8000
Y28.0000
X95.8000
X95.6000 Y25.6000
X97.8000
X96.2000 Y23.2000
X93.4000
X93.2000 Y20.8000
X95.4000
X94.0000 Y18.4000
X91.8000
Y16.0000
X93.8000
Y13.6000
X91.8000
X90.6000 Y11.2000
X93.4000
X89.6000 Y8.8000
Z-19.0000
X28.6000
X29.2000 Y11.2000
X27.0000
X26.6000 Y13.6000
X29.0000
X28.0000 Y16.0000
X24.6000
X24.0000 Y18.4000
X26.0000
Y20.8000
X12.0000
X11.0000 Y23.2000
X8.2000
X7.8000 Y25.6000
X9.8000
Y28.0000
X7.8000
Y30.4000
X9.8000
X8.6000 Y32.8000
X23.0000
Y35.2000
X26.0000
Y37.6000
X24.0000
X24.6000 Y40.0000
X28.0000
X29.0000 Y42.4000
X26.6000
X27.0000 Y44.8000
X29.2000
X28.6000 Y47.2000
X89.6000
X90.6000 Y44.8000
X93.4000
X93.8000 Y42.4000
X91.8000
Y40.0000
X93.8000
X94.0000 Y37.6000
X91.8000
X93.2000 Y35.2000
X95.4000
X96.2000 Y32.8000
X93.4000
X95.6000 Y30.4000
X97.8000
Y28.0000
X95.8000
X95.6000 Y25.6000
X97.8000
X96.2000 Y23.2000
X93.4000
X93.2000 Y20.8000
X95.4000
X94.0000 Y18.4000
X91.8000
Y16.0000
X93.8000
Y13.6000
X91.8000
X90.6000 Y11.2000
X93.4000
X89.6000 Y8.8000
Z-20.0000
X28.6000
X29.2000 Y11.2000
X27.0000
X26.6000 Y13.6000
X29.0000
X28.0000 Y16.0000
X24.6000
X24.0000 Y18.4000
X26.0000
Y20.8000
X12.0000
X11.0000 Y23.2000
X8.2000
X7.8000 Y25.6000
X9.8000
Y28.0000
X7.8000
Y30.4000
X9.8000
X8.6000 Y32.8000
X23.0000
Y35.2000
X26.0000
Y37.6000
X24.0000
X24.6000 Y40.0000
X28.0000
X29.0000 Y42.4000
X26.6000
X27.0000 Y44.8000
X29.2000
X28.6000 Y47.2000
X89.6000
X90.6000 Y44.8000
X93.4000
X93.8000 Y42.4000
X91.8000
Y40.0000
X93.8000
X94.0000 Y37.6000
X91.8000
X93.2000 Y35.2000
X95.4000
X96.2000 Y32.8000
X93.4000
X95.6000 Y30.4000
X97.8000
Y28.0000
X95.8000
X95.6000 Y25.6000
X97.8000
X96.2000 Y23.2000
X93.4000
X93.2000 Y20.8000
X95.4000
X94.0000 Y18.4000
X91.8000
Y16.0000
X93.8000
Y13.6000
X91.8000
X90.6000 Y11.2000
X93.4000
X89.6000 Y8.8000
Z-21.0000
X28.6000
X29.2000 Y11.2000
X27.0000
X26.6000 Y13.6000
X29.0000
X28.0000 Y16.0000
X24.6000
X24.0000 Y18.4000
X26.0000
Y20.8000
X12.0000
X11.0000 Y23.2000
X8.2000
X7.8000 Y25.6000
X9.8000
Y28.0000
X7.8000
Y30.4000
X9.8000
X8.6000 Y32.8000
X23.0000
Y35.2000
X26.0000
Y37.6000
X24.0000
X24.6000 Y40.0000
X28.0000
X29.0000 Y42.4000
X26.6000
X27.0000 Y44.8000
X29.2000
X28.6000 Y47.2000
X89.6000
X90.6000 Y44.8000
X93.4000
X93.8000 Y42.4000
X91.8000
Y40.0000
X93.8000
X94.0000 Y37.6000
X91.8000
X93.2000 Y35.2000
X95.4000
X96.2000 Y32.8000
X93.4000
X95.6000 Y30.4000
X97.8000
Y28.0000
X95.8000
X95.6000 Y25.6000
X97.8000
X96.2000 Y23.2000
X93.4000
X93.2000 Y20.8000
X95.4000
X94.0000 Y18.4000
X91.8000
Y16.0000
X93.8000
Y13.6000
X91.8000
X90.6000 Y11.2000
X93.4000
X89.6000 Y8.8000
Z-22.0000
X28.6000
X29.2000 Y11.2000
X27.0000
X26.6000 Y13.6000
X29.0000
X28.0000 Y16.0000
X24.6000
X24.0000 Y18.4000
X26.0000
Y20.8000
X12.0000
X11.0000 Y23.2000
X8.2000
X7.8000 Y25.6000
X9.8000
Y28.0000
X7.8000
Y30.4000
X9.8000
X8.6000 Y32.8000
X23.0000
Y35.2000
X26.0000
Y37.6000
X24.0000
X24.6000 Y40.0000
X28.0000
X29.0000 Y42.4000
X26.6000
X27.0000 Y44.8000
X29.2000
X28.6000 Y47.2000
X89.6000
X90.6000 Y44.8000
X93.4000
X93.8000 Y42.4000
X91.8000
Y40.0000
X93.8000
X94.0000 Y37.6000
X91.8000
X93.2000 Y35.2000
X95.4000
X96.2000 Y32.8000
X93.4000
X95.6000 Y30.4000
X97.8000
Y28.0000
X95.8000
X95.6000 Y25.6000
X97.8000
X96.2000 Y23.2000
X93.4000
X93.2000 Y20.8000
X95.4000
X94.0000 Y18.4000
X91.8000
Y16.0000
X93.8000
Y13.6000
X91.8000
X90.6000 Y11.2000
X93.4000
X89.6000 Y8.8000
Z-23.0000
X28.6000
X29.2000 Y11.2000
X27.0000
X26.6000 Y13.6000
X29.0000
X28.0000 Y16.0000
X24.6000
X24.0000 Y18.4000
X26.0000
Y20.8000
X12.0000
X11.0000 Y23.2000
X8.2000
X7.8000 Y25.6000
X9.8000
Y28.0000
X7.8000
Y30.4000
X9.8000
X8.6000 Y32.8000
X23.0000
Y35.2000
X26.0000
Y37.6000
X24.0000
X24.6000 Y40.0000
X28.0000
X29.0000 Y42.4000
X26.6000
X27.0000 Y44.8000
X29.2000
X28.6000 Y47.2000
X89.6000
X90.6000 Y44.8000
X93.4000
X93.8000 Y42.4000
X91.8000
Y40.0000
X93.8000
X94.0000 Y37.6000
X91.8000
X93.2000 Y35.2000
X95.4000
X96.2000 Y32.8000
X93.4000
X95.6000 Y30.4000
X97.8000
Y28.0000
X95.8000
X95.6000 Y25.6000
X97.8000
X96.2000 Y23.2000
X93.4000
X93.2000 Y20.8000
X95.4000
X94.0000 Y18.4000
X91.8000
Y16.0000
X93.8000
Y13.6000
X91.8000
X90.6000 Y11.2000
X93.4000
X89.6000 Y8.8000
Z-24.0000
X28.6000
X29.2000 Y11.2000
X27.0000
X26.6000 Y13.6000
X29.0000
X28.0000 Y16.0000
X24.6000
X24.0000 Y18.4000
X26.0000
Y20.8000
X12.0000
X11.0000 Y23.2000
X8.2000
X7.8000 Y25.6000
X9.8000
Y28.0000
X7.8000
Y30.4000
X9.8000
X8.6000 Y32.8000
X23.0000
Y35.2000
X26.0000
Y37.6000
X24.0000
X24.6000 Y40.0000
X28.0000
X29.0000 Y42.4000
X26.6000
X27.0000 Y44.8000
X29.2000
X28.6000 Y47.2000
X89.6000
X90.6000 Y44.8000
X93.4000
X93.8000 Y42.4000
X91.8000
Y40.0000
X93.8000
X94.0000 Y37.6000
X91.8000
X93.2000 Y35.2000
X95.4000
X96.2000 Y32.8000
X93.4000
X95.6000 Y30.4000
X97.8000
Y28.0000
X95.8000
X95.6000 Y25.6000
X97.8000
X96.2000 Y23.2000
X93.4000
X93.2000 Y20.8000
X95.4000
X94.0000 Y18.4000
X91.8000
Y16.0000
X93.8000
Y13.6000
X91.8000
X90.6000 Y11.2000
X93.4000
X89.6000 Y8.8000
Z-25.0000
X28.6000
X29.2000 Y11.2000
X27.0000
X26.6000 Y13.6000
X29.0000
X28.0000 Y16.0000
X24.6000
X24.0000 Y18.4000
X26.0000
Y20.8000
X12.0000
X11.0000 Y23.2000
X8.2000
X7.8000 Y25.6000
X9.8000
Y28.0000
X7.8000
Y30.4000
X9.8000
X8.6000 Y32.8000
X23.0000
Y35.2000
X26.0000
Y37.6000
X24.0000
X24.6000 Y40.0000
X28.0000
X29.0000 Y42.4000
X26.6000
X27.0000 Y44.8000
X29.2000
X28.6000 Y47.2000
X89.6000
X90.6000 Y44.8000
X93.4000
X93.8000 Y42.4000
X91.8000
Y40.0000
X93.8000
X94.0000 Y37.6000
X91.8000
X93.2000 Y35.2000
X95.4000
X96.2000 Y32.8000
X93.4000
X95.6000 Y30.4000
X97.8000
Y28.0000
X95.8000
X95.6000 Y25.6000
X97.8000
X96.2000 Y23.2000
X93.4000
X93.2000 Y20.8000
X95.4000
X94.0000 Y18.4000
X91.8000
Y16.0000
X93.8000
Y13.6000
X91.8000
X90.6000 Y11.2000
X93.4000
X89.6000 Y8.8000
Z-26.0000
X28.6000
X29.2000 Y11.2000
X27.0000
X26.6000 Y13.6000
X29.0000
X28.0000 Y16.0000
X24.6000
X24.0000 Y18.4000
X26.0000
Y20.8000
X12.0000
X11.0000 Y23.2000
X8.2000
X7.8000 Y25.6000
X9.8000
Y28.0000
X7.8000
Y30.4000
X9.8000
X8.6000 Y32.8000
X23.0000
Y35.2000
X26.0000
Y37.6000
X24.0000
X24.6000 Y40.0000
X28.0000
X29.0000 Y42.4000
X26.6000
X27.0000 Y44.8000
X29.2000
X28.6000 Y47.2000
X89.6000
X90.6000 Y44.8000
X93.4000
X93.8000 Y42.4000
X91.8000
Y40.0000
X93.8000
X94.0000 Y37.6000
X91.8000
X93.2000 Y35.2000
X95.4000
X96.2000 Y32.8000
X93.4000
X95.6000 Y30.4000
X97.8000
Y28.0000
X95.8000
X95.6000 Y25.6000
X97.8000
X96.2000 Y23.2000
X93.4000
X93.2000 Y20.8000
X95.4000
X94.0000 Y18.4000
X91.8000
Y16.0000
X93.8000
Y13.6000
X91.8000
X90.6000 Y11.2000
X93.4000
X89.6000 Y8.8000
Z-27.0000
X28.6000
X29.2000 Y11.2000
X27.0000
X26.6000 Y13.6000
X29.0000
X28.0000 Y16.0000
X24.6000
X24.0000 Y18.4000
X26.0000
Y20.8000
X12.0000
X11.0000 Y23.2000
X8.2000
X7.8000 Y25.6000
X9.8000
Y28.0000
X7.8000
Y30.4000
X9.8000
X8.6000 Y32.8000
X23.0000
Y35.2000
X26.0000
Y37.6000
X24.0000
X24.6000 Y40.0000
X28.0000
X29.0000 Y42.4000
X26.6000
X27.0000 Y44.8000
X29.2000
X28.6000 Y47.2000
X89.6000
X90.6000 Y44.8000
X93.4000
X93.8000 Y42.4000
X91.8000
Y40.0000
X93.8000
X94.0000 Y37.6000
X91.8000
X93.2000 Y35.2000
X95.4000
X96.2000 Y32.8000
X93.4000
X95.6000 Y30.4000
X97.8000
Y28.0000
X95.8000
X95.6000 Y25.6000
X97.8000
X96.2000 Y23.2000
X93.4000
X93.2000 Y20.8000
X95.4000
X94.0000 Y18.4000
X91.8000
Y16.0000
X93.8000
Y13.6000
X91.8000
X90.6000 Y11.2000
X93.4000
X89.6000 Y8.8000
Z-28.0000
X28.6000
X29.2000 Y11.2000
X27.0000
X26.6000 Y13.6000
X29.0000
X28.0000 Y16.0000
X24.6000
X24.0000 Y18.4000
X26.0000
Y20.8000
X12.0000
X11.0000 Y23.2000
X8.2000
X7.8000 Y25.6000
X9.8000
Y28.0000
X7.8000
Y30.4000
X9.8000
X8.6000 Y32.8000
X23.0000
Y35.2000
X26.0000
Y37.6000
X24.0000
X24.6000 Y40.0000
X28.0000
X29.0000 Y42.4000
X26.6000
X27.0000 Y44.8000
X29.2000
X28.6000 Y47.2000
X89.6000
X90.6000 Y44.8000
X93.4000
X93.8000 Y42.4000
X91.8000
Y40.0000
X93.8000
X94.0000 Y37.6000
X91.8000
X93.2000 Y35.2000
X95.4000
X96.2000 Y32.8000
X93.4000
X95.6000 Y30.4000
X97.8000
Y28.0000
X95.8000
X95.6000 Y25.6000
X97.8000
X96.2000 Y23.2000
X93.4000
X93.2000 Y20.8000
X95.4000
X94.0000 Y18.4000
X91.8000
Y16.0000
X93.8000
Y13.6000
X91.8000
X90.6000 Y11.2000
X93.4000
X89.6000 Y8.8000
Z-29.0000
X28.6000
X29.2000 Y11.2000
X27.0000
X26.6000 Y13.6000
X29.0000
X28.0000 Y16.0000
X24.6000
X24.0000 Y18.4000
X26.0000
Y20.8000
X12.0000
X11.0000 Y23.2000
X8.2000
X7.8000 Y25.6000
X9.8000
Y28.0000
X7.8000
Y30.4000
X9.8000
X8.6000 Y32.8000
X23.0000
Y35.2000
X26.0000
Y37.6000
X24.0000
X24.6000 Y40.0000
X28.0000
X29.0000 Y42.4000
X26.6000
X27.0000 Y44.8000
X29.2000
X28.6000 Y47.2000
X89.6000
X90.6000 Y44.8000
X93.4000
X93.8000 Y42.4000
X91.8000
Y40.0000
X93.8000
X94.0000 Y37.6000
X91.8000
X93.2000 Y35.2000
X95.4000
X96.2000 Y32.8000
X93.4000
X95.6000 Y30.4000
X97.8000
Y28.0000
X95.8000
X95.6000 Y25.6000
X97.8000
X96.2000 Y23.2000
X93.4000
X93.2000 Y20.8000
X95.4000
X94.0000 Y18.4000
X91.8000
Y16.0000
X93.8000
Y13.6000
X91.8000
X90.6000 Y11.2000
X93.4000
X89.6000 Y8.8000
Z-30.0000
X28.6000
X29.2000 Y11.2000
X27.0000
X26.6000 Y13.6000
X29.0000
X28.0000 Y16.0000
X24.6000
X24.0000 Y18.4000
X26.0000
Y20.8000
X12.0000
X11.0000 Y23.2000
X8.2000
X7.8000 Y25.6000
X9.8000
Y28.0000
X7.8000
Y30.4000
X9.8000
X8.6000 Y32.8000
X23.0000
Y35.2000
X26.0000
Y37.6000
X24.0000
X24.6000 Y40.0000
X28.0000
X29.0000 Y42.4000
X26.6000
X27.0000 Y44.8000
X29.2000
X28.6000 Y47.2000
X89.6000
X90.6000 Y44.8000
X93.4000
X93.8000 Y42.4000
X91.8000
Y40.0000
X93.8000
X94.0000 Y37.6000
X91.8000
X93.2000 Y35.2000
X95.4000
X96.2000 Y32.8000
X93.4000
X95.6000 Y30.4000
X97.8000
Y28.0000
X95.8000
X95.6000 Y25.6000
X97.8000
X96.2000 Y23.2000
X93.4000
X93.2000 Y20.8000
X95.4000
X94.0000 Y18.4000
X91.8000
Y16.0000
X93.8000
Y13.6000
X91.8000
X90.6000 Y11.2000
X93.4000
X89.6000 Y8.8000
Z-31.0000
X28.6000
X29.2000 Y11.2000
X27.0000
X26.6000 Y13.6000
X29.0000
X28.0000 Y16.0000
X24.6000
X24.0000 Y18.4000
X26.0000
Y20.8000
X12.0000
X11.0000 Y23.2000
X8.2000
X7.8000 Y25.6000
X9.8000
Y28.0000
X7.8000
Y30.4000
X9.8000
X8.6000 Y32.8000
X23.0000
Y35.2000
X26.0000
Y37.6000
X24.0000
X24.6000 Y40.0000
X28.0000
X29.0000 Y42.4000
X26.6000
X27.0000 Y44.8000
X29.2000
X28.6000 Y47.2000
X89.6000
X90.6000 Y44.8000
X93.4000
X93.8000 Y42.4000
X91.8000
Y40.0000
X93.8000
X94.0000 Y37.6000
X91.8000
X93.2000 Y35.2000
X95.4000
X96.2000 Y32.8000
X93.4000
X95.6000 Y30.4000
X97.8000
Y28.0000
X95.8000
X95.6000 Y25.6000
X97.8000
X96.2000 Y23.2000
X93.4000
X93.2000 Y20.8000
X95.4000
X94.0000 Y18.4000
X91.8000
Y16.0000
X93.8000
Y13.6000
X91.8000
X90.6000 Y11.2000
X93.4000
X89.6000 Y8.8000
Z-31.5000
X28.6000
X29.2000 Y11.2000
X27.0000
X26.6000 Y13.6000
X29.0000
X28.0000 Y16.0000
X24.6000
X24.0000 Y18.4000
X26.0000
Y20.8000
X12.0000
X11.0000 Y23.2000
X8.2000
X7.8000 Y25.6000
X9.8000
Y28.0000
X7.8000
Y30.4000
X9.8000
X8.6000 Y32.8000
X23.0000
Y35.2000
X26.0000
Y37.6000
X24.0000
X24.6000 Y40.0000
X28.0000
X29.0000 Y42.4000
X26.6000
X27.0000 Y44.8000
X29.2000
X28.6000 Y47.2000
X89.6000
X90.6000 Y44.8000
X93.4000
X93.8000 Y42.4000
X91.8000
Y40.0000
X93.8000
X94.0000 Y37.6000
X91.8000
X93.2000 Y35.2000
X95.4000
X96.2000 Y32.8000
X93.4000
X95.6000 Y30.4000
X97.8000
Y28.0000
X95.8000
X95.6000 Y25.6000
X97.8000
X96.2000 Y23.2000
X93.4000
X93.2000 Y20.8000
X95.4000
X94.0000 Y18.4000
X91.8000
Y16.0000
X93.8000
Y13.6000
X91.8000
X90.6000 Y11.2000
X93.4000
G00 Z5.0000
X12.0000 Y12.0000
;*************************************
;Nr. 2 Linear schlichten X: 
;*************************************
X30.5625 Y10.4250 Z5.0000
G01 Z-32.0000 F1200
X52.7250
Z0.0000
X53.2875 Y10.8750
Z-32.0000
X52.9500
X52.8375 Z-14.8199
X52.1625 Z-12.5024
X31.2375 Z-12.4711
X30.5625 Z-13.6862
X30.4500 Z-14.8199
X30.3375 Z-32.0000
X30.0000
X29.6625 Y11.3250
X30.0000
X30.1125 Z-13.6862
X30.5625 Z-11.6459
X31.4625 Z-10.9045
X32.1375 Z-10.8573
X51.4875
X52.3875 Z-11.1833
X53.1750 Z-13.6862
X53.2875 Z-32.0000
X90.3000
Z0.0000
X90.9750 Y11.7750
Z-32.0000
X90.6375
X90.5250 Z-14.8171
X89.9625 Z-13.0744
X53.5125 Z-13.1837
X52.7250 Z-10.3743
X52.0500 Z-9.7454
X31.2375 Z-9.6554
X30.5625 Z-10.2534
X30.0000 Z-12.5024
X29.5500 Z-32.0000
Y12.2250
X30.0000 Z-11.0824
X30.4500 Z-9.5248
X31.4625 Z-8.7010
X32.1375 Z-8.6567
X52.0500 Z-8.6821
X52.8375 Z-9.4628
X53.5125 Z-11.4503
X89.9625 Z-11.3635
X90.5250 Z-12.2135
X90.9750 Z-14.8171
X91.3125 Z-32.0000
X91.5375 Y12.6750
X91.2000
X91.0875 Z-13.0744
X90.7500 Z-11.3635
X89.9625 Z-10.1902
X53.5125 Z-10.0542
X52.8375 Z-8.5742
X52.0500 Z-7.8923
X32.1375 Z-7.8713
X30.7875 Z-8.1271
X30.0000 Z-9.7089
X29.5500 Z-32.0000
Y13.1250
X29.8875 Z-9.5248
X30.5625 Z-7.6224
X31.3500 Z-7.2355
X51.6000 Z-7.1311
X52.7250 Z-7.5780
X53.5125 Z-9.2438
X89.9625 Z-9.1899
X90.9750 Z-10.8072
X91.2000 Z-12.7868
X91.5375 Z-32.0000
Y13.5750
X91.2000 Z-11.0841
X90.7500 Z-9.1899
X89.9625 Z-8.3927
X53.4000 Z-8.4146
X52.7250 Z-6.8905
X51.6000 Z-6.5605
X31.2375 Z-6.5709
X30.5625 Z-6.8834
X29.8875 Z-8.6436
X29.5500 Z-32.0000
Y14.0250
X29.8875 Z-7.7850
X30.4500 Z-6.4055
X31.3500 Z-6.0241
X51.6000 Z-5.9328
X52.8375 Z-6.4388
X53.4000 Z-7.6566
X89.9625 Z-7.6677
X90.7500 Z-8.3927
X91.2000 Z-9.9902
X91.5375 Z-32.0000
Y14.4750
X91.2000 Z-9.0591
X90.3000 Z-7.1840
X53.5125 Z-7.0870
X52.7250 Z-5.7154
X51.8250 Z-5.4136
X31.5750
X30.5625 Z-5.7154
X29.8875 Z-7.1270
X29.5500 Z-32.0000
Y14.9250
X30.1125 Z-5.7154
X31.2375 Z-4.9548
X51.6000 Z-4.9547
X52.7250 Z-5.1915
X53.5125 Z-6.4607
X90.3000 Z-6.6474
X90.8625 Z-7.1840
X91.2000 Z-8.2775
X91.5375 Z-32.0000
Y15.3750
X91.2000 Z-7.5610
X90.5250 Z-6.2571
X89.7375 Z-5.8952
X53.5125 Z-5.9335
X52.8375 Z-4.8527
X51.6000 Z-4.4999
X31.1250 Z-4.5319
X30.2250 Z-5.0568
X29.8875 Z-5.9415
X29.5500 Z-32.0000
Y15.8250
X30.1125 Z-4.7723
X31.3500 Z-4.0697
X51.6000 Z-4.0583
X52.6125 Z-4.2370
X53.5125 Z-5.4994
X89.8500 Z-5.4646
X90.5250 Z-5.7178
X91.2000 Z-6.9468
X91.5375 Z-32.0000
Y16.2750
X91.2000 Z-6.3827
X90.5250 Z-5.3132
X89.9625 Z-5.0255
X53.5125 Z-5.0818
X52.7250 Z-3.8936
X51.6000 Z-3.6376
X31.2375 Z-3.6648
X30.1125 Z-4.3174
X29.7750 Z-32.0000
X27.7500
Z0.0000
X27.0750 Y16.7250
Z-32.0000
X27.4125
X27.5250 Z-15.4081
X28.0875 Z-13.9065
X29.7750 Z-13.9253
X29.8875 Z-4.4069
X30.4500 Z-3.6121
X31.2375 Z-3.3396
X52.1625 Z-3.3727
X53.1750 Z-3.8936
X53.5125 Z-4.6815
X90.5250 Z-4.8441
X91.2000 Z-5.8183
X91.5375 Z-32.0000
Y17.1750
X91.2000 Z-5.3946
X90.5250 Z-4.4951
X89.9625 Z-4.2500
X53.5125 Z-4.2991
X52.7250 Z-3.1669
X51.6000 Z-2.9902
X31.5750 Z-3.0096
X30.1125 Z-3.5388
X29.7750 Z-12.2155
X28.2000 Z-12.2615
X27.7500 Z-12.7050
X27.0750 Z-15.4081
X26.7375 Z-32.0000
X26.5125 Y17.6250
X26.8500
X27.0750 Z-13.0054
X27.4125 Z-12.0781
X28.2000 Z-11.4261
X29.7750 Z-11.4027
X29.8875 Z-3.6121
X30.5625 Z-2.8524
X31.2375 Z-2.6674
X51.8250 Z-2.6695
X53.1750 Z-3.1669
X53.5125 Z-3.9353
X90.5250 Z-4.0953
X91.2000 Z-4.9348
X91.5375 Z-32.0000
Y18.0750
X90.9750 Z-4.0953
X89.7375 Z-3.5700
X53.5125 Z-3.5904
X53.0625 Z-2.7614
X51.6000 Z-2.3942
X31.1250 Z-2.4462
X30.1125 Z-2.8524
X29.7750 Z-10.6267
X28.0875 Z-10.6028
X27.5250 Z-11.0082
X26.9625 Z-12.3535
X26.5125 Z-32.0000
Y18.5250
X26.8500 Z-12.0781
X27.5250 Z-10.2547
X29.7750 Z-9.9726
X30.1125 Z-2.5644
X31.1250 Z-2.1436
X51.7125 Z-2.1434
X52.7250 Z-2.2610
X53.5125 Z-3.3187
X89.7375 Z-3.2993
X90.7500 Z-3.5887
X91.2000 Z-4.1727
X91.5375 Z-32.0000
Y18.9750
X91.2000 Z-3.8655
X90.8625 Z-3.3672
X89.8500 Z-3.0020
X53.5125 Z-3.0103
X53.1750 Z-2.2610
X52.1625 Z-1.8861
X32.0250 Z-1.8780
X30.5625 Z-1.9995
X29.8875 Z-2.6049
X29.7750 Z-9.3947
X27.7500 Z-9.5440
X27.0750 Z-10.2547
X26.8500 Z-11.2034
X26.5125 Z-32.0000
Y19.4250
X26.8500 Z-10.4529
X27.5250 Z-9.2018
X29.7750 Z-8.9585
X30.1125 Z-1.9995
X31.2375 Z-1.6510
X51.6000 Z-1.6360
X53.1750 Z-2.0130
X53.5125 Z-2.8154
X89.9625 Z-2.7706
X90.7500 Z-3.0228
X91.2000 Z-3.5225
X91.5375 Z-32.0000
X91.9875 Y19.8750
X91.3125
X90.9750 Z-2.9098
X89.7375 Z-2.5290
X53.5125 Z-2.5414
X53.1750 Z-1.7628
X51.6000 Z-1.4237
X31.3500 Z-1.4571
X30.1125 Z-1.7756
X29.7750 Z-8.5473
X28.0875 Z-8.5009
X27.0750 Z-9.2018
X26.8500 Z-9.8572
X26.5125 Z-32.0000
Y20.3250
X26.8500 Z-9.3016
X27.5250 Z-8.3581
X29.7750 Z-8.1627
X29.8875 Z-1.8265
X30.5625 Z-1.3475
X32.0250 Z-1.2375
X52.1625 Z-1.2595
X53.2875 Z-1.6433
X53.5125 Z-2.3300
X90.7500 Z-2.5405
X91.2000 Z-2.9663
X91.3125 Z-14.1009
X91.9875 Z-14.7679
X92.1000 Z-16.0000
X92.2125 Z-32.0000
X92.5500
X92.8875 Y20.7750
X92.5500
X92.4375 Z-14.7679
X91.9875 Z-13.5832
X91.3125 Z-12.9745
X91.2000 Z-2.7316
X90.8625 Z-2.3785
X89.9625 Z-2.1339
X53.5125 Z-2.1705
X53.1750 Z-1.3465
X52.1625 Z-1.0629
X32.0250 Z-1.0527
X30.7875 Z-1.1210
X29.8875 Z-1.5942
X29.7750 Z-7.8061
X27.7500 Z-7.9002
X26.8500 Z-8.8881
X26.5125 Z-32.0000
Y21.2250
X26.8500 Z-8.4295
X27.7500 Z-7.5855
X29.7750 Z-7.4786
X29.8875 Z-1.3901
X31.3500 Z-0.8978
X51.9375 Z-0.8979
X53.1750 Z-1.1706
X53.5125 Z-1.9685
X90.7500 Z-2.1339
X91.2000 Z-2.4927
X91.3125 Z-12.1859
X91.9875 Z-12.5679
X92.5500 Z-14.1697
X93.0000 Z-32.0000
Y21.6750
X92.6625 Z-13.7935
X92.2125 Z-12.2130
X91.3125 Z-11.7010
X90.9750 Z-2.0540
X89.9625 Z-1.7956
X53.5125 Z-1.8008
X53.2875 Z-1.0629
X52.1625 Z-0.7511
X31.5750 Z-0.7412
X29.8875 Z-1.2317
X29.7750 Z-7.2526
X27.5250 Z-7.3640
X26.8500 Z-8.0999
X26.5125 Z-32.0000
Y22.1250
X26.8500 Z-7.7497
X27.7500 Z-7.0679
X29.7750 Z-7.0000
X29.8875 Z-1.0200
X31.1250 Z-0.6230
X51.6000 Z-0.6119
X53.1750 Z-0.8336
X53.5125 Z-1.6622
X89.7375 Z-1.6567
X91.0875 Z-1.9706
X91.3125 Z-11.2536
X91.9875 Z-11.4041
X92.6625 Z-12.7508
X93.0000 Z-32.0000
Y22.5750
X92.6625 Z-12.0423
X92.4375 Z-11.4041
X91.3125 Z-10.8437
X90.9750 Z-1.7299
X53.5125 Z-1.5247
X53.2875 Z-0.7511
X52.1625 Z-0.4956
X31.2375 Z-0.4801
X29.8875 Z-0.8680
X29.7750 Z-7.0000
X27.3000
X26.8500 Z-7.4284
X26.5125 Z-32.0000
Y23.0250
X26.8500 Z-7.2071
X29.7750 Z-7.0000
X29.8875 Z-0.7125
X31.1250 Z-0.3921
X51.7125 Z-0.3920
X53.2875 Z-0.6229
X53.5125 Z-1.4250
X89.9625 Z-1.4150
X91.0875 Z-1.6665
X91.3125 Z-10.5145
X91.9875 Z-10.6634
X92.6625 Z-11.5574
X93.0000 Z-32.0000
Y23.4750
X92.6625 Z-11.1123
X91.9875 Z-10.3706
X91.3125 Z-10.2797
X91.0875 Z-1.5209
X53.5125 Z-1.3059
X53.2875 Z-0.4956
X52.1625 Z-0.2913
X31.2375 Z-0.2878
X29.8875 Z-0.5939
X29.7750 Z-7.0000
X26.8500
X26.7375 Z-32.0000
X11.2125
Z0.0000
X10.6500 Y23.9250
Z-32.0000
X10.9875
X11.2125 Z-14.9298
X11.8875 Z-14.4020
X26.7375 Z-14.4597
X26.8500 Z-7.0000
X29.7750
X29.8875 Z-0.4629
X32.0250 Z-0.2024
X52.3875 Z-0.2209
X53.4000 Z-0.4628
X53.5125 Z-1.2145
X91.0875 Z-1.4150
X91.3125 Z-10.0299
X92.4375 Z-10.3706
X92.6625 Z-10.7806
X93.0000 Z-32.0000
Y24.3750
X92.6625 Z-10.4666
X91.3125 Z-9.8562
X91.0875 Z-1.3070
X53.5125 Z-1.1525
X53.4000 Z-0.3680
X52.1625 Z-0.1484
X32.0250 Z-0.1439
X29.8875 Z-0.3556
X29.7750 Z-7.0000
X26.8500
X26.7375 Z-13.8787
X12.0000 Z-13.8519
X10.9875 Z-14.4373
X10.6500 Z-32.0000
X10.3125
X10.2000 Y24.8250
X10.5375 Z-15.2609
X10.8750 Z-13.9988
X12.0000 Z-13.4920
X26.7375 Z-13.5056
X26.8500 Z-7.0000
X29.7750
X29.8875 Z-0.2685
X32.0250 Z-0.0853
X52.3875 Z-0.0967
X53.4000 Z-0.2684
X53.5125 Z-1.0904
X91.2000 Z-1.2876
X91.3125 Z-9.7151
X92.6625 Z-10.2340
X92.7750 Z-32.0000
X94.2375
Z0.0000
X94.9125 Y25.2750
Z-32.0000
X94.5750
X94.4625 Z-3.5000
X91.3125
X91.2000 Z-1.2138
X90.5250 Z-1.0722
X53.5125 Z-1.0519
X53.4000 Z-0.1949
X51.6000 Z-0.0472
X30.1125 Z-0.1143
X29.7750 Z-7.0000
X26.8500
X26.7375 Z-13.2704
X12.0000 Z-13.2619
X10.7625 Z-13.6981
X10.2000 Z-32.0000
Y25.7250
X10.6500 Z-13.5327
X11.7750 Z-13.1100
X26.7375 Z-13.0934
X26.8500 Z-7.0000
X29.7750
X29.8875 Z-0.1280
X32.0250 Z-0.0182
X52.7250 Z-0.0332
X53.4000 Z-0.1279
X53.5125 Z-1.0193
X91.2000 Z-1.1371
X91.3125 Z-3.5000
X94.9125
X95.2500 Z-32.0000
X95.4750 Y26.1750
X95.1375
X95.0250 Z-3.5000
X91.3125
X90.9750 Z-1.0352
X53.5125 Z-1.0045
X53.4000 Z-0.0820
X51.6000 Z-0.0038
X29.8875 Z-0.0820
X29.7750 Z-7.0000
X26.8500
X26.7375 Z-13.0217
X10.7625 Z-13.1832
X10.2000 Z-32.0000
Y26.6250
X10.5375 Z-13.2106
X26.7375 Z-13.0000
X26.8500 Z-7.0000
X29.7750
X29.8875 Z-0.0393
X31.0125 Z0.0000
X53.0625 Z-0.0061
X53.4000 Z-0.0393
X53.5125 Z-1.0000
X91.2000 Z-1.0423
X91.3125 Z-3.5000
X95.1375
X95.4750 Z-32.0000
Y27.0750
X95.1375 Z-3.5000
X91.3125
X91.2000 Z-1.0174
X53.5125 Z-1.0000
X53.2875 Z-0.0038
X30.4500 Z0.0000
X29.8875 Z-0.0170
X29.7750 Z-7.0000
X26.8500
X26.7375 Z-13.0000
X10.5375 Z-13.0854
X10.2000 Z-32.0000
Y27.5250
X10.5375 Z-13.0072
X26.7375 Z-13.0000
X26.8500 Z-7.0000
X29.7750
X29.8875 Z-0.0015
X30.2250 Z0.0000
X53.4000 Z-0.0015
X53.5125 Z-1.0000
X91.2000 Z-1.0026
X91.3125 Z-3.5000
X95.1375
X95.4750 Z-32.0000
Y27.9750
X95.1375 Z-3.5000
X91.3125
X91.2000 Z-1.0004
X53.5125 Z-1.0000
X53.4000 Z-0.0002
X30.1125 Z0.0000
X29.7750 Z-7.0000
X26.8500
X26.7375 Z-13.0000
X10.5375 Z-13.0010
X10.2000 Z-32.0000
Y28.4250
X10.5375 Z-13.0081
X26.7375 Z-13.0000
X26.8500 Z-7.0000
X29.7750
X29.8875 Z-0.0007
X30.2250 Z0.0000
X53.4000 Z-0.0007
X53.5125 Z-1.0000
X91.2000 Z-1.0023
X91.3125 Z-3.5000
X95.1375
X95.4750 Z-32.0000
Y28.8750
X95.1375 Z-3.5000
X91.3125
X91.2000 Z-1.0167
X53.5125 Z-1.0000
X53.2875 Z-0.0027
X30.4500 Z0.0000
X29.8875 Z-0.0149
X29.7750 Z-7.0000
X26.8500
X26.7375 Z-13.0000
X10.5375 Z-13.0828
X10.2000 Z-32.0000
Y29.3250
X10.5375 Z-13.2084
X26.7375 Z-13.0000
X26.8500 Z-7.0000
X29.7750
X29.8875 Z-0.0378
X31.0125 Z0.0000
X53.0625 Z-0.0047
X53.4000 Z-0.0396
X53.5125 Z-1.0000
X91.2000 Z-1.0401
X91.3125 Z-3.5000
X95.1375
X95.4750 Z-32.0000
Y29.7750
X95.1375 Z-3.5000
X91.3125
X90.9750 Z-1.0332
X53.5125 Z-1.0030
X53.4000 Z-0.0791
X51.6000 Z-0.0017
X29.8875 Z-0.0791
X29.7750 Z-7.0000
X26.8500
X26.7375 Z-13.0144
X10.6500 Z-13.2453
X10.2000 Z-32.0000
Y30.2250
X10.6500 Z-13.5113
X11.7750 Z-13.0972
X26.7375 Z-13.1053
X26.8500 Z-7.0000
X29.7750
X29.8875 Z-0.1246
X31.4625 Z-0.0158
X52.7250 Z-0.0306
X53.4000 Z-0.1263
X53.5125 Z-1.0168
X91.2000 Z-1.1414
X91.3125 Z-3.5000
X94.9125
X95.0250 Z-32.0000
X95.3625
X95.0250 Y30.6750
X94.6875
X94.5750 Z-3.5000
X91.3125
X91.0875 Z-1.1462
X53.5125 Z-1.0474
X53.4000 Z-0.1944
X52.5000 Z-0.0521
X31.3500 Z-0.0447
X29.8875 Z-0.1944
X29.7750 Z-7.0000
X26.8500
X26.7375 Z-13.2703
X11.7750 Z-13.2453
X10.7625 Z-13.6795
X10.2000 Z-32.0000
X10.3125 Y31.1250
X10.6500
X10.7625 Z-14.1177
X12.0000 Z-13.4767
X26.7375 Z-13.4802
X26.8500 Z-7.0000
X29.7750
X29.8875 Z-0.2623
X31.4625 Z-0.0801
X52.3875 Z-0.0913
X53.4000 Z-0.2672
X53.5125 Z-1.0957
X91.0875 Z-1.2198
X91.3125 Z-9.7035
X92.6625 Z-10.1813
X92.7750 Z-32.0000
X94.4625
Z-31.5000
X93.0000 Y31.5750
Z-32.0000
X92.6625 Z-10.4255
X91.3125 Z-9.8347
X91.0875 Z-1.3011
X53.5125 Z-1.1450
X53.4000 Z-0.3439
X52.5000 Z-0.1502
X31.3500 Z-0.1368
X29.8875 Z-0.3556
X29.7750 Z-7.0000
X26.8500
X26.7375 Z-13.8456
X12.0000 Z-13.8325
X11.2125 Z-14.1177
X10.9875 Z-32.0000
X10.6500
X11.2125 Y32.0250
X22.9125
X23.1375 Z-15.1332
X23.8125 Z-14.4679
X26.7375 Z-14.4174
X26.8500 Z-7.0000
X29.7750
X29.8875 Z-0.4559
X31.3500 Z-0.2102
X52.1625 Z-0.2107
X53.4000 Z-0.4625
X53.5125 Z-1.2228
X90.9750 Z-1.3490
X91.3125 Z-10.0212
X92.4375 Z-10.3410
X92.6625 Z-10.7172
X93.0000 Z-32.0000
Y32.4750
X92.6625 Z-11.1123
X92.2125 Z-10.4803
X91.3125 Z-10.2323
X91.0875 Z-1.5131
X53.5125 Z-1.2955
X53.4000 Z-0.5858
X52.5000 Z-0.3007
X31.3500 Z-0.2789
X29.8875 Z-0.5647
X29.7750 Z-7.0000
X26.8500
X26.7375 Z-15.6087
X23.8125 Z-15.7055
X23.7000 Z-32.0000
X23.0250
Z-31.5000
X26.5125 Y32.9250
Z-32.0000
X26.8500 Z-7.1832
X29.7750 Z-7.0000
X29.8875 Z-0.7013
X31.2375 Z-0.3784
X52.1625 Z-0.3820
X53.2875 Z-0.5984
X53.5125 Z-1.4024
X89.7375 Z-1.3991
X91.0875 Z-1.6456
X91.3125 Z-10.4803
X92.4375 Z-10.9546
X92.6625 Z-11.5094
X93.0000 Z-32.0000
Y33.3750
X92.6625 Z-12.0423
X92.3250 Z-11.2555
X91.3125 Z-10.7923
X91.0875 Z-1.7857
X89.8500 Z-1.5082
X53.5125 Z-1.5247
X53.4000 Z-0.8336
X52.1625 Z-0.4840
X31.2375 Z-0.4801
X29.8875 Z-0.8650
X29.7750 Z-7.0000
X27.3000
X26.8500 Z-7.4283
X26.5125 Z-32.0000
Y33.8250
X26.8500 Z-7.7496
X27.7500 Z-7.0678
X29.7750 Z-7.0000
X29.8875 Z-1.0091
X31.2375 Z-0.5950
X52.1625 Z-0.5984
X53.1750 Z-0.7995
X53.5125 Z-1.6480
X90.8625 Z-1.8277
X91.2000 Z-2.0771
X91.3125 Z-11.1606
X92.3250 Z-11.7151
X92.6625 Z-12.7005
X93.0000 Z-32.0000
Y34.2750
X92.6625 Z-13.5831
X91.9875 Z-11.8457
X91.3125 Z-11.6363
X90.9750 Z-2.0321
X89.8500 Z-1.7747
X53.5125 Z-1.7847
X53.2875 Z-1.0476
X52.0500 Z-0.7382
X31.2375 Z-0.7205
X29.8875 Z-1.2046
X29.7750 Z-7.2288
X27.7500 Z-7.2783
X26.8500 Z-8.0104
X26.5125 Z-32.0000
Y34.7250
X26.8500 Z-8.3834
X27.7500 Z-7.5853
X29.7750 Z-7.4785
X30.0000 Z-1.2317
X31.4625 Z-0.8818
X51.6000 Z-0.8815
X53.0625 Z-1.0844
X53.5125 Z-1.9504
X89.7375 Z-1.9427
X91.0875 Z-2.3206
X91.3125 Z-12.1859
X92.4375 Z-13.2727
X92.6625 Z-15.3772
X93.0000 Z-32.0000
X92.8875 Y35.1750
X92.5500
X92.4375 Z-14.7678
X91.9875 Z-13.2727
X91.3125 Z-12.8866
X91.2000 Z-2.7239
X90.6375 Z-2.2579
X53.5125 Z-2.1328
X53.1750 Z-1.3083
X52.0500 Z-1.0419
X31.4625 Z-1.0349
X29.8875 Z-1.5942
X29.7750 Z-7.8059
X27.5250 Z-7.9211
X26.8500 Z-8.8007
X26.5125 Z-32.0000
Y35.6250
X26.8500 Z-9.3188
X27.5250 Z-8.2864
X29.7750 Z-8.1002
X30.0000 Z-1.6586
X31.3500 Z-1.2178
X51.6000 Z-1.2113
X53.1750 Z-1.5276
X53.5125 Z-2.3299
X89.9625 Z-2.3206
X90.9750 Z-2.6345
X91.3125 Z-13.8109
X91.7625 Z-14.1697
X92.1000 Z-15.3772
X92.2125 Z-32.0000
X92.5500
X91.9875 Y36.0750
X91.3125
X90.9750 Z-2.9120
X89.7375 Z-2.5147
X53.5125 Z-2.5198
X53.1750 Z-1.7582
X51.7125 Z-1.4159
X31.3500 Z-1.4164
X30.0000 Z-1.8597
X29.7750 Z-8.4802
X27.5250 Z-8.6810
X26.8500 Z-9.7752
X26.5125 Z-32.0000
Y36.5250
X26.8500 Z-10.5013
X27.5250 Z-9.1016
X29.7750 Z-8.8871
X29.8875 Z-2.2924
X30.5625 Z-1.7583
X31.4625 Z-1.6286
X52.1625 Z-1.6433
X53.0625 Z-1.9160
X53.5125 Z-2.7687
X89.7375 Z-2.7538
X90.8625 Z-3.0587
X91.2000 Z-3.5288
X91.5375 Z-32.0000
Y36.9750
X91.2000 Z-3.7769
X90.6375 Z-3.2105
X53.5125 Z-3.0101
X53.1750 Z-2.2565
X51.9375 Z-1.8540
X31.3500
X30.5625 Z-1.9991
X29.8875 Z-2.6048
X29.7750 Z-9.3945
X27.7500 Z-9.5438
X27.0750 Z-10.2544
X26.8500 Z-11.2032
X26.5125 Z-32.0000
Y37.4250
X26.9625 Z-11.2694
X27.7500 Z-10.1285
X29.7750 Z-9.9330
X29.8875 Z-2.9067
X30.4500 Z-2.2924
X31.4625 Z-2.1189
X51.7125
X53.1750 Z-2.5051
X53.5125 Z-3.2651
X90.5250 Z-3.4500
X91.2000 Z-4.1334
X91.5375 Z-32.0000
Y37.8750
X91.2000 Z-4.4706
X90.6375 Z-3.7769
X53.5125 Z-3.5628
X52.7250 Z-2.5051
X51.7125 Z-2.3478
X31.4625
X30.5625 Z-2.5225
X29.8875 Z-3.2712
X29.7750 Z-10.5846
X27.7500 Z-10.7520
X26.9625 Z-12.3533
X26.5125 Z-32.0000
Y38.3250
X26.8500
X27.0750 Z-12.9148
X28.0875 Z-11.2694
X29.7750 Z-11.2697
X29.8875 Z-3.5777
X30.5625 Z-2.8357
X31.4625 Z-2.6693
X52.0500 Z-2.6876
X53.0625 Z-3.0482
X53.5125 Z-3.9060
X90.5250 Z-4.0400
X91.2000 Z-4.8864
X91.5375 Z-32.0000
Y38.7750
X91.2000 Z-5.2845
X90.6375 Z-4.4706
X89.1750 Z-4.1762
X53.5125
X52.9500 Z-3.3071
X51.6000 Z-2.9225
X31.3500 Z-2.9509
X30.1125 Z-3.4652
X29.7750 Z-12.2612
X28.3125 Z-12.2615
X27.7500 Z-12.6320
X27.0750 Z-14.9563
X26.7375 Z-32.0000
X27.0750 Y39.2250
X27.4125
X27.5250 Z-14.9563
X28.0875 Z-13.6060
X29.7750 Z-13.6822
X29.8875 Z-4.3789
X30.5625 Z-3.4652
X31.4625 Z-3.2762
X51.7125
X53.0625 Z-3.7431
X53.5125 Z-4.5525
X89.1750
X90.5250 Z-4.7872
X91.2000 Z-5.8182
X91.5375 Z-32.0000
Y39.6750
X91.2000 Z-6.2570
X90.5250 Z-5.1880
X89.8500 Z-4.9502
X53.5125 Z-4.9469
X52.6125 Z-3.8079
X51.6000 Z-3.6376
X31.1250 Z-3.6496
X30.1125 Z-4.2275
X29.7750 Z-32.0000
X27.7500
Z0.5000
X29.5500 Y40.1250
Z-32.0000
X29.8875 Z-5.2731
X30.5625 Z-4.2275
X31.1250 Z-4.0305
X52.1625 Z-4.0466
X53.0625 Z-4.5699
X53.5125 Z-5.4289
X89.9625 Z-5.3945
X90.9750 Z-6.1463
X91.2000 Z-6.8299
X91.5375 Z-32.0000
Y40.5750
X91.2000 Z-7.4242
X90.5250 Z-6.1463
X89.7375 Z-5.8881
X53.5125 Z-5.8968
X52.7250 Z-4.6863
X51.6000 Z-4.4192
X31.4625 Z-4.4423
X30.1125 Z-5.1909
X29.5500 Z-32.0000
Y41.0250
X29.8875 Z-6.4053
X30.4500 Z-5.2731
X31.4625 Z-4.8641
X52.0500 Z-4.8859
X53.0625 Z-5.5273
X53.4000 Z-6.3456
X90.1875 Z-6.5349
X90.9750 Z-7.3041
X91.2000 Z-8.1620
X91.5375 Z-32.0000
Y41.4750
X91.2000 Z-8.8738
X90.9750 Z-7.9137
X89.9625 Z-6.9466
X53.4000 Z-7.0075
X53.1750 Z-6.2261
X52.0500 Z-5.4329
X31.4625 Z-5.4134
X30.3375 Z-5.9415
X29.8875 Z-7.1027
X29.5500 Z-32.0000
Y41.9250
X29.8875 Z-7.7479
X30.2250 Z-6.6426
X31.1250 Z-5.9415
X52.1625 Z-5.9682
X52.9500 Z-6.4886
X53.4000 Z-7.5326
X89.7375 Z-7.5240
X90.5250 Z-7.9137
X90.9750 Z-8.6692
X91.2000 Z-9.9900
X91.5375 Z-32.0000
Y42.3750
X91.2000 Z-10.8822
X90.6375 Z-8.8738
X89.9625 Z-8.3433
X53.4000 Z-8.2858
X53.0625 Z-7.3006
X52.1625 Z-6.4886
X31.4625 Z-6.4588
X30.3375 Z-7.1270
X29.8875 Z-8.6247
X29.5500 Z-32.0000
Y42.8250
X29.8875 Z-9.4390
X30.2250 Z-8.0733
X31.1250 Z-7.1270
X52.1625 Z-7.1629
X52.9500 Z-7.8586
X53.4000 Z-9.0664
X89.7375 Z-9.0498
X90.7500 Z-10.1209
X91.2000 Z-12.4995
X91.5375 Z-32.0000
Y43.2750
X91.0875 Z-13.0173
X90.6375 Z-10.8822
X89.8500 Z-10.0530
X53.4000 Z-10.0995
X52.8375 Z-8.4292
X52.1625 Z-7.8586
X31.2375 Z-7.8080
X30.3375 Z-8.6436
X29.8875 Z-10.5274
X29.5500 Z-32.0000
Y43.7250
X29.8875 Z-11.9299
X30.2250 Z-9.9197
X31.1250 Z-8.6436
X52.1625 Z-8.7204
X52.9500 Z-9.6133
X53.4000 Z-11.2137
X89.7375 Z-11.2335
X90.5250 Z-11.9285
X90.9750 Z-14.2318
X91.0875 Z-32.0000
X91.4250
X91.0875 Y44.1750
X90.7500
X90.6375 Z-15.7024
X90.5250 Z-14.2318
X89.8500 Z-12.9266
X53.4000 Z-12.9396
X52.7250 Z-10.2211
X52.0500 Z-9.5324
X51.6000
X31.4625 Z-9.5560
X30.7875 Z-9.9197
X30.2250 Z-11.0822
X29.8875 Z-14.2351
X29.5500 Z-32.0000
X29.6625 Y44.6250
X30.0000
X30.1125 Z-13.3655
X30.7875 Z-11.0822
X31.2375 Z-10.7597
X52.1625 Z-10.8037
X52.5000 Z-11.0822
X53.1750 Z-13.3655
X53.2875 Z-32.0000
X90.5250
G00 Z5.0000
X53.2875 Y45.0750
G01 Z-32.0000
X52.9500
X52.8375 Z-14.2351
X52.5000 Z-12.7895
X51.6000 Z-12.3278
X31.5750 Z-12.3425
X30.7875 Z-12.7895
X30.4500 Z-14.2351
X30.3375 Z-32.0000
X30.0000
X30.5625 Y45.5250
X52.7250
G00 Z5.0000
X12.0000 Y12.0000
X0.0000 Y0.0000
G0 Z100 x-100 Y100
M30
