E_HEAD(3678207,0,0,0,300,300,-40,71,17,1,20,0,1,20,,1,7,6,100,1,,1);*RO*
;*************************************
;Projekt schale_obere-haelfte
;Erstellt mit Estlcam Version 11 Build 11,244
;Laufzeit ca. 00:12:16 Stunden
;*************************************

T="Fräser 3mm" 
L6
S24000 F1200 M3


G00 Z5.0000
;*************************************
;Nr. 1 Konturfolgend schruppen: 
;*************************************
X-6.0000 Y-6.0000
G01 Z0.5000 F1200 S24000
Z-1.0000 F600
X55.0000 F1200
Y24.6000
X-6.0000
Y-6.0000
X-4.4000 Y-4.4000
X53.4000
Y23.0000
X-4.4000
Y-4.4000
Z-0.5000
X-2.4000 Y-2.4000
Z-1.0000 F600
X-3.8000 Y0.0000 F1200
X-3.2000 Y4.6000
X-1.2000 Y6.4000
X3.2000 Y6.8000
X6.0000 Y12.6000
X11.2000 Y18.0000
X16.4000 Y20.8000
X21.8000 Y22.2000
X27.2000
X30.8000 Y21.4000
X37.8000 Y18.0000
X43.0000 Y12.6000
X45.8000 Y6.8000
X50.2000 Y6.4000
X52.2000 Y4.6000
X52.8000 Y3.0000
X52.2000 Y-1.6000
X50.6000 Y-3.2000
X48.6000 Y-3.8000
X39.2000 Y-3.4000
X37.2000 Y-1.6000
X35.8000 Y4.8000
X32.4000 Y9.4000
X27.4000 Y12.0000
X22.8000 Y12.2000
X19.4000 Y11.2000
X15.2000 Y8.0000
X13.2000 Y4.8000
X12.2000 Y-0.8000
X10.2000 Y-3.2000
X8.2000 Y-3.8000
X0.4000
X-2.4000 Y-2.4000
X-1.0000 Y-1.6000
X-2.0000 Y-0.4000
X-2.2000 Y2.6000
X-0.8000 Y4.8000
X4.6000 Y5.2000
X7.0000 Y11.2000
X10.6000 Y15.4000
X16.2000 Y19.0000
X21.8000 Y20.6000
X30.0000 Y20.0000
X37.0000 Y16.6000
X42.0000 Y11.2000
X44.4000 Y5.2000
X48.6000
X50.8000 Y3.8000
X51.2000 Y0.4000
X49.8000 Y-1.8000
X40.8000 Y-2.2000
X39.6000 Y-1.8000
X38.4000 Y-0.4000
X37.4000 Y5.2000
X35.2000 Y8.8000
X30.4000 Y12.6000
X26.2000 Y13.8000
X20.8000 Y13.4000
X15.8000 Y10.8000
X12.4000 Y6.8000
X11.0000 Y3.4000
X10.6000 Y-0.4000
X9.4000 Y-1.8000
X0.4000 Y-2.2000
X-1.0000 Y-1.6000
Z1.0000
X-2.8000 Y7.6000
Z0.5000
Z-1.0000 F600
X2.0000 Y8.4000 F1200
X4.2000 Y12.8000
X6.4000 Y15.6000
X13.2000 Y21.4000
X-2.8000
Y7.6000
X-1.2000 Y9.6000
X1.0000 Y10.0000
X3.2000 Y14.2000
X8.0000 Y19.8000
X-1.2000
Y9.6000
Z-0.5000
X0.4000 Y13.2000
Z-1.0000 F600
X4.2000 Y18.2000 F1200
X0.4000
Y13.2000
Z1.0000
X14.8000 Y4.4000
Z0.5000
Z-1.0000 F600
X13.2000 Y-2.8000 F1200
X35.8000
X34.8000 Y2.6000
X33.0000 Y6.4000
X30.2000 Y9.0000
X26.2000 Y10.6000
X20.6000 Y10.0000
X16.6000 Y7.2000
X14.8000 Y4.4000
X16.2000 Y3.4000
X15.6000 Y-1.2000
X33.4000
X33.2000 Y2.2000
X31.6000 Y5.6000
X29.4000 Y7.6000
X26.2000 Y9.0000
X22.0000 Y8.8000
X18.2000 Y6.6000
X16.2000 Y3.4000
X18.0000 Y3.6000
X17.2000 Y0.4000
X31.8000
X30.2000 Y4.8000
X26.2000 Y7.4000
X22.8000
X19.8000 Y5.8000
X18.0000 Y3.6000
X19.8000 Y3.4000
X19.4000 Y2.0000
X29.6000
X28.8000 Y4.0000
X26.0000 Y5.8000
X23.0000
X21.2000 Y4.8000
X19.8000 Y3.4000
Z-0.5000
X23.2000 Y3.6000
Z-1.0000 F600
X25.8000 F1200
X25.6000 Y4.2000
X23.4000
X23.2000 Y3.6000
G00 Z5.0000
X35.8000 Y21.0000
G01 Z0.5000
Z-1.0000 F600
X38.6000 Y19.4000 F1200
X42.6000 Y15.6000
X44.8000 Y12.8000
X47.0000 Y8.4000
X51.2000 Y7.6000
X51.8000
Y21.4000
X35.8000 Y21.0000
Z-0.5000
X41.0000 Y19.8000
Z-1.0000 F600
X42.0000 Y18.4000 F1200
X45.8000 Y14.2000
X48.0000 Y10.0000
X49.6000 Y9.6000
X50.2000
Y19.8000
X41.0000
Z-0.5000
X44.8000 Y18.2000
Z-1.0000 F600
X45.6000 Y16.8000 F1200
X48.2000 Y13.2000
X48.6000 Y18.2000
X44.8000
Z-2.0000 F600
X45.6000 Y16.8000 F1200
X48.2000 Y13.2000
X48.6000 Y18.2000
X44.8000
Z-1.5000
X42.0000 Y18.4000
Z-2.0000 F600
X45.8000 Y14.2000 F1200
X48.0000 Y10.0000
X49.6000 Y9.6000
X50.2000
Y19.8000
X41.0000
X42.0000 Y18.4000
Z-1.5000
X42.6000 Y15.6000
Z-2.0000 F600
X44.8000 Y12.8000 F1200
X47.0000 Y8.4000
X51.2000 Y7.6000
X51.8000
Y21.4000
X35.8000 Y21.0000
X38.6000 Y19.4000
X42.6000 Y15.6000
Z-1.5000
X43.0000 Y12.6000
Z-2.0000 F600
X45.8000 Y6.8000 F1200
X50.2000 Y6.4000
X52.2000 Y4.6000
X52.8000 Y3.0000
X52.2000 Y-1.6000
X50.6000 Y-3.2000
X48.6000 Y-3.8000
X39.2000 Y-3.4000
X37.2000 Y-1.6000
X35.8000 Y4.8000
X32.4000 Y9.4000
X27.4000 Y12.0000
X22.8000 Y12.2000
X19.4000 Y11.2000
X15.2000 Y8.0000
X13.2000 Y4.8000
X12.2000 Y-0.8000
X10.2000 Y-3.2000
X8.2000 Y-3.8000
X0.4000
X-2.4000 Y-2.4000
X-3.8000 Y0.0000
X-3.2000 Y4.6000
X-1.2000 Y6.4000
X3.2000 Y6.8000
X6.0000 Y12.6000
X11.2000 Y18.0000
X16.4000 Y20.8000
X21.8000 Y22.2000
X27.2000
X30.8000 Y21.4000
X37.8000 Y18.0000
X43.0000 Y12.6000
X42.0000 Y11.2000
X44.4000 Y5.2000
X48.6000
X50.8000 Y3.8000
X51.2000 Y0.4000
X49.8000 Y-1.8000
X40.8000 Y-2.2000
X39.6000 Y-1.8000
X38.4000 Y-0.4000
X37.4000 Y5.2000
X35.2000 Y8.8000
X30.4000 Y12.6000
X26.2000 Y13.8000
X20.8000 Y13.4000
X15.8000 Y10.8000
X12.4000 Y6.8000
X11.0000 Y3.4000
X10.6000 Y-0.4000
X9.4000 Y-1.8000
X0.4000 Y-2.2000
X-1.0000 Y-1.6000
X-2.0000 Y-0.4000
X-2.2000 Y2.6000
X-0.8000 Y4.8000
X4.6000 Y5.2000
X7.0000 Y11.2000
X10.6000 Y15.4000
X16.2000 Y19.0000
X21.8000 Y20.6000
X30.0000 Y20.0000
X37.0000 Y16.6000
X42.0000 Y11.2000
Z1.0000
X33.0000 Y6.4000
Z-0.5000
Z-2.0000 F600
X30.2000 Y9.0000 F1200
X26.2000 Y10.6000
X20.6000 Y10.0000
X16.6000 Y7.2000
X14.8000 Y4.4000
X13.2000 Y-2.8000
X35.8000
X34.8000 Y2.6000
X33.0000 Y6.4000
X31.6000 Y5.6000
X29.4000 Y7.6000
X26.2000 Y9.0000
X22.0000 Y8.8000
X18.2000 Y6.6000
X16.2000 Y3.4000
X15.6000 Y-1.2000
X33.4000
X33.2000 Y2.2000
X31.6000 Y5.6000
X30.2000 Y4.8000
X26.2000 Y7.4000
X22.8000
X19.8000 Y5.8000
X18.0000 Y3.6000
X17.2000 Y0.4000
X31.8000
X30.2000 Y4.8000
X28.8000 Y4.0000
X26.0000 Y5.8000
X23.0000
X21.2000 Y4.8000
X19.8000 Y3.4000
X19.4000 Y2.0000
X29.6000
X28.8000 Y4.0000
Z-1.5000
X25.8000 Y3.6000
Z-2.0000 F600
X25.6000 Y4.2000 F1200
X23.4000
X23.2000 Y3.6000
X25.8000
G00 Z5.0000
X53.4000 Y-4.4000
G01 Z-0.5000
Z-2.0000 F600
Y23.0000 F1200
X-4.4000
Y-4.4000
X53.4000
X55.0000 Y-6.0000
Y24.6000
X-6.0000
Y-6.0000
X55.0000
G00 Z5.0000
X13.2000 Y21.4000
G01 Z-0.5000
Z-2.0000 F600
X-2.8000 F1200
Y7.6000
X2.0000 Y8.4000
X4.2000 Y12.8000
X6.4000 Y15.6000
X13.2000 Y21.4000
Z-1.5000
X8.0000 Y19.8000
Z-2.0000 F600
X-1.2000 F1200
Y9.6000
X1.0000 Y10.0000
X3.2000 Y14.2000
X8.0000 Y19.8000
Z-1.5000
X4.2000 Y18.2000
Z-2.0000 F600
X0.4000 F1200
Y13.2000
X4.2000 Y18.2000
Z-3.0000 F600
X0.4000 F1200
Y13.2000
X4.2000 Y18.2000
Z-2.5000
X3.2000 Y14.2000
Z-3.0000 F600
X8.0000 Y19.8000 F1200
X-1.2000
Y9.6000
X1.0000 Y10.0000
X3.2000 Y14.2000
X4.2000 Y12.8000
X6.4000 Y15.6000
X13.2000 Y21.4000
X-2.8000
Y7.6000
X2.0000 Y8.4000
X4.2000 Y12.8000
X6.0000 Y12.6000
X11.2000 Y18.0000
X16.4000 Y20.8000
X21.8000 Y22.2000
X27.2000
X30.8000 Y21.4000
X37.8000 Y18.0000
X43.0000 Y12.6000
X45.8000 Y6.8000
X50.2000 Y6.4000
X52.2000 Y4.6000
X52.8000 Y3.0000
X52.2000 Y-1.6000
X50.6000 Y-3.2000
X48.6000 Y-3.8000
X39.2000 Y-3.4000
X37.2000 Y-1.6000
X35.8000 Y4.8000
X32.4000 Y9.4000
X27.4000 Y12.0000
X22.8000 Y12.2000
X19.4000 Y11.2000
X15.2000 Y8.0000
X13.2000 Y4.8000
X12.2000 Y-0.8000
X10.2000 Y-3.2000
X8.2000 Y-3.8000
X0.4000
X-2.4000 Y-2.4000
X-3.8000 Y0.0000
X-3.2000 Y4.6000
X-1.2000 Y6.4000
X3.2000 Y6.8000
X6.0000 Y12.6000
X7.0000 Y11.2000
X10.6000 Y15.4000
X16.2000 Y19.0000
X21.8000 Y20.6000
X30.0000 Y20.0000
X37.0000 Y16.6000
X42.0000 Y11.2000
X44.4000 Y5.2000
X48.6000
X50.8000 Y3.8000
X51.2000 Y0.4000
X49.8000 Y-1.8000
X40.8000 Y-2.2000
X39.6000 Y-1.8000
X38.4000 Y-0.4000
X37.4000 Y5.2000
X35.2000 Y8.8000
X30.4000 Y12.6000
X26.2000 Y13.8000
X20.8000 Y13.4000
X15.8000 Y10.8000
X12.4000 Y6.8000
X11.0000 Y3.4000
X10.6000 Y-0.4000
X9.4000 Y-1.8000
X0.4000 Y-2.2000
X-1.0000 Y-1.6000
X-2.0000 Y-0.4000
X-2.2000 Y2.6000
X-0.8000 Y4.8000
X4.6000 Y5.2000
X7.0000 Y11.2000
Z1.0000
X14.8000 Y4.4000
Z-1.5000
Z-3.0000 F600
X13.2000 Y-2.8000 F1200
X35.8000
X34.8000 Y2.6000
X33.0000 Y6.4000
X30.2000 Y9.0000
X26.2000 Y10.6000
X20.6000 Y10.0000
X16.6000 Y7.2000
X14.8000 Y4.4000
X16.2000 Y3.4000
X15.6000 Y-1.2000
X33.4000
X33.2000 Y2.2000
X31.6000 Y5.6000
X29.4000 Y7.6000
X26.2000 Y9.0000
X22.0000 Y8.8000
X18.2000 Y6.6000
X16.2000 Y3.4000
X18.0000 Y3.6000
X17.2000 Y0.4000
X31.8000
X30.2000 Y4.8000
X26.2000 Y7.4000
X22.8000
X19.8000 Y5.8000
X18.0000 Y3.6000
X19.8000 Y3.4000
X19.4000 Y2.0000
X29.6000
X28.8000 Y4.0000
X26.0000 Y5.8000
X23.0000
X21.2000 Y4.8000
X19.8000 Y3.4000
Z-2.5000
X23.2000 Y3.6000
Z-3.0000 F600
X25.8000 F1200
X25.6000 Y4.2000
X23.4000
X23.2000 Y3.6000
G00 Z5.0000
X-4.4000 Y-4.4000
G01 Z-1.5000
Z-3.0000 F600
X53.4000 F1200
Y23.0000
X-4.4000
Y-4.4000
X-6.0000 Y-6.0000
X55.0000
Y24.6000
X-6.0000
Y-6.0000
G00 Z5.0000
X35.8000 Y21.0000
G01 Z-1.5000
Z-3.0000 F600
X38.6000 Y19.4000 F1200
X42.6000 Y15.6000
X44.8000 Y12.8000
X47.0000 Y8.4000
X51.2000 Y7.6000
X51.8000
Y21.4000
X35.8000 Y21.0000
Z-2.5000
X41.0000 Y19.8000
Z-3.0000 F600
X42.0000 Y18.4000 F1200
X45.8000 Y14.2000
X48.0000 Y10.0000
X49.6000 Y9.6000
X50.2000
Y19.8000
X41.0000
Z-2.5000
X44.8000 Y18.2000
Z-3.0000 F600
X45.6000 Y16.8000 F1200
X48.2000 Y13.2000
X48.6000 Y18.2000
X44.8000
Z-4.0000 F600
X45.6000 Y16.8000 F1200
X48.2000 Y13.2000
X48.6000 Y18.2000
X44.8000
Z-3.5000
X42.0000 Y18.4000
Z-4.0000 F600
X45.8000 Y14.2000 F1200
X48.0000 Y10.0000
X49.6000 Y9.6000
X50.2000
Y19.8000
X41.0000
X42.0000 Y18.4000
Z-3.5000
X42.6000 Y15.6000
Z-4.0000 F600
X44.8000 Y12.8000 F1200
X47.0000 Y8.4000
X51.2000 Y7.6000
X51.8000
Y21.4000
X35.8000 Y21.0000
X38.6000 Y19.4000
X42.6000 Y15.6000
Z-3.5000
X43.0000 Y12.6000
Z-4.0000 F600
X45.8000 Y6.8000 F1200
X50.2000 Y6.4000
X52.2000 Y4.6000
X52.8000 Y3.0000
X52.2000 Y-1.6000
X50.6000 Y-3.2000
X48.6000 Y-3.8000
X39.2000 Y-3.4000
X37.2000 Y-1.6000
X35.8000 Y4.8000
X32.4000 Y9.4000
X27.4000 Y12.0000
X22.8000 Y12.2000
X19.4000 Y11.2000
X15.2000 Y8.0000
X13.2000 Y4.8000
X12.2000 Y-0.8000
X10.2000 Y-3.2000
X8.2000 Y-3.8000
X0.4000
X-2.4000 Y-2.4000
X-3.8000 Y0.0000
X-3.2000 Y4.6000
X-1.2000 Y6.4000
X3.2000 Y6.8000
X6.0000 Y12.6000
X11.2000 Y18.0000
X16.4000 Y20.8000
X21.8000 Y22.2000
X27.2000
X30.8000 Y21.4000
X37.8000 Y18.0000
X43.0000 Y12.6000
X42.0000 Y11.2000
X44.4000 Y5.2000
X48.6000
X50.8000 Y3.8000
X51.2000 Y0.4000
X49.8000 Y-1.8000
X40.8000 Y-2.2000
X39.6000 Y-1.8000
X38.4000 Y-0.4000
X37.4000 Y5.2000
X35.2000 Y8.8000
X30.4000 Y12.6000
X26.2000 Y13.8000
X20.8000 Y13.4000
X15.8000 Y10.8000
X12.4000 Y6.8000
X11.0000 Y3.4000
X10.6000 Y-0.4000
X9.4000 Y-1.8000
X0.4000 Y-2.2000
X-1.0000 Y-1.6000
X-2.0000 Y-0.4000
X-2.2000 Y2.6000
X-0.8000 Y4.8000
X4.6000 Y5.2000
X7.0000 Y11.2000
X10.6000 Y15.4000
X16.2000 Y19.0000
X21.8000 Y20.6000
X30.0000 Y20.0000
X37.0000 Y16.6000
X42.0000 Y11.2000
Z1.0000
X33.0000 Y6.4000
Z-2.5000
Z-4.0000 F600
X30.2000 Y9.0000 F1200
X26.2000 Y10.6000
X20.6000 Y10.0000
X16.6000 Y7.2000
X14.8000 Y4.4000
X13.2000 Y-2.8000
X35.8000
X34.8000 Y2.6000
X33.0000 Y6.4000
X31.6000 Y5.6000
X29.4000 Y7.6000
X26.2000 Y9.0000
X22.0000 Y8.8000
X18.2000 Y6.6000
X16.2000 Y3.4000
X15.6000 Y-1.2000
X33.4000
X33.2000 Y2.2000
X31.6000 Y5.6000
X30.2000 Y4.8000
X26.2000 Y7.4000
X22.8000
X19.8000 Y5.8000
X18.0000 Y3.6000
X17.2000 Y0.4000
X31.8000
X30.2000 Y4.8000
X28.8000 Y4.0000
X26.0000 Y5.8000
X23.0000
X21.2000 Y4.8000
X19.8000 Y3.4000
X19.4000 Y2.0000
X29.6000
X28.8000 Y4.0000
Z-3.5000
X25.8000 Y3.6000
Z-4.0000 F600
X25.6000 Y4.2000 F1200
X23.4000
X23.2000 Y3.6000
X25.8000
G00 Z5.0000
X53.4000 Y-4.4000
G01 Z-2.5000
Z-4.0000 F600
Y23.0000 F1200
X-4.4000
Y-4.4000
X53.4000
X55.0000 Y-6.0000
Y24.6000
X-6.0000
Y-6.0000
X55.0000
G00 Z5.0000
X13.2000 Y21.4000
G01 Z-2.5000
Z-4.0000 F600
X-2.8000 F1200
Y7.6000
X2.0000 Y8.4000
X4.2000 Y12.8000
X6.4000 Y15.6000
X13.2000 Y21.4000
Z-3.5000
X8.0000 Y19.8000
Z-4.0000 F600
X-1.2000 F1200
Y9.6000
X1.0000 Y10.0000
X3.2000 Y14.2000
X8.0000 Y19.8000
Z-3.5000
X4.2000 Y18.2000
Z-4.0000 F600
X0.4000 F1200
Y13.2000
X4.2000 Y18.2000
Z-5.0000 F600
X0.4000 F1200
Y13.2000
X4.2000 Y18.2000
Z-4.5000
X3.2000 Y14.2000
Z-5.0000 F600
X8.0000 Y19.8000 F1200
X-1.2000
Y9.6000
X1.0000 Y10.0000
X3.2000 Y14.2000
X4.2000 Y12.8000
X6.4000 Y15.6000
X13.2000 Y21.4000
X-2.8000
Y7.6000
X2.0000 Y8.4000
X4.2000 Y12.8000
X6.0000 Y12.6000
X11.2000 Y18.0000
X16.4000 Y20.8000
X21.8000 Y22.2000
X27.2000
X30.8000 Y21.4000
X37.8000 Y18.0000
X43.0000 Y12.6000
X45.8000 Y6.8000
X50.2000 Y6.4000
X52.2000 Y4.6000
X52.8000 Y3.0000
X52.2000 Y-1.6000
X50.6000 Y-3.2000
X48.6000 Y-3.8000
X39.2000 Y-3.4000
X37.2000 Y-1.6000
X35.8000 Y4.8000
X32.4000 Y9.4000
X27.4000 Y12.0000
X22.8000 Y12.2000
X19.4000 Y11.2000
X15.2000 Y8.0000
X13.2000 Y4.8000
X12.2000 Y-0.8000
X10.2000 Y-3.2000
X8.2000 Y-3.8000
X0.4000
X-2.4000 Y-2.4000
X-3.8000 Y0.0000
X-3.2000 Y4.6000
X-1.2000 Y6.4000
X3.2000 Y6.8000
X6.0000 Y12.6000
X7.0000 Y11.2000
X10.6000 Y15.4000
X16.2000 Y19.0000
X21.8000 Y20.6000
X30.0000 Y20.0000
X37.0000 Y16.6000
X42.0000 Y11.2000
X44.4000 Y5.2000
X48.6000
X50.8000 Y3.8000
X51.2000 Y0.4000
X49.8000 Y-1.8000
X40.8000 Y-2.2000
X39.6000 Y-1.8000
X38.4000 Y-0.4000
X37.4000 Y5.2000
X35.2000 Y8.8000
X30.4000 Y12.6000
X26.2000 Y13.8000
X20.8000 Y13.4000
X15.8000 Y10.8000
X12.4000 Y6.8000
X11.0000 Y3.4000
X10.6000 Y-0.4000
X9.4000 Y-1.8000
X0.4000 Y-2.2000
X-1.0000 Y-1.6000
X-2.0000 Y-0.4000
X-2.2000 Y2.6000
X-0.8000 Y4.8000
X4.6000 Y5.2000
X7.0000 Y11.2000
Z1.0000
X14.8000 Y4.4000
Z-3.5000
Z-5.0000 F600
X13.2000 Y-2.8000 F1200
X35.8000
X34.8000 Y2.6000
X33.0000 Y6.4000
X30.2000 Y9.0000
X26.2000 Y10.6000
X20.6000 Y10.0000
X16.6000 Y7.2000
X14.8000 Y4.4000
X16.2000 Y3.4000
X15.6000 Y-1.2000
X33.4000
X33.2000 Y2.2000
X31.6000 Y5.6000
X29.4000 Y7.6000
X26.2000 Y9.0000
X22.0000 Y8.8000
X18.2000 Y6.6000
X16.2000 Y3.4000
X18.0000 Y3.6000
X17.2000 Y0.4000
X31.8000
X30.2000 Y4.8000
X26.2000 Y7.4000
X22.8000
X19.8000 Y5.8000
X18.0000 Y3.6000
X19.8000 Y3.4000
X19.4000 Y2.0000
X29.6000
X28.8000 Y4.0000
X26.0000 Y5.8000
X23.0000
X21.2000 Y4.8000
X19.8000 Y3.4000
Z-4.5000
X23.2000 Y3.6000
Z-5.0000 F600
X25.8000 F1200
X25.6000 Y4.2000
X23.4000
X23.2000 Y3.6000
G00 Z5.0000
X-4.4000 Y-4.4000
G01 Z-3.5000
Z-5.0000 F600
X53.4000 F1200
Y23.0000
X-4.4000
Y-4.4000
X-6.0000 Y-6.0000
X55.0000
Y24.6000
X-6.0000
Y-6.0000
G00 Z5.0000
X35.8000 Y21.0000
G01 Z-3.5000
Z-5.0000 F600
X38.6000 Y19.4000 F1200
X42.6000 Y15.6000
X44.8000 Y12.8000
X47.0000 Y8.4000
X51.2000 Y7.6000
X51.8000
Y21.4000
X35.8000 Y21.0000
Z-4.5000
X41.0000 Y19.8000
Z-5.0000 F600
X42.0000 Y18.4000 F1200
X45.8000 Y14.2000
X48.0000 Y10.0000
X49.6000 Y9.6000
X50.2000
Y19.8000
X41.0000
Z-4.5000
X44.8000 Y18.2000
Z-5.0000 F600
X45.6000 Y16.8000 F1200
X48.2000 Y13.2000
X48.6000 Y18.2000
X44.8000
Z-6.0000 F600
X45.6000 Y16.8000 F1200
X48.2000 Y13.2000
X48.6000 Y18.2000
X44.8000
Z-5.5000
X42.0000 Y18.4000
Z-6.0000 F600
X45.8000 Y14.2000 F1200
X48.0000 Y10.0000
X49.6000 Y9.6000
X50.2000
Y19.8000
X41.0000
X42.0000 Y18.4000
Z-5.5000
X42.6000 Y15.6000
Z-6.0000 F600
X44.8000 Y12.8000 F1200
X47.0000 Y8.4000
X51.2000 Y7.6000
X51.8000
Y21.4000
X35.8000 Y21.0000
X38.6000 Y19.4000
X42.6000 Y15.6000
Z-5.5000
X43.0000 Y12.6000
Z-6.0000 F600
X45.8000 Y6.8000 F1200
X50.2000 Y6.4000
X52.2000 Y4.6000
X52.8000 Y3.0000
X52.2000 Y-1.6000
X50.6000 Y-3.2000
X48.6000 Y-3.8000
X39.2000 Y-3.4000
X37.2000 Y-1.6000
X35.8000 Y4.8000
X32.4000 Y9.4000
X27.4000 Y12.0000
X22.8000 Y12.2000
X19.4000 Y11.2000
X15.2000 Y8.0000
X13.2000 Y4.8000
X12.2000 Y-0.8000
X10.2000 Y-3.2000
X8.2000 Y-3.8000
X0.4000
X-2.4000 Y-2.4000
X-3.8000 Y0.0000
X-3.2000 Y4.6000
X-1.2000 Y6.4000
X3.2000 Y6.8000
X6.0000 Y12.6000
X11.2000 Y18.0000
X16.4000 Y20.8000
X21.8000 Y22.2000
X27.2000
X30.8000 Y21.4000
X37.8000 Y18.0000
X43.0000 Y12.6000
X42.0000 Y11.2000
X44.4000 Y5.2000
X48.6000
X50.8000 Y3.8000
X51.2000 Y0.4000
X49.8000 Y-1.8000
X40.8000 Y-2.2000
X39.6000 Y-1.8000
X38.4000 Y-0.4000
X37.4000 Y5.2000
X35.2000 Y8.8000
X30.4000 Y12.6000
X26.2000 Y13.8000
X20.8000 Y13.4000
X15.8000 Y10.8000
X12.4000 Y6.8000
X11.0000 Y3.4000
X10.6000 Y-0.4000
X9.4000 Y-1.8000
X0.4000 Y-2.2000
X-1.0000 Y-1.6000
X-2.0000 Y-0.4000
X-2.2000 Y2.6000
X-0.8000 Y4.8000
X4.6000 Y5.2000
X7.0000 Y11.2000
X10.6000 Y15.4000
X16.2000 Y19.0000
X21.8000 Y20.6000
X30.0000 Y20.0000
X37.0000 Y16.6000
X42.0000 Y11.2000
Z1.0000
X33.0000 Y6.4000
Z-4.5000
Z-6.0000 F600
X30.2000 Y9.0000 F1200
X26.2000 Y10.6000
X20.6000 Y10.0000
X16.6000 Y7.2000
X14.8000 Y4.4000
X13.2000 Y-2.8000
X35.8000
X34.8000 Y2.6000
X33.0000 Y6.4000
X31.6000 Y5.6000
X29.4000 Y7.6000
X26.2000 Y9.0000
X22.0000 Y8.8000
X18.2000 Y6.6000
X16.2000 Y3.4000
X15.6000 Y-1.2000
X33.4000
X33.2000 Y2.2000
X31.6000 Y5.6000
X30.2000 Y4.8000
X26.2000 Y7.4000
X22.8000
X19.8000 Y5.8000
X18.0000 Y3.6000
X17.2000 Y0.4000
X31.8000
X30.2000 Y4.8000
X28.8000 Y4.0000
X26.0000 Y5.8000
X23.0000
X21.2000 Y4.8000
X19.8000 Y3.4000
X19.4000 Y2.0000
X29.6000
X28.8000 Y4.0000
Z-5.5000
X25.8000 Y3.6000
Z-6.0000 F600
X25.6000 Y4.2000 F1200
X23.4000
X23.2000 Y3.6000
X25.8000
G00 Z5.0000
X53.4000 Y-4.4000
G01 Z-4.5000
Z-6.0000 F600
Y23.0000 F1200
X-4.4000
Y-4.4000
X53.4000
X55.0000 Y-6.0000
Y24.6000
X-6.0000
Y-6.0000
X55.0000
G00 Z5.0000
X13.2000 Y21.4000
G01 Z-4.5000
Z-6.0000 F600
X-2.8000 F1200
Y7.6000
X2.0000 Y8.4000
X4.2000 Y12.8000
X6.4000 Y15.6000
X13.2000 Y21.4000
Z-5.5000
X8.0000 Y19.8000
Z-6.0000 F600
X-1.2000 F1200
Y9.6000
X1.0000 Y10.0000
X3.2000 Y14.2000
X8.0000 Y19.8000
Z-5.5000
X4.2000 Y18.2000
Z-6.0000 F600
X0.4000 F1200
Y13.2000
X4.2000 Y18.2000
Z-7.0000 F600
X0.4000 F1200
Y13.2000
X4.2000 Y18.2000
Z-6.5000
X3.2000 Y14.2000
Z-7.0000 F600
X8.0000 Y19.8000 F1200
X-1.2000
Y9.6000
X1.0000 Y10.0000
X3.2000 Y14.2000
X4.2000 Y12.8000
X6.4000 Y15.6000
X13.2000 Y21.4000
X-2.8000
Y7.6000
X2.0000 Y8.4000
X4.2000 Y12.8000
X6.0000 Y12.6000
X11.2000 Y18.0000
X16.4000 Y20.8000
X21.8000 Y22.2000
X27.2000
X30.8000 Y21.4000
X37.8000 Y18.0000
X43.0000 Y12.6000
X45.8000 Y6.8000
X50.2000 Y6.4000
X52.2000 Y4.6000
X52.8000 Y3.0000
X52.2000 Y-1.6000
X50.6000 Y-3.2000
X48.6000 Y-3.8000
X39.2000 Y-3.4000
X37.2000 Y-1.6000
X35.8000 Y4.8000
X32.4000 Y9.4000
X27.4000 Y12.0000
X22.8000 Y12.2000
X19.4000 Y11.2000
X15.2000 Y8.0000
X13.2000 Y4.8000
X12.2000 Y-0.8000
X10.2000 Y-3.2000
X8.2000 Y-3.8000
X0.4000
X-2.4000 Y-2.4000
X-3.8000 Y0.0000
X-3.2000 Y4.6000
X-1.2000 Y6.4000
X3.2000 Y6.8000
X6.0000 Y12.6000
X7.0000 Y11.2000
X10.6000 Y15.4000
X16.2000 Y19.0000
X21.8000 Y20.6000
X30.0000 Y20.0000
X37.0000 Y16.6000
X42.0000 Y11.2000
X44.4000 Y5.2000
X48.6000
X50.8000 Y3.8000
X51.2000 Y0.4000
X49.8000 Y-1.8000
X40.8000 Y-2.2000
X39.6000 Y-1.8000
X38.4000 Y-0.4000
X37.4000 Y5.2000
X35.2000 Y8.8000
X30.4000 Y12.6000
X26.2000 Y13.8000
X20.8000 Y13.4000
X15.8000 Y10.8000
X12.4000 Y6.8000
X11.0000 Y3.4000
X10.6000 Y-0.4000
X9.4000 Y-1.8000
X0.4000 Y-2.2000
X-1.0000 Y-1.6000
X-2.0000 Y-0.4000
X-2.2000 Y2.6000
X-0.8000 Y4.8000
X4.6000 Y5.2000
X7.0000 Y11.2000
Z1.0000
X14.8000 Y4.4000
Z-5.5000
Z-7.0000 F600
X13.2000 Y-2.8000 F1200
X35.8000
X34.8000 Y2.6000
X33.0000 Y6.4000
X30.2000 Y9.0000
X26.2000 Y10.6000
X20.6000 Y10.0000
X16.6000 Y7.2000
X14.8000 Y4.4000
X16.2000 Y3.4000
X15.6000 Y-1.2000
X33.4000
X33.2000 Y2.2000
X31.6000 Y5.6000
X29.4000 Y7.6000
X26.2000 Y9.0000
X22.0000 Y8.8000
X18.2000 Y6.6000
X16.2000 Y3.4000
X18.0000 Y3.6000
X17.2000 Y0.4000
X31.8000
X30.2000 Y4.8000
X26.2000 Y7.4000
X22.8000
X19.8000 Y5.8000
X18.0000 Y3.6000
X19.8000 Y3.4000
X19.4000 Y2.0000
X29.6000
X28.8000 Y4.0000
X26.0000 Y5.8000
X23.0000
X21.2000 Y4.8000
X19.8000 Y3.4000
Z-6.5000
X23.2000 Y3.6000
Z-7.0000 F600
X25.8000 F1200
X25.6000 Y4.2000
X23.4000
X23.2000 Y3.6000
G00 Z5.0000
X-4.4000 Y-4.4000
G01 Z-5.5000
Z-7.0000 F600
X53.4000 F1200
Y23.0000
X-4.4000
Y-4.4000
X-6.0000 Y-6.0000
X55.0000
Y24.6000
X-6.0000
Y-6.0000
G00 Z5.0000
X35.8000 Y21.0000
G01 Z-5.5000
Z-7.0000 F600
X38.6000 Y19.4000 F1200
X42.6000 Y15.6000
X44.8000 Y12.8000
X47.0000 Y8.4000
X51.2000 Y7.6000
X51.8000
Y21.4000
X35.8000 Y21.0000
Z-6.5000
X41.0000 Y19.8000
Z-7.0000 F600
X42.0000 Y18.4000 F1200
X45.8000 Y14.2000
X48.0000 Y10.0000
X49.6000 Y9.6000
X50.2000
Y19.8000
X41.0000
Z-6.5000
X44.8000 Y18.2000
Z-7.0000 F600
X45.6000 Y16.8000 F1200
X48.2000 Y13.2000
X48.6000 Y18.2000
X44.8000
G00 Z5.0000
X0.0000 Y0.0000
;*************************************
;Nr. 2 Konturfolgend schlichten: 
;*************************************
G01 X-0.2250 Y0.0000 Z5.0000 F1200
Z0.9500
Z0.0000 F600
X0.2250 Y-0.3375 F1200
X8.3250
X8.8875 Y0.4500
X9.1125 Y3.1500
X10.0125 Y6.0750
X12.0375 Y9.5625
X14.0625 Y11.7000
X16.3125 Y13.3875
X18.6750 Y14.5125
X21.6000 Y15.4125
X25.8750 Y15.6375
X29.0250 Y14.9625
X31.8375 Y13.8375
X34.3125 Y12.2625
X36.5625 Y10.0125
X39.2625 Y5.4000
X40.5000 Y-0.2250
X48.8250 Y-0.3375
X49.3875 Y0.4500
X49.1625 Y3.0375
X48.7125 Y3.3750
X43.4250 Y3.6000
X42.7500 Y4.5000
X40.9500 Y9.3375
X39.2625 Y11.8125
X37.1250 Y14.0625
X34.0875 Y16.3125
X31.3875 Y17.6625
X26.7750 Y18.7875
X22.2750
X19.8000 Y18.3375
X16.8750 Y17.3250
X13.3875 Y15.3000
X10.1250 Y12.2625
X8.5500 Y10.1250
X7.2000 Y7.5375
X5.9625 Y3.9375
X4.9500 Y3.3750
X0.3375
X-0.3375 Y2.7000
X-0.2250 Y0.0000
X-0.7875 Y-0.1125
X0.1125 Y-0.9000
X8.6625 Y-0.7875
X9.4500 Y0.3375
X9.5625 Y2.4750
X10.5750 Y5.9625
X12.4875 Y9.2250
X14.4000 Y11.2500
X16.6500 Y12.9375
X19.3500 Y14.1750
X23.1750 Y15.0750
X25.8750
X29.0250 Y14.4000
X31.5000 Y13.3875
X33.9750 Y11.8125
X36.1125 Y9.6750
X38.7000 Y5.2875
X39.3750 Y2.8125
X39.6000 Y0.2250
X40.1625 Y-0.6750
X49.1625 Y-0.7875
X49.9500 Y0.3375
X49.7250 Y3.2625
X48.8250 Y3.9375
X43.7625 Y4.0500
X41.4000 Y9.6750
X39.7125 Y12.1500
X37.4625 Y14.5125
X34.4250 Y16.7625
X31.7250 Y18.1125
X26.7750 Y19.3500
X22.2750
X19.8000 Y18.9000
X16.5375 Y17.7750
X13.0500 Y15.7500
X9.6750 Y12.6000
X8.1000 Y10.4625
X5.2875 Y4.0500
X0.2250 Y3.9375
X-0.7875 Y3.1500
Y-0.1125
Z0.5000
X0.2250 Y0.4500
Z0.0000 F600
X8.1000 Y0.2250 F1200
X8.5500 Y3.2625
X9.4500 Y6.1875
X11.5875 Y9.9000
X13.7250 Y12.1500
X15.9750 Y13.8375
X18.6750 Y15.0750
X21.6000 Y15.9750
X25.8750 Y16.2000
X29.0250 Y15.5250
X32.1750 Y14.2875
X34.6500 Y12.7125
X37.0125 Y10.3500
X39.8250 Y5.5125
X40.8375 Y0.2250
X48.6000
X48.8250 Y0.5625
X48.6000 Y2.8125
X44.1000
X42.5250 Y3.7125
X41.0625 Y7.8750
X39.7125 Y10.2375
X38.0250 Y12.3750
X35.4375 Y14.7375
X31.0500 Y17.2125
X26.7750 Y18.2250
X22.2750
X19.8000 Y17.7750
X17.2125 Y16.8750
X13.7250 Y14.8500
X10.5750 Y11.9250
X9.0000 Y9.7875
X7.7625 Y7.4250
X6.4125 Y3.6000
X4.9500 Y2.8125
X0.3375 Y2.7000
X0.2250 Y0.4500
X0.7875 Y0.7875
X7.7625
X7.9875 Y3.3750
X8.8875 Y6.3000
X10.2375 Y8.8875
X11.9250 Y11.1375
X14.0625 Y13.1625
X16.8750 Y14.9625
X23.1750 Y16.7625
X25.8750
X29.0250 Y16.0875
X31.8375 Y15.0750
X34.9875 Y13.1625
X37.4625 Y10.6875
X39.1500 Y8.2125
X40.6125 Y4.9500
X41.2875 Y0.7875
X48.2625
Y2.2500
X44.1000
X42.7500 Y2.7000
X42.0750 Y3.3750
X40.5000 Y7.7625
X39.2625 Y9.9000
X37.5750 Y12.0375
X35.1000 Y14.2875
X30.7125 Y16.7625
X26.7750 Y17.6625
X20.7000 Y17.4375
X18.3375 Y16.7625
X15.4125 Y15.3000
X12.9375 Y13.5000
X9.9000 Y10.1250
X8.6625 Y8.1000
X7.3125 Y4.1625
X6.3000 Y2.7000
X4.9500 Y2.2500
X0.7875
Y0.7875
X1.3500 Y1.3500
X7.2000
X7.3125 Y2.7000
X4.9500 Y1.6875
X1.3500
Y1.3500
G00 Z5.0000
X41.6250 Y2.8125
G01 Z0.9500
Z0.0000 F600
X41.8500 Y1.3500 F1200
X47.7000
Y1.6875
X44.1000
X42.4125 Y2.2500
X41.8500 Y2.8125
X41.6250
Z0.5000
X38.8125 Y2.7000
Z-0.4490 F600
X39.0375 Y0.1125 F1200
X39.8250 Y-1.1250
X40.6125 Y-1.4625
X49.5000 Y-1.2375
X50.5125 Y0.2250
Y2.7000
X49.6125 Y4.1625
X48.8250 Y4.5000
X44.1000
X41.8500 Y10.0125
X40.1625 Y12.4875
X37.8000 Y14.9625
X34.7625 Y17.2125
X32.0625 Y18.5625
X26.7750 Y19.9125
X22.2750
X19.8000 Y19.4625
X16.2000 Y18.2250
X12.7125 Y16.2000
X9.2250 Y12.9375
X7.6500 Y10.8000
X6.0750 Y7.7625
X4.9500 Y4.5000
X0.2250
X-1.2375 Y3.4875
X-1.4625 Y0.1125
X-1.0125 Y-0.7875
X0.1125 Y-1.4625
X9.0000 Y-1.2375
X10.0125 Y0.2250
X10.1250 Y2.3625
X11.1375 Y5.8500
X12.9375 Y8.8875
X14.7375 Y10.8000
X16.9875 Y12.4875
X19.3500 Y13.6125
X23.1750 Y14.5125
X25.8750
X29.0250 Y13.8375
X31.1625 Y12.9375
X33.6375 Y11.3625
X35.6625 Y9.3375
X38.1375 Y5.1750
X38.8125 Y2.7000
Z-0.8990 F600
X39.0375 Y0.1125 F1200
X39.8250 Y-1.1250
X40.6125 Y-1.4625
X49.5000 Y-1.2375
X50.5125 Y0.2250
Y2.7000
X49.6125 Y4.1625
X48.8250 Y4.5000
X44.1000
X41.8500 Y10.0125
X40.1625 Y12.4875
X37.8000 Y14.9625
X34.7625 Y17.2125
X32.0625 Y18.5625
X26.7750 Y19.9125
X22.2750
X19.8000 Y19.4625
X16.2000 Y18.2250
X12.7125 Y16.2000
X9.2250 Y12.9375
X7.6500 Y10.8000
X6.0750 Y7.7625
X4.9500 Y4.5000
X0.2250
X-1.2375 Y3.4875
X-1.4625 Y0.1125
X-1.0125 Y-0.7875
X0.1125 Y-1.4625
X9.0000 Y-1.2375
X10.0125 Y0.2250
X10.1250 Y2.3625
X11.1375 Y5.8500
X12.9375 Y8.8875
X14.7375 Y10.8000
X16.9875 Y12.4875
X19.3500 Y13.6125
X23.1750 Y14.5125
X25.8750
X29.0250 Y13.8375
X31.1625 Y12.9375
X33.6375 Y11.3625
X35.6625 Y9.3375
X38.1375 Y5.1750
X38.8125 Y2.7000
Z-1.3490 F600
X39.0375 Y0.1125 F1200
X39.8250 Y-1.1250
X40.6125 Y-1.4625
X49.5000 Y-1.2375
X50.5125 Y0.2250
Y2.7000
X49.6125 Y4.1625
X48.8250 Y4.5000
X44.1000
X41.8500 Y10.0125
X40.1625 Y12.4875
X37.8000 Y14.9625
X34.7625 Y17.2125
X32.0625 Y18.5625
X26.7750 Y19.9125
X22.2750
X19.8000 Y19.4625
X16.2000 Y18.2250
X12.7125 Y16.2000
X9.2250 Y12.9375
X7.6500 Y10.8000
X6.0750 Y7.7625
X4.9500 Y4.5000
X0.2250
X-1.2375 Y3.4875
X-1.4625 Y0.1125
X-1.0125 Y-0.7875
X0.1125 Y-1.4625
X9.0000 Y-1.2375
X10.0125 Y0.2250
X10.1250 Y2.3625
X11.1375 Y5.8500
X12.9375 Y8.8875
X14.7375 Y10.8000
X16.9875 Y12.4875
X19.3500 Y13.6125
X23.1750 Y14.5125
X25.8750
X29.0250 Y13.8375
X31.1625 Y12.9375
X33.6375 Y11.3625
X35.6625 Y9.3375
X38.1375 Y5.1750
X38.8125 Y2.7000
Z-1.7990 F600
X39.0375 Y0.1125 F1200
X39.8250 Y-1.1250
X40.6125 Y-1.4625
X49.5000 Y-1.2375
X50.5125 Y0.2250
Y2.7000
X49.6125 Y4.1625
X48.8250 Y4.5000
X44.1000
X41.8500 Y10.0125
X40.1625 Y12.4875
X37.8000 Y14.9625
X34.7625 Y17.2125
X32.0625 Y18.5625
X26.7750 Y19.9125
X22.2750
X19.8000 Y19.4625
X16.2000 Y18.2250
X12.7125 Y16.2000
X9.2250 Y12.9375
X7.6500 Y10.8000
X6.0750 Y7.7625
X4.9500 Y4.5000
X0.2250
X-1.2375 Y3.4875
X-1.4625 Y0.1125
X-1.0125 Y-0.7875
X0.1125 Y-1.4625
X9.0000 Y-1.2375
X10.0125 Y0.2250
X10.1250 Y2.3625
X11.1375 Y5.8500
X12.9375 Y8.8875
X14.7375 Y10.8000
X16.9875 Y12.4875
X19.3500 Y13.6125
X23.1750 Y14.5125
X25.8750
X29.0250 Y13.8375
X31.1625 Y12.9375
X33.6375 Y11.3625
X35.6625 Y9.3375
X38.1375 Y5.1750
X38.8125 Y2.7000
Z-2.2490 F600
X39.0375 Y0.1125 F1200
X39.8250 Y-1.1250
X40.6125 Y-1.4625
X49.5000 Y-1.2375
X50.5125 Y0.2250
Y2.7000
X49.6125 Y4.1625
X48.8250 Y4.5000
X44.1000
X41.8500 Y10.0125
X40.1625 Y12.4875
X37.8000 Y14.9625
X34.7625 Y17.2125
X32.0625 Y18.5625
X26.7750 Y19.9125
X22.2750
X19.8000 Y19.4625
X16.2000 Y18.2250
X12.7125 Y16.2000
X9.2250 Y12.9375
X7.6500 Y10.8000
X6.0750 Y7.7625
X4.9500 Y4.5000
X0.2250
X-1.2375 Y3.4875
X-1.4625 Y0.1125
X-1.0125 Y-0.7875
X0.1125 Y-1.4625
X9.0000 Y-1.2375
X10.0125 Y0.2250
X10.1250 Y2.3625
X11.1375 Y5.8500
X12.9375 Y8.8875
X14.7375 Y10.8000
X16.9875 Y12.4875
X19.3500 Y13.6125
X23.1750 Y14.5125
X25.8750
X29.0250 Y13.8375
X31.1625 Y12.9375
X33.6375 Y11.3625
X35.6625 Y9.3375
X38.1375 Y5.1750
X38.8125 Y2.7000
Z-2.6990 F600
X39.0375 Y0.1125 F1200
X39.8250 Y-1.1250
X40.6125 Y-1.4625
X49.5000 Y-1.2375
X50.5125 Y0.2250
Y2.7000
X49.6125 Y4.1625
X48.8250 Y4.5000
X44.1000
X41.8500 Y10.0125
X40.1625 Y12.4875
X37.8000 Y14.9625
X34.7625 Y17.2125
X32.0625 Y18.5625
X26.7750 Y19.9125
X22.2750
X19.8000 Y19.4625
X16.2000 Y18.2250
X12.7125 Y16.2000
X9.2250 Y12.9375
X7.6500 Y10.8000
X6.0750 Y7.7625
X4.9500 Y4.5000
X0.2250
X-1.2375 Y3.4875
X-1.4625 Y0.1125
X-1.0125 Y-0.7875
X0.1125 Y-1.4625
X9.0000 Y-1.2375
X10.0125 Y0.2250
X10.1250 Y2.3625
X11.1375 Y5.8500
X12.9375 Y8.8875
X14.7375 Y10.8000
X16.9875 Y12.4875
X19.3500 Y13.6125
X23.1750 Y14.5125
X25.8750
X29.0250 Y13.8375
X31.1625 Y12.9375
X33.6375 Y11.3625
X35.6625 Y9.3375
X38.1375 Y5.1750
X38.8125 Y2.7000
Z-3.1490 F600
X39.0375 Y0.1125 F1200
X39.8250 Y-1.1250
X40.6125 Y-1.4625
X49.5000 Y-1.2375
X50.5125 Y0.2250
Y2.7000
X49.6125 Y4.1625
X48.8250 Y4.5000
X44.1000
X41.8500 Y10.0125
X40.1625 Y12.4875
X37.8000 Y14.9625
X34.7625 Y17.2125
X32.0625 Y18.5625
X26.7750 Y19.9125
X22.2750
X19.8000 Y19.4625
X16.2000 Y18.2250
X12.7125 Y16.2000
X9.2250 Y12.9375
X7.6500 Y10.8000
X6.0750 Y7.7625
X4.9500 Y4.5000
X0.2250
X-1.2375 Y3.4875
X-1.4625 Y0.1125
X-1.0125 Y-0.7875
X0.1125 Y-1.4625
X9.0000 Y-1.2375
X10.0125 Y0.2250
X10.1250 Y2.3625
X11.1375 Y5.8500
X12.9375 Y8.8875
X14.7375 Y10.8000
X16.9875 Y12.4875
X19.3500 Y13.6125
X23.1750 Y14.5125
X25.8750
X29.0250 Y13.8375
X31.1625 Y12.9375
X33.6375 Y11.3625
X35.6625 Y9.3375
X38.1375 Y5.1750
X38.8125 Y2.7000
Z-3.5990 F600
X39.0375 Y0.1125 F1200
X39.8250 Y-1.1250
X40.6125 Y-1.4625
X49.5000 Y-1.2375
X50.5125 Y0.2250
Y2.7000
X49.6125 Y4.1625
X48.8250 Y4.5000
X44.1000
X41.8500 Y10.0125
X40.1625 Y12.4875
X37.8000 Y14.9625
X34.7625 Y17.2125
X32.0625 Y18.5625
X26.7750 Y19.9125
X22.2750
X19.8000 Y19.4625
X16.2000 Y18.2250
X12.7125 Y16.2000
X9.2250 Y12.9375
X7.6500 Y10.8000
X6.0750 Y7.7625
X4.9500 Y4.5000
X0.2250
X-1.2375 Y3.4875
X-1.4625 Y0.1125
X-1.0125 Y-0.7875
X0.1125 Y-1.4625
X9.0000 Y-1.2375
X10.0125 Y0.2250
X10.1250 Y2.3625
X11.1375 Y5.8500
X12.9375 Y8.8875
X14.7375 Y10.8000
X16.9875 Y12.4875
X19.3500 Y13.6125
X23.1750 Y14.5125
X25.8750
X29.0250 Y13.8375
X31.1625 Y12.9375
X33.6375 Y11.3625
X35.6625 Y9.3375
X38.1375 Y5.1750
X38.8125 Y2.7000
Z-4.0490 F600
X39.0375 Y0.1125 F1200
X39.8250 Y-1.1250
X40.6125 Y-1.4625
X49.5000 Y-1.2375
X50.5125 Y0.2250
Y2.7000
X49.6125 Y4.1625
X48.8250 Y4.5000
X44.1000
X41.8500 Y10.0125
X40.1625 Y12.4875
X37.8000 Y14.9625
X34.7625 Y17.2125
X32.0625 Y18.5625
X26.7750 Y19.9125
X22.2750
X19.8000 Y19.4625
X16.2000 Y18.2250
X12.7125 Y16.2000
X9.2250 Y12.9375
X7.6500 Y10.8000
X6.0750 Y7.7625
X4.9500 Y4.5000
X0.2250
X-1.2375 Y3.4875
X-1.4625 Y0.1125
X-1.0125 Y-0.7875
X0.1125 Y-1.4625
X9.0000 Y-1.2375
X10.0125 Y0.2250
X10.1250 Y2.3625
X11.1375 Y5.8500
X12.9375 Y8.8875
X14.7375 Y10.8000
X16.9875 Y12.4875
X19.3500 Y13.6125
X23.1750 Y14.5125
X25.8750
X29.0250 Y13.8375
X31.1625 Y12.9375
X33.6375 Y11.3625
X35.6625 Y9.3375
X38.1375 Y5.1750
X38.8125 Y2.7000
Z-4.4990 F600
X39.0375 Y0.1125 F1200
X39.8250 Y-1.1250
X40.6125 Y-1.4625
X49.5000 Y-1.2375
X50.5125 Y0.2250
Y2.7000
X49.6125 Y4.1625
X48.8250 Y4.5000
X44.1000
X41.8500 Y10.0125
X40.1625 Y12.4875
X37.8000 Y14.9625
X34.7625 Y17.2125
X32.0625 Y18.5625
X26.7750 Y19.9125
X22.2750
X19.8000 Y19.4625
X16.2000 Y18.2250
X12.7125 Y16.2000
X9.2250 Y12.9375
X7.6500 Y10.8000
X6.0750 Y7.7625
X4.9500 Y4.5000
X0.2250
X-1.2375 Y3.4875
X-1.4625 Y0.1125
X-1.0125 Y-0.7875
X0.1125 Y-1.4625
X9.0000 Y-1.2375
X10.0125 Y0.2250
X10.1250 Y2.3625
X11.1375 Y5.8500
X12.9375 Y8.8875
X14.7375 Y10.8000
X16.9875 Y12.4875
X19.3500 Y13.6125
X23.1750 Y14.5125
X25.8750
X29.0250 Y13.8375
X31.1625 Y12.9375
X33.6375 Y11.3625
X35.6625 Y9.3375
X38.1375 Y5.1750
X38.8125 Y2.7000
Z-4.9490 F600
X39.0375 Y0.1125 F1200
X39.8250 Y-1.1250
X40.6125 Y-1.4625
X49.5000 Y-1.2375
X50.5125 Y0.2250
Y2.7000
X49.6125 Y4.1625
X48.8250 Y4.5000
X44.1000
X41.8500 Y10.0125
X40.1625 Y12.4875
X37.8000 Y14.9625
X34.7625 Y17.2125
X32.0625 Y18.5625
X26.7750 Y19.9125
X22.2750
X19.8000 Y19.4625
X16.2000 Y18.2250
X12.7125 Y16.2000
X9.2250 Y12.9375
X7.6500 Y10.8000
X6.0750 Y7.7625
X4.9500 Y4.5000
X0.2250
X-1.2375 Y3.4875
X-1.4625 Y0.1125
X-1.0125 Y-0.7875
X0.1125 Y-1.4625
X9.0000 Y-1.2375
X10.0125 Y0.2250
X10.1250 Y2.3625
X11.1375 Y5.8500
X12.9375 Y8.8875
X14.7375 Y10.8000
X16.9875 Y12.4875
X19.3500 Y13.6125
X23.1750 Y14.5125
X25.8750
X29.0250 Y13.8375
X31.1625 Y12.9375
X33.6375 Y11.3625
X35.6625 Y9.3375
X38.1375 Y5.1750
X38.8125 Y2.7000
Z-5.3990 F600
X39.0375 Y0.1125 F1200
X39.8250 Y-1.1250
X40.6125 Y-1.4625
X49.5000 Y-1.2375
X50.5125 Y0.2250
Y2.7000
X49.6125 Y4.1625
X48.8250 Y4.5000
X44.1000
X41.8500 Y10.0125
X40.1625 Y12.4875
X37.8000 Y14.9625
X34.7625 Y17.2125
X32.0625 Y18.5625
X26.7750 Y19.9125
X22.2750
X19.8000 Y19.4625
X16.2000 Y18.2250
X12.7125 Y16.2000
X9.2250 Y12.9375
X7.6500 Y10.8000
X6.0750 Y7.7625
X4.9500 Y4.5000
X0.2250
X-1.2375 Y3.4875
X-1.4625 Y0.1125
X-1.0125 Y-0.7875
X0.1125 Y-1.4625
X9.0000 Y-1.2375
X10.0125 Y0.2250
X10.1250 Y2.3625
X11.1375 Y5.8500
X12.9375 Y8.8875
X14.7375 Y10.8000
X16.9875 Y12.4875
X19.3500 Y13.6125
X23.1750 Y14.5125
X25.8750
X29.0250 Y13.8375
X31.1625 Y12.9375
X33.6375 Y11.3625
X35.6625 Y9.3375
X38.1375 Y5.1750
X38.8125 Y2.7000
Z-5.8490 F600
X39.0375 Y0.1125 F1200
X39.8250 Y-1.1250
X40.6125 Y-1.4625
X49.5000 Y-1.2375
X50.5125 Y0.2250
Y2.7000
X49.6125 Y4.1625
X48.8250 Y4.5000
X44.1000
X41.8500 Y10.0125
X40.1625 Y12.4875
X37.8000 Y14.9625
X34.7625 Y17.2125
X32.0625 Y18.5625
X26.7750 Y19.9125
X22.2750
X19.8000 Y19.4625
X16.2000 Y18.2250
X12.7125 Y16.2000
X9.2250 Y12.9375
X7.6500 Y10.8000
X6.0750 Y7.7625
X4.9500 Y4.5000
X0.2250
X-1.2375 Y3.4875
X-1.4625 Y0.1125
X-1.0125 Y-0.7875
X0.1125 Y-1.4625
X9.0000 Y-1.2375
X10.0125 Y0.2250
X10.1250 Y2.3625
X11.1375 Y5.8500
X12.9375 Y8.8875
X14.7375 Y10.8000
X16.9875 Y12.4875
X19.3500 Y13.6125
X23.1750 Y14.5125
X25.8750
X29.0250 Y13.8375
X31.1625 Y12.9375
X33.6375 Y11.3625
X35.6625 Y9.3375
X38.1375 Y5.1750
X38.8125 Y2.7000
Z-6.2990 F600
X39.0375 Y0.1125 F1200
X39.8250 Y-1.1250
X40.6125 Y-1.4625
X49.5000 Y-1.2375
X50.5125 Y0.2250
Y2.7000
X49.6125 Y4.1625
X48.8250 Y4.5000
X44.1000
X41.8500 Y10.0125
X40.1625 Y12.4875
X37.8000 Y14.9625
X34.7625 Y17.2125
X32.0625 Y18.5625
X26.7750 Y19.9125
X22.2750
X19.8000 Y19.4625
X16.2000 Y18.2250
X12.7125 Y16.2000
X9.2250 Y12.9375
X7.6500 Y10.8000
X6.0750 Y7.7625
X4.9500 Y4.5000
X0.2250
X-1.2375 Y3.4875
X-1.4625 Y0.1125
X-1.0125 Y-0.7875
X0.1125 Y-1.4625
X9.0000 Y-1.2375
X10.0125 Y0.2250
X10.1250 Y2.3625
X11.1375 Y5.8500
X12.9375 Y8.8875
X14.7375 Y10.8000
X16.9875 Y12.4875
X19.3500 Y13.6125
X23.1750 Y14.5125
X25.8750
X29.0250 Y13.8375
X31.1625 Y12.9375
X33.6375 Y11.3625
X35.6625 Y9.3375
X38.1375 Y5.1750
X38.8125 Y2.7000
Z-6.7490 F600
X39.0375 Y0.1125 F1200
X39.8250 Y-1.1250
X40.6125 Y-1.4625
X49.5000 Y-1.2375
X50.5125 Y0.2250
Y2.7000
X49.6125 Y4.1625
X48.8250 Y4.5000
X44.1000
X41.8500 Y10.0125
X40.1625 Y12.4875
X37.8000 Y14.9625
X34.7625 Y17.2125
X32.0625 Y18.5625
X26.7750 Y19.9125
X22.2750
X19.8000 Y19.4625
X16.2000 Y18.2250
X12.7125 Y16.2000
X9.2250 Y12.9375
X7.6500 Y10.8000
X6.0750 Y7.7625
X4.9500 Y4.5000
X0.2250
X-1.2375 Y3.4875
X-1.4625 Y0.1125
X-1.0125 Y-0.7875
X0.1125 Y-1.4625
X9.0000 Y-1.2375
X10.0125 Y0.2250
X10.1250 Y2.3625
X11.1375 Y5.8500
X12.9375 Y8.8875
X14.7375 Y10.8000
X16.9875 Y12.4875
X19.3500 Y13.6125
X23.1750 Y14.5125
X25.8750
X29.0250 Y13.8375
X31.1625 Y12.9375
X33.6375 Y11.3625
X35.6625 Y9.3375
X38.1375 Y5.1750
X38.8125 Y2.7000
Z-7.1990 F600
X39.0375 Y0.1125 F1200
X39.8250 Y-1.1250
X40.6125 Y-1.4625
X49.5000 Y-1.2375
X50.5125 Y0.2250
Y2.7000
X49.6125 Y4.1625
X48.8250 Y4.5000
X44.1000
X41.8500 Y10.0125
X40.1625 Y12.4875
X37.8000 Y14.9625
X34.7625 Y17.2125
X32.0625 Y18.5625
X26.7750 Y19.9125
X22.2750
X19.8000 Y19.4625
X16.2000 Y18.2250
X12.7125 Y16.2000
X9.2250 Y12.9375
X7.6500 Y10.8000
X6.0750 Y7.7625
X4.9500 Y4.5000
X0.2250
X-1.2375 Y3.4875
X-1.4625 Y0.1125
X-1.0125 Y-0.7875
X0.1125 Y-1.4625
X9.0000 Y-1.2375
X10.0125 Y0.2250
X10.1250 Y2.3625
X11.1375 Y5.8500
X12.9375 Y8.8875
X14.7375 Y10.8000
X16.9875 Y12.4875
X19.3500 Y13.6125
X23.1750 Y14.5125
X25.8750
X29.0250 Y13.8375
X31.1625 Y12.9375
X33.6375 Y11.3625
X35.6625 Y9.3375
X38.1375 Y5.1750
X38.8125 Y2.7000
Z-7.6490 F600
X39.0375 Y0.1125 F1200
X39.8250 Y-1.1250
X40.6125 Y-1.4625
X49.5000 Y-1.2375
X50.5125 Y0.2250
Y2.7000
X49.6125 Y4.1625
X48.8250 Y4.5000
X44.1000
X41.8500 Y10.0125
X40.1625 Y12.4875
X37.8000 Y14.9625
X34.7625 Y17.2125
X32.0625 Y18.5625
X26.7750 Y19.9125
X22.2750
X19.8000 Y19.4625
X16.2000 Y18.2250
X12.7125 Y16.2000
X9.2250 Y12.9375
X7.6500 Y10.8000
X6.0750 Y7.7625
X4.9500 Y4.5000
X0.2250
X-1.2375 Y3.4875
X-1.4625 Y0.1125
X-1.0125 Y-0.7875
X0.1125 Y-1.4625
X9.0000 Y-1.2375
X10.0125 Y0.2250
X10.1250 Y2.3625
X11.1375 Y5.8500
X12.9375 Y8.8875
X14.7375 Y10.8000
X16.9875 Y12.4875
X19.3500 Y13.6125
X23.1750 Y14.5125
X25.8750
X29.0250 Y13.8375
X31.1625 Y12.9375
X33.6375 Y11.3625
X35.6625 Y9.3375
X38.1375 Y5.1750
X38.8125 Y2.7000
X38.1375 Y2.5875
Z-8.0000 F600
X37.4625 Y5.0625 F1200
X35.1000 Y9.0000
X33.3000 Y10.8000
X30.8250 Y12.3750
X29.0250 Y13.1625
X25.8750 Y13.8375
X23.1750
X19.6875 Y13.0500
X17.3250 Y11.9250
X15.0750 Y10.2375
X13.5000 Y8.5500
X11.8125 Y5.7375
X10.8000 Y2.2500
X10.6875 Y0.1125
X9.3375 Y-1.8000
X8.4375 Y-2.1375
X0.1125
X-1.0125 Y-1.6875
X-1.8000 Y-0.7875
X-2.1375 Y0.0000
Y2.4750
X-1.8000 Y3.8250
X0.2250 Y5.1750
X4.5000
X5.7375 Y8.6625
X7.0875 Y11.1375
X8.6625 Y13.2750
X11.2500 Y15.8625
X15.8625 Y18.7875
X19.8000 Y20.1375
X22.2750 Y20.5875
X26.7750
X29.2500 Y20.1375
X33.8625 Y18.4500
X36.7875 Y16.6500
X39.9375 Y13.7250
X41.6250 Y11.5875
X43.4250 Y8.3250
X44.5500 Y5.1750
X48.8250
X49.9500 Y4.7250
X50.7375 Y3.9375
X51.1875 Y2.8125
Y0.1125
X49.8375 Y-1.8000
X48.9375 Y-2.1375
X40.6125
X39.4875 Y-1.6875
X38.3625 Y0.0000
X38.1375 Y2.5875
X37.5750 Y2.4750
X36.9000 Y4.9500
X34.6500 Y8.6625
X32.9625 Y10.3500
X30.4875 Y11.9250
X28.2375 Y12.8250
X25.8750 Y13.2750
X23.1750
X20.0250 Y12.6000
X17.6625 Y11.4750
X15.4125 Y9.7875
X13.9500 Y8.2125
X12.3750 Y5.6250
X11.4750 Y2.7000
X11.1375 Y-0.3375
X10.6875 Y-1.2375
X9.4500 Y-2.3625
X8.4375 Y-2.7000
X0.1125
X-1.3500 Y-2.1375
X-2.5875 Y-0.4500
X-2.7000 Y3.1500
X-2.2500 Y4.1625
X-1.0125 Y5.2875
X0.2250 Y5.7375
X4.0500
X6.6375 Y11.4750
X8.2125 Y13.6125
X10.9125 Y16.3125
X13.3875 Y18.1125
X16.3125 Y19.5750
X22.2750 Y21.1500
X26.7750
X30.8250 Y20.2500
X35.4375 Y18.2250
X38.4750 Y15.9750
X41.1750 Y13.1625
X42.8625 Y10.6875
X44.8875 Y5.7375
X48.8250
X50.2875 Y5.1750
X51.1875 Y4.2750
X51.7500 Y2.9250
Y0.0000
X51.1875 Y-1.2375
X50.1750 Y-2.2500
X48.9375 Y-2.7000
X40.6125
X39.1500 Y-2.1375
X37.8000 Y-0.1125
X37.5750 Y2.4750
Z-7.5000
X36.3375 Y4.8375
Z-8.0000 F600
X34.2000 Y8.3250 F1200
X32.6250 Y9.9000
X30.1500 Y11.4750
X25.8750 Y12.7125
X23.1750
X20.8125 Y12.2625
X18.0000 Y11.0250
X15.7500 Y9.3375
X12.9375 Y5.5125
X11.9250 Y2.0250
X11.8125 Y-0.1125
X11.1375 Y-1.5750
X9.2250 Y-3.1500
X39.8250
X37.9125 Y-1.6875
X37.3500 Y-0.5625
X36.3375 Y4.8375
X35.7750 Y4.7250
X33.7500 Y7.9875
X32.2875 Y9.4500
X29.8125 Y11.0250
X25.8750 Y12.1500
X23.1750
X20.8125 Y11.7000
X18.3375 Y10.5750
X16.0875 Y8.8875
X13.5000 Y5.4000
X12.6000 Y2.4750
X12.3750 Y-0.2250
X11.1375 Y-2.5875
X37.8000
X36.6750 Y-0.3375
X36.4500 Y2.2500
X35.7750 Y4.7250
X35.2125 Y4.6125
X33.3000 Y7.6500
X31.9500 Y9.0000
X29.4750 Y10.5750
X25.8750 Y11.5875
X23.1750
X20.8125 Y11.1375
X18.6750 Y10.1250
X16.4250 Y8.4375
X13.8375 Y4.7250
X13.0500 Y1.8000
X12.9375 Y-0.3375
X12.2625 Y-2.0250
X36.7875
X36.1125 Y-0.4500
X35.8875 Y2.1375
X35.2125 Y4.6125
X34.6500 Y4.5000
X32.8500 Y7.3125
X31.6125 Y8.5500
X29.1375 Y10.1250
X25.8750 Y11.0250
X23.1750
X20.8125 Y10.5750
X16.7625 Y7.9875
X14.4000 Y4.6125
X13.1625 Y-1.4625
X35.8875
X34.6500 Y4.5000
X34.3125 Y3.7125
X32.4000 Y6.9750
X31.2750 Y8.1000
X28.8000 Y9.6750
X25.8750 Y10.4625
X23.1750
X20.9250 Y10.0125
X17.1000 Y7.5375
X14.9625 Y4.5000
X14.1750 Y1.5750
X13.9500 Y-0.9000
X34.9875
X34.3125 Y3.7125
Z-7.5000
X33.5250 Y4.2750
Z-8.0000 F600
X31.9500 Y6.6375 F1200
X28.4625 Y9.2250
X25.8750 Y9.9000
X23.1750
X20.9250 Y9.4500
X17.4375 Y7.0875
X15.5250 Y4.3875
X14.7375 Y1.4625
X14.6250 Y-0.3375
X34.4250
X33.5250 Y4.2750
X32.9625 Y4.1625
X31.5000 Y6.3000
X28.1250 Y8.7750
X25.8750 Y9.3375
X21.6000 Y9.1125
X18.4500 Y7.2000
X16.0875 Y4.2750
X15.1875 Y0.2250
X33.7500
X32.9625 Y4.1625
X32.4000 Y4.0500
X31.0500 Y5.9625
X27.7875 Y8.3250
X25.8750 Y8.7750
X21.6000 Y8.5500
X18.7875 Y6.7500
X16.6500 Y4.1625
X15.8625 Y0.7875
X33.0750
X32.4000 Y4.0500
X31.9500 Y3.6000
X30.6000 Y5.6250
X27.4500 Y7.8750
X25.8750 Y8.2125
X21.8250 Y7.9875
X19.5750 Y6.6375
X17.3250 Y4.1625
X16.5375 Y1.3500
X32.4000
X31.9500 Y3.6000
X31.1625 Y3.9375
X29.5875 Y5.8500
X27.1125 Y7.4250
X25.8750 Y7.6500
X22.3875 Y7.5375
X20.7000 Y6.7500
X18.4500 Y4.8375
X17.6625 Y3.6000
X17.3250 Y1.9125
X31.7250
X31.1625 Y3.9375
X30.7125 Y3.6000
X29.2500 Y5.4000
X27.3375 Y6.6375
X25.8750 Y7.0875
X23.1750
X21.3750 Y6.5250
X18.9000 Y4.5000
X18.0000 Y2.4750
X30.9375
X30.7125 Y3.6000
X30.2625 Y3.0375
X28.9125 Y4.9500
X27.4500 Y5.9625
X25.8750 Y6.5250
X23.1750
X21.9375 Y6.1875
X19.6875 Y4.5000
X18.7875 Y3.0375
X30.2625
Z-7.5000
X29.1375 Y3.6000
Z-8.0000 F600
X28.1250 Y4.8375 F1200
X25.8750 Y5.9625
X22.2750 Y5.7375
X20.4750 Y4.5000
X19.8000 Y3.6000
X29.1375
Z-7.5000
X27.7875 Y4.1625
Z-8.0000 F600
X25.8750 Y5.4000 F1200
X22.6125 Y5.2875
X21.2625 Y4.1625
X27.7875
G00 Z5.0000
X52.7625 Y-3.7125
G01 Z-7.0500
Z-8.0000 F600
Y22.2750 F1200
X-3.7125
Y-3.7125
X52.7625
X53.3250 Y-4.2750
Y22.8375
X-4.2750
Y-4.2750
X53.3250
Z-7.5000
X52.2000 Y-3.1500
Z-8.0000 F600
Y-0.7875 F1200
X49.7250 Y-3.1500
X52.2000
Z-7.5000
X51.9750 Y3.8250
Z-8.0000 F600
X52.2000 Y21.7125 F1200
X27.5625 Y21.4875
X33.0750 Y20.0250
X37.4625 Y17.5500
X40.8375 Y14.4000
X42.5250 Y12.2625
X44.5500 Y8.5500
X45.3375 Y6.3000
X48.8250
X50.1750 Y5.8500
X51.6375 Y4.6125
X51.9750 Y3.8250
Z-7.5000
X51.4125 Y5.6250
Z-8.0000 F600
X51.6375 Y21.1500 F1200
X31.9500
X32.2875 Y20.8125
X35.1000 Y19.6875
X37.8000 Y18.0000
X41.2875 Y14.7375
X43.7625 Y11.3625
X45.7875 Y6.8625
X48.8250
X51.4125 Y5.6250
Z-7.5000
X51.0750 Y6.7500
Z-8.0000 F600
Y20.5875 F1200
X34.7625 Y20.3625
X38.1375 Y18.4500
X41.7375 Y15.0750
X44.2125 Y11.7000
X46.1250 Y7.4250
X48.8250
X50.6250 Y6.7500
X51.0750
Z-7.5000
X50.2875 Y7.4250
Z-8.0000 F600
X50.5125 Y20.0250 F1200
X37.0125 Y19.8000
X39.8250 Y17.7750
X42.9750 Y14.5125
X44.6625 Y12.0375
X46.5750 Y7.9875
X48.8250
X50.2875 Y7.4250
X49.9500 Y8.2125
Y19.4625
X38.9250
X39.7125 Y18.5625
X43.7625 Y14.4000
X45.1125 Y12.3750
X46.9125 Y8.5500
X48.8250
X49.6125 Y8.2125
X49.9500
Z-7.5000
X49.3875 Y9.0000
Z-8.0000 F600
Y18.9000 F1200
X40.3875
X40.6125 Y18.5625
X44.7750 Y13.9500
X47.2500 Y9.2250
X48.9375 Y9.0000
X49.3875
X48.8250 Y9.6750
Y18.3375
X41.8500
X42.3000 Y17.6625
X45.2250 Y14.2875
X47.7000 Y9.6750
X48.8250
Z-7.5000
X48.0375 Y10.2375
Z-8.0000 F600
X48.2625 Y17.7750 F1200
X43.2000 Y17.5500
X45.6750 Y14.6250
X48.0375 Y10.2375
Z-7.5000
X47.4750 Y12.4875
Z-8.0000 F600
X47.7000 Y17.2125 F1200
X44.4375
X45.1125 Y16.3125
X47.4750 Y12.4875
Z-7.5000
X46.9125 Y14.6250
Z-8.0000 F600
X47.1375 Y16.6500 F1200
X45.6750
X45.7875 Y16.3125
X46.9125 Y14.6250
G00 Z5.0000
X21.4875 Y21.7125
G01 Z-7.0500
Z-8.0000 F600
X-3.1500 F1200
Y3.9375
X-1.1250 Y5.8500
X0.2250 Y6.3000
X3.6000
X4.6125 Y8.8875
X6.6375 Y12.4875
X11.7000 Y17.6625
X15.9750 Y20.0250
X21.4875 Y21.7125
Z-7.5000
X17.1000 Y21.1500
Z-8.0000 F600
X-2.5875 F1200
Y5.6250
X0.2250 Y6.8625
X3.2625
X5.0625 Y11.0250
X7.3125 Y14.2875
X11.3625 Y18.1125
X17.1000 Y21.1500
Z-7.5000
X14.1750 Y20.5875
Z-8.0000 F600
X-2.0250 F1200
Y6.7500
X0.2250 Y7.4250
X2.8125
X4.6125 Y11.3625
X6.8625 Y14.6250
X9.9000 Y17.6625
X14.1750 Y20.5875
Z-7.5000
X11.9250 Y20.0250
Z-8.0000 F600
X-1.4625 F1200
Y7.4250
X0.2250 Y7.9875
X2.4750
X4.1625 Y11.7000
X6.4125 Y14.9625
X11.9250 Y20.0250
Z-7.5000
X10.1250 Y19.4625
Z-8.0000 F600
X-0.9000 F1200
Y8.2125
X2.1375 Y8.6625
X4.8375 Y13.8375
X10.1250 Y19.4625
Z-7.5000
X8.5500 Y18.9000
Z-8.0000 F600
X-0.3375 F1200
Y9.0000
X1.8000 Y9.2250
X4.3875 Y14.1750
X8.5500 Y18.9000
Z-7.5000
X7.2000 Y18.3375
Z-8.0000 F600
X0.2250 F1200
Y9.6750
X1.3500
X3.9375 Y14.5125
X7.2000 Y18.3375
Z-7.5000
X5.8500 Y17.7750
Z-8.0000 F600
X0.7875 F1200
Y10.2375
X3.4875 Y14.8500
X5.8500 Y17.7750
Z-7.5000
X4.5000 Y17.2125
Z-8.0000 F600
X1.3500 F1200
Y12.6000
X4.5000 Y17.2125
Z-7.5000
X3.3750 Y16.6500
Z-8.0000 F600
X1.9125 F1200
Y14.7375
X3.3750 Y16.6500
G00 Z5.0000
X-2.9250 Y-0.9000
G01 Z-7.0500
Z-8.0000 F600
X-3.1500 Y-3.1500 F1200
X-0.6750
X-2.0250 Y-2.2500
X-2.9250 Y-0.9000
G00 Z5.0000
X0.0000 Y0.0000
G0 Z100 x-100 Y100
M30
