E_HEAD(3678207,0,0,0,300,300,-40,71,17,1,20,0,1,20,,1,7,6,100,1,,1);*RO*
;*************************************
;Projekt motor
;Erstellt mit Estlcam Version 11 Build 11,244
;Laufzeit ca. 00:22:17 Stunden
;*************************************

T="Fräser 3mm" 
L6
S24000 F1200 M3


G00 Z5.0000
;*************************************
;Nr. 1 Linear schruppen X: 
;*************************************
X16.0000 Y8.8000
G01 Z-1.0000 F1200 S24000
X77.0000
X78.6000 Y11.2000
X12.2000
X11.8000 Y13.6000
X79.0000
X81.0000 Y16.0000
X11.8000
X11.6000 Y18.4000
X81.6000
Z1.0000
X93.6000 Y20.8000
Z-1.0000
X54.0000 Z-0.3498
X51.8000 Z-1.0000
X10.2000
X9.4000 Y23.2000
X51.6000 Z-0.7676
X52.0000 Z-0.0283
X51.6000 Y25.6000
Z-0.5074
X15.2000 Z-0.5119
X7.8000 Z-1.0000
Y28.0000
X13.8000
X14.0000 Z-0.5004
X51.6000 Z-0.5000
Y30.4000
Z-0.5074
X15.2000 Z-0.5117
X7.8000 Z-1.0000
X9.4000 Y32.8000
X51.6000 Z-0.7675
X52.0000 Z-0.0054
G00 Z5.0000
X82.6000 Y35.2000
G01 Z-1.0000
X76.4000
X74.4000 Z-0.3650
X53.8000 Z-0.3651
X51.8000 Z-1.0000
X10.2000
X11.6000 Y37.6000
X81.6000
X81.0000 Y40.0000
X11.8000
Y42.4000
X79.0000
X78.6000 Y44.8000
X12.2000
X16.0000 Y47.2000
X77.0000
Z0.4946
X76.2000 Y32.8000
Z-0.0054
X76.6000 Z-1.0000
X97.0000
X97.8000 Y30.4000
X76.6000
Y28.0000
X97.8000
Y25.6000
X76.6000
Z-0.0013
X76.2000 Y23.2000
X76.6000 Z-1.0000
X97.4000
G00 Z5.0000
X77.0000 Y8.8000
G01 Z-2.0000
X16.0000
Z0.5000
X12.2000 Y11.2000
Z-2.0000
X78.6000
X79.0000 Y13.6000
X11.8000
Y16.0000
X81.0000
X81.6000 Y18.4000
X76.2000
X74.4000 Z-1.3861
X53.8000 Z-1.3860
X52.0000 Z-2.0000
X11.6000
X10.2000 Y20.8000
X16.0000 Z-1.4012
X51.8000 Z-1.1733
Z0.9998
Y35.2000
Z-1.2030
X16.0000 Z-1.4272
X10.2000 Z-2.0000
X9.4000 Y32.8000
X13.8000
X14.2000 Z-1.0632
X13.8000 Y30.4000
Z-2.0000
X7.8000
Y28.0000
X13.8000
Y25.6000
X7.8000
X9.4000 Y23.2000
X13.8000
X14.2000 Z-1.0210
Z-0.5210
X11.6000 Y37.6000
Z-2.0000
X74.2000 Z-1.3852
X76.2000 Z-2.0000
X81.6000
X82.6000 Y35.2000
X76.6000
X76.4000 Z-1.2582
X76.6000 Y32.8000
Z-2.0000
X97.0000
X97.8000 Y30.4000
X76.6000
Y28.0000
X97.8000
Y25.6000
X76.6000
Y23.2000
X97.4000
X93.6000 Y20.8000
X76.6000
X76.4000 Z-1.1732
Z-0.6732
X81.0000 Y40.0000
Z-2.0000
X11.8000
Y42.4000
X79.0000
X78.6000 Y44.8000
X12.2000
X16.0000 Y47.2000
X77.0000
G00 Z5.0000
Y8.8000
G01 Z-3.0000
X16.0000
Z0.5000
X12.2000 Y11.2000
Z-3.0000
X78.6000
X79.0000 Y13.6000
X11.8000
Y16.0000
X81.0000
X81.6000 Y18.4000
X76.6000
X76.2000 Z-2.1221
X76.6000 Y20.8000
Z-3.0000
X93.6000
Z0.5000
X97.4000 Y23.2000
Z-3.0000
X76.6000
Y25.6000
X97.8000
Y28.0000
X76.6000
Y30.4000
X97.8000
X97.0000 Y32.8000
X76.6000
Y35.2000
X82.6000
X81.6000 Y37.6000
X76.6000
X76.2000 Z-2.1317
Z-1.6317
X81.0000 Y40.0000
Z-3.0000
X11.8000
X11.6000 Y37.6000
X51.6000 Z-2.6100
X52.0000 Z-2.1330
G00 Z5.0000
X79.0000 Y42.4000
G01 Z-3.0000
X11.8000
X12.2000 Y44.8000
X78.6000
X77.0000 Y47.2000
X16.0000
Z-1.8341
X14.0000 Y35.2000
Z-2.3341
X13.8000 Z-3.0000
X10.2000
X9.4000 Y32.8000
X13.8000
Y30.4000
X7.8000
Y28.0000
X13.8000
Y25.6000
X7.8000
X9.4000 Y23.2000
X13.8000
Z-2.3341
X14.0000 Y20.8000
X13.8000 Z-3.0000
X10.2000
X11.6000 Y18.4000
X16.0000 Z-2.5229
X50.4000 Z-2.6102
X52.0000 Z-2.1317
G00 Z5.0000
X77.0000 Y8.8000
G01 Z-4.0000
X16.0000
Z0.5000
X12.2000 Y11.2000
Z-4.0000
X78.6000
X79.0000 Y13.6000
X11.8000
Y16.0000
X52.0000
X53.6000 Z-3.0852
G00 Z5.0000
X74.6000
G01 Z-3.0954
X76.2000 Z-4.0000
X81.0000
X81.6000 Y18.4000
X76.6000
Y20.8000
X93.6000
Z0.5000
X97.4000 Y23.2000
Z-4.0000
X76.6000
Y25.6000
X97.8000
Y28.0000
X76.6000
Y30.4000
X97.8000
X97.0000 Y32.8000
X76.6000
Y35.2000
X82.6000
X81.6000 Y37.6000
X76.6000
Z-3.0955
X74.6000 Y40.0000
X76.2000 Z-4.0000
X81.0000
X79.0000 Y42.4000
X11.8000
Y40.0000
X52.0000
X53.6000 Z-3.0955
G00 Z5.0000
X78.6000 Y44.8000
G01 Z-4.0000
X12.2000
X16.0000 Y47.2000
X77.0000
G00 Z5.0000
X14.4000 Y37.6000
G01 Z-3.0288
X14.0000 Z-3.9704
X11.6000 Z-4.0000
X10.2000 Y35.2000
X13.8000
Y32.8000
X9.4000
X10.0000 Y30.4000
X7.8000
Y28.0000
X9.8000
X10.0000 Y25.6000
X7.8000
X9.4000 Y23.2000
X13.8000
Y20.8000
X10.2000
X11.6000 Y18.4000
X14.0000 Z-3.9949
X14.4000 Z-3.0288
Z-2.5288
X16.0000 Y8.8000
Z-5.0000
X77.0000
X78.6000 Y11.2000
X12.2000
X11.8000 Y13.6000
X79.0000
X81.0000 Y16.0000
X76.6000
X76.2000 Z-4.0227
X76.6000 Y18.4000
Z-5.0000
X81.6000
Z-4.5000
X76.6000 Y20.8000
Z-5.0000
X93.6000
Z0.5000
X97.4000 Y23.2000
Z-5.0000
X76.6000
Y25.6000
X97.8000
Y28.0000
X76.6000
Y30.4000
X97.8000
X97.0000 Y32.8000
X76.6000
Y35.2000
X82.6000
X81.6000 Y37.6000
X76.8000
X76.6000 Z-4.2586
Z-4.0226
X76.2000 Y40.0000
X76.6000 Z-5.0000
X81.0000
X79.0000 Y42.4000
X11.8000
Y40.0000
X14.4000
X16.0000 Z-4.3409
X52.0000 Z-4.0226
G00 Z5.0000
X78.6000 Y44.8000
G01 Z-5.0000
X12.2000
X16.0000 Y47.2000
X77.0000
G00 Z5.0000
X52.0000 Y16.0000
G01 Z-4.0227
X16.0000 Z-4.2534
X14.4000 Z-5.0000
X11.8000
X11.6000 Y18.4000
X13.8000
Y20.8000
X10.2000
X9.4000 Y23.2000
X13.8000
X10.0000 Y25.6000
X7.8000
Y28.0000
X9.8000
X10.0000 Y30.4000
X7.8000
X9.4000 Y32.8000
X13.8000
Y35.2000
X10.2000
X11.6000 Y37.6000
X13.8000
G00 Z5.0000
X16.0000 Y8.8000
G01 Z-6.0000
X77.0000
X78.6000 Y11.2000
X12.2000
X11.8000 Y13.6000
X52.4000
X54.2000 Z-5.1778
X73.6000
X75.8000 Z-6.0000
X79.0000
X81.0000 Y16.0000
X76.6000
Y18.4000
X81.6000
Z-5.5000
X76.6000 Y20.8000
Z-6.0000
X93.6000
Z0.5000
X97.4000 Y23.2000
Z-6.0000
X76.6000
Y25.6000
X97.8000
Y28.0000
X76.6000
Y30.4000
X97.8000
X97.0000 Y32.8000
X76.6000
Y35.2000
X82.6000
X81.6000 Y37.6000
X76.8000 Z-5.8505
X76.6000 Y40.0000
Z-6.0000
X81.0000
X79.0000 Y42.4000
X75.8000
X74.2000 Z-5.2537
X54.0000 Z-5.2918
X52.4000 Z-6.0000
X11.8000
Y40.0000
X14.0000
X14.4000 Z-5.0177
X13.8000 Y37.6000
Z-6.0000
X11.6000
X10.2000 Y35.2000
X13.8000
Y32.8000
X9.4000
X10.0000 Y30.4000
X7.8000
Y28.0000
X9.8000
X10.0000 Y25.6000
X7.8000
X9.4000 Y23.2000
X13.8000
Y20.8000
X10.2000
X11.6000 Y18.4000
X13.8000
Z-5.0177
X14.4000 Y16.0000
X14.0000 Z-6.0000
X11.8000
G00 Z5.0000
X12.2000 Y44.8000
G01 Z-6.0000
X78.6000
X77.0000 Y47.2000
X16.0000
G00 Z5.0000
Y8.8000
G01 Z-7.0000
X77.0000
X78.6000 Y11.2000
X12.2000
X11.8000 Y13.6000
X50.4000
X52.0000 Z-6.9390
X52.4000 Z-6.1216
G00 Z5.0000
X75.8000
G01 Z-6.1215
X76.4000 Z-7.0000
X79.0000
X81.0000 Y16.0000
X76.6000
Y18.4000
X81.6000
Z-6.4259
X76.6000 Y20.8000
Z-6.9259
X93.6000 Z-7.0000
Z0.5000
X97.4000 Y23.2000
Z-7.0000
X79.6000
X79.2000 Z-6.5000
X76.6000
Y25.6000
X79.4000
X79.6000 Z-7.0000
X97.8000
Y28.0000
X79.6000
X79.4000 Z-6.5000
X76.6000
Y30.4000
X79.4000
X79.6000 Z-7.0000
X97.8000
X97.0000 Y32.8000
X79.6000
X79.2000 Z-6.5000
X76.6000
Y35.2000
Z-6.9259
X82.6000 Z-7.0000
X81.6000 Y37.6000
X77.0000
X76.6000 Y40.0000
X81.0000
X79.0000 Y42.4000
X76.4000
X75.8000 Z-6.1216
X78.6000 Y44.8000
Z-7.0000
X12.2000
X11.8000 Y42.4000
X51.6000
X52.4000 Z-6.1216
G00 Z5.0000
X77.0000 Y47.2000
G01 Z-7.0000
X16.0000
Z-5.9606
X14.0000 Y40.0000
Z-6.4606
X13.8000 Z-7.0000
X11.8000
X11.6000 Y37.6000
X13.8000
Y35.2000
X10.2000
X9.4000 Y32.8000
X13.8000
X10.0000 Y30.4000
X7.8000
Y28.0000
X9.8000
X10.0000 Y25.6000
X7.8000
X9.4000 Y23.2000
X13.8000
Y20.8000
X10.2000
X11.6000 Y18.4000
X13.8000
Z-6.4606
X14.0000 Y16.0000
X13.8000 Z-7.0000
X11.8000
Z-6.5000
X16.0000 Y8.8000
Z-8.0000
X77.0000
X78.6000 Y11.2000
X12.2000
X11.8000 Y13.6000
X14.4000
X16.0000 Z-6.9541
X50.4000 Z-7.0737
G00 Z5.0000
X76.4000
G01 Z-8.0000
X79.0000
X81.0000 Y16.0000
X76.6000
Y18.4000
X81.6000
Z-7.0049
X77.6000 Y20.8000
X79.4000 Z-8.0000
X93.6000
Z0.5000
X97.4000 Y23.2000
Z-8.0000
X79.6000
Y25.6000
X97.8000
Y28.0000
X79.6000
Y30.4000
X97.8000
X97.0000 Y32.8000
X79.6000
Z-7.0834
X77.6000 Y35.2000
X79.4000 Z-8.0000
X82.6000
X81.6000 Y37.6000
X77.2000
X77.0000 Z-7.4424
Z-7.1879
X76.6000 Y40.0000
X76.8000 Z-8.0000
X81.0000
X79.0000 Y42.4000
X76.4000
X78.6000 Y44.8000
X12.2000
X11.8000 Y42.4000
X14.4000
X16.0000 Z-7.0242
X51.6000 Z-7.0734
G00 Z5.0000
X77.0000 Y47.2000
G01 Z-8.0000
X16.0000
Z-7.3991
X13.8000 Y40.0000
Z-8.0000
X11.8000
X11.6000 Y37.6000
X13.8000
Y35.2000
X10.2000
X9.4000 Y32.8000
X13.8000
X10.0000 Y30.4000
X7.8000
Y28.0000
X9.8000
X10.0000 Y25.6000
X7.8000
X9.4000 Y23.2000
X13.8000
Y20.8000
X10.2000
X11.6000 Y18.4000
X13.8000
Y16.0000
X11.8000
Z-7.5000
X16.0000 Y8.8000
Z-9.0000
X77.0000
X78.6000 Y11.2000
X12.2000
X11.8000 Y13.6000
X14.2000 Z-8.9699
X14.4000 Z-8.1996
X13.8000 Y16.0000
Z-9.0000
X11.8000
X11.6000 Y18.4000
X13.8000
Y20.8000
X10.2000
X9.4000 Y23.2000
X13.8000
X10.0000 Y25.6000
X7.8000
Y28.0000
X9.8000
X10.0000 Y30.4000
X7.8000
X9.4000 Y32.8000
X13.8000
Y35.2000
X10.2000
X11.6000 Y37.6000
X13.8000
Y40.0000
X11.8000
Y42.4000
X14.2000
X14.4000 Z-8.1996
X12.2000 Y44.8000
Z-9.0000
X78.6000
X79.0000 Y42.4000
X76.6000
X76.4000 Z-8.3673
X76.8000 Y40.0000
Z-9.0000
X81.0000
X81.6000 Y37.6000
X77.2000
Z-8.5840
X79.4000 Y35.2000
X82.6000 Z-9.0000
X79.6000 Y32.8000
X97.0000
X97.8000 Y30.4000
X79.6000
Y28.0000
X97.8000
Y25.6000
X79.6000
Y23.2000
X97.4000
X93.6000 Y20.8000
X79.6000
X79.4000 Z-8.5842
X81.6000 Y18.4000
Z-9.0000
X76.6000 Z-8.9322
Y16.0000
Z-9.0000
X81.0000
X79.0000 Y13.6000
X76.6000
X76.4000 Z-8.3674
G00 Z5.0000
X77.0000 Y47.2000
G01 Z-9.0000
X16.0000
G00 Z5.0000
Y8.8000
G01 Z-10.0000
X77.0000
X78.6000 Y11.2000
X75.4000
X74.2000 Z-9.2454
X54.0000 Z-9.2395
X52.8000 Z-10.0000
X12.2000
X11.8000 Y13.6000
X14.0000
X13.8000 Y16.0000
X11.8000
X11.6000 Y18.4000
X13.8000
Y20.8000
X10.2000
X9.4000 Y23.2000
X13.8000 Z-9.7314
X10.0000 Y25.6000
Z-10.0000
X7.8000
Y28.0000
X9.8000
X10.0000 Y30.4000
X7.8000
X9.4000 Y32.8000
X13.8000 Z-9.7314
Y35.2000
Z-10.0000
X10.2000
X11.6000 Y37.6000
X13.8000
Y40.0000
X11.8000
Y42.4000
X14.0000
X14.2000 Z-9.1267
X12.2000 Y44.8000
Z-10.0000
X52.8000
X53.8000 Z-9.2645
X74.4000
X75.4000 Z-10.0000
X78.6000
X79.0000 Y42.4000
X76.6000
Z-9.5116
X76.8000 Y40.0000
X77.0000 Z-10.0000
X81.0000
X81.6000 Y37.6000
X79.0000
X77.2000 Z-9.0343
X79.6000 Y35.2000
Z-10.0000
X82.6000
X79.6000 Y32.8000
X97.0000
X97.8000 Y30.4000
X79.6000
Y28.0000
X97.8000
Y25.6000
X79.6000
Y23.2000
X97.4000
X93.6000 Y20.8000
X79.6000
X81.6000 Y18.4000
X79.0000
X77.2000 Z-9.0440
X76.6000 Y16.0000
Z-9.4243
X76.8000 Z-10.0000
X81.0000
X79.0000 Y13.6000
X76.6000
G00 Z5.0000
X77.0000 Y47.2000
G01 Z-10.0000
X16.0000
G00 Z5.0000
Y8.8000
G01 Z-11.0000
X77.0000
Z-10.1217
X75.4000 Y11.2000
X76.0000 Z-11.0000
X78.6000
X79.0000 Y13.6000
X76.6000
X76.8000 Y16.0000
X81.0000
X81.6000 Y18.4000
X79.4000
X79.0000 Z-10.0015
X79.6000 Y20.8000
Z-11.0000
X93.6000
Z0.5000
X97.4000 Y23.2000
Z-11.0000
X79.8000
X79.6000 Z-10.4987
Y25.6000
Z-11.0000
X97.8000
Y28.0000
X79.6000
Y30.4000
X97.8000
X97.0000 Y32.8000
X79.6000
Y35.2000
X82.6000
X81.6000 Y37.6000
X79.4000
X79.0000 Z-10.0012
X77.0000 Y40.0000
Z-11.0000
X81.0000
X79.0000 Y42.4000
X76.6000
Z-10.2125
X75.4000 Y44.8000
X76.0000 Z-11.0000
X78.6000
X77.0000 Y47.2000
X16.0000
Z0.5000
X12.2000 Y44.8000
Z-11.0000
X52.2000
X52.8000 Z-10.2153
G00 Z5.0000
Y11.2000
G01 Z-10.2153
X52.2000 Z-11.0000
X12.2000
X11.8000 Y13.6000
X14.0000
X13.8000 Y16.0000
X11.8000
X11.6000 Y18.4000
X13.8000
Y20.8000
X10.2000
X9.4000 Y23.2000
X12.4000
X12.8000 Z-10.0960
X10.0000 Y25.6000
Z-11.0000
X7.8000
Y28.0000
X9.8000
X10.0000 Y30.4000
X7.8000
X9.4000 Y32.8000
X12.4000
X12.8000 Z-10.0961
X13.8000 Y35.2000
Z-11.0000
X10.2000
X11.6000 Y37.6000
X13.8000
Y40.0000
X11.8000
Y42.4000
X14.0000
G00 Z5.0000
X16.0000 Y8.8000
G01 Z-12.0000
X77.0000
Z-11.6583
X76.0000 Y11.2000
X78.6000 Z-12.0000
X79.0000 Y13.6000
X76.6000
X76.8000 Y16.0000
X81.0000
X81.6000 Y18.4000
X79.4000
X79.6000 Y20.8000
X93.6000
X97.4000 Y23.2000
X79.8000
X79.6000 Y25.6000
X97.8000
Y28.0000
X79.6000
Y30.4000
X97.8000
X97.0000 Y32.8000
X79.6000
Y35.2000
X82.6000
X81.6000 Y37.6000
X79.4000
X81.0000 Y40.0000
X77.0000 Z-11.8354
X76.6000 Y42.4000
Z-12.0000
X79.0000
X78.6000 Y44.8000
X76.0000 Z-11.7155
X77.0000 Y47.2000
Z-12.0000
X16.0000
X12.2000 Y44.8000
X52.2000 Z-11.7155
G00 Z5.0000
Y11.2000
G01 Z-11.6581
X12.2000 Z-12.0000
X11.8000 Y13.6000
X13.8000
X14.0000 Z-11.1449
X13.8000 Y16.0000
Z-12.0000
X11.8000
X11.6000 Y18.4000
X13.8000
Z-11.8809
Y20.8000
X10.2000 Z-12.0000
X9.4000 Y23.2000
X12.2000
X12.4000 Z-11.0573
X10.0000 Y25.6000
Z-12.0000
X7.8000
Y28.0000
X9.8000
X10.0000 Y30.4000
X7.8000
X9.4000 Y32.8000
X12.2000
X12.4000 Z-11.0574
X13.8000 Y35.2000
Z-11.8809
X10.2000 Z-12.0000
X11.6000 Y37.6000
X13.8000
Y40.0000
X11.8000
Y42.4000
X13.8000
X14.0000 Z-11.1449
G00 Z5.0000
X16.0000 Y8.8000
G01 Z-13.0000
X77.0000
X76.2000 Y11.2000
X78.6000
X79.0000 Y13.6000
X76.6000
X76.8000 Y16.0000
X81.0000
X81.6000 Y18.4000
X79.6000
X79.4000 Z-12.4150
X79.6000 Y20.8000
Z-13.0000
X93.6000
X97.4000 Y23.2000
X79.8000
Z-12.5361
X79.6000 Y25.6000
X97.8000 Z-13.0000
Y28.0000
X95.8000
X95.6000 Z-12.5010
X79.6000 Z-12.5000
Y30.4000
Z-12.5360
X97.8000 Z-13.0000
X97.0000 Y32.8000
X79.6000
Y35.2000
X82.6000
X81.6000 Y37.6000
X79.6000
X79.4000 Z-12.4147
X81.0000 Y40.0000
Z-13.0000
X77.2000
X76.6000 Y42.4000
X79.0000
X78.6000 Y44.8000
X76.2000
X77.0000 Y47.2000
X16.0000
X12.2000 Y44.8000
X15.8000
X16.0000 Z-12.5173
X52.0000 Z-12.5368
G00 Z5.0000
X51.8000 Y11.2000
G01 Z-12.3913
X16.4000
X15.8000 Z-13.0000
X12.2000
X11.8000 Y13.6000
X13.8000
Y16.0000
X11.8000
X11.6000 Y18.4000
X13.8000
Z-12.0554
X13.2000 Y20.8000
X12.6000 Z-13.0000
X10.2000
X9.4000 Y23.2000
X12.2000
X10.0000 Y25.6000
X7.8000
Y28.0000
X9.8000
X10.0000 Y30.4000
X7.8000
X9.4000 Y32.8000
X12.2000
Z-12.0677
X13.4000 Y35.2000
X12.6000 Z-13.0000
X10.2000
X11.6000 Y37.6000
X13.8000
Y40.0000
X11.8000
Y42.4000
X13.8000
G00 Z5.0000
X16.0000 Y8.8000
G01 Z-14.0000
X77.0000
Z-13.7352
X76.2000 Y11.2000
X78.6000 Z-14.0000
X79.0000 Y13.6000
X76.6000
X76.8000 Y16.0000
X81.0000
X81.6000 Y18.4000
X79.6000
Y20.8000
X93.6000
X97.4000 Y23.2000
X79.8000
Z-12.0000
X79.6000 Y32.8000
Z-14.0000
X97.0000
X97.8000 Y30.4000
X95.6000 Z-13.6446
X95.8000 Y28.0000
Z-14.0000
X97.8000
Y25.6000
X95.6000 Z-13.5819
Z-12.0000
X82.6000 Y35.2000
Z-14.0000
X79.6000
Y37.6000
X81.6000
X81.0000 Y40.0000
X77.2000
X76.6000 Y42.4000
X79.0000
X78.6000 Y44.8000
X76.2000 Z-13.7351
X77.0000 Y47.2000
Z-14.0000
X16.0000
X15.8000 Y44.8000
X12.2000
X11.8000 Y42.4000
X13.8000
Y40.0000
X11.8000
X11.6000 Y37.6000
X13.8000
Z-13.9679
X12.6000 Y35.2000
X10.2000 Z-14.0000
X9.4000 Y32.8000
X12.2000
X10.0000 Y30.4000
X7.8000
Y28.0000
X9.8000
X10.0000 Y25.6000
X7.8000
X9.4000 Y23.2000
X12.2000
Z-13.9679
X12.6000 Y20.8000
X10.2000 Z-14.0000
X11.6000 Y18.4000
X13.8000
Y16.0000
X11.8000
Y13.6000
X13.8000
X12.2000 Y11.2000
X15.8000 Z-13.8631
X16.0000 Y8.8000
Z-15.0000
X77.0000
X76.4000 Y11.2000
X78.6000
X79.0000 Y13.6000
X76.6000
Z-14.0128
X76.8000 Y16.0000
X77.6000 Z-15.0000
X81.0000
X81.6000 Y18.4000
X79.6000
Y20.8000
X93.6000
X97.4000 Y23.2000
X94.6000
X93.2000 Z-14.2174
X79.8000 Z-14.2190
Z-12.0000
X79.6000 Y32.8000
Z-14.3517
X81.6000 Z-14.3576
X82.6000 Z-15.0000
X97.0000
X97.8000 Y30.4000
X95.8000
Y28.0000
X97.8000
Y25.6000
X95.8000
Z-12.0000
X82.6000 Y35.2000
Z-15.0000
X79.6000
Y37.6000
X81.6000
X81.0000 Y40.0000
X77.6000
X77.2000 Z-14.1591
X76.6000 Y42.4000
Z-15.0000
X79.0000
X78.6000 Y44.8000
X76.4000
X77.0000 Y47.2000
X16.0000
Z-14.0109
X15.8000 Y44.8000
X15.2000 Z-14.0238
X15.0000 Z-15.0000
X12.2000
X11.8000 Y42.4000
X13.8000
Y40.0000
X11.8000
X11.6000 Y37.6000
X13.8000
X12.4000 Y35.2000
X10.2000
X9.4000 Y32.8000
X12.2000
X10.0000 Y30.4000
X7.8000
Y28.0000
X9.8000
X10.0000 Y25.6000
X7.8000
X9.4000 Y23.2000
X12.2000
X12.4000 Y20.8000
X10.2000
X11.6000 Y18.4000
X13.8000
Y16.0000
X11.8000
Y13.6000
X13.8000
X12.2000 Y11.2000
X15.0000
X15.4000 Z-14.0109
X16.0000 Y8.8000
Z-16.0000
X77.0000
X76.4000 Y11.2000
X78.6000
X79.0000 Y13.6000
X76.6000
X77.6000 Y16.0000
X81.0000
X81.6000 Y18.4000
X79.6000
Y20.8000
X93.6000
X94.6000 Y23.2000
X97.4000
X97.8000 Y25.6000
X95.8000
Y28.0000
X97.8000
Y30.4000
X95.8000
X97.0000 Y32.8000
X82.6000
Y35.2000
X79.6000
Y37.6000
X81.6000
X81.0000 Y40.0000
X77.6000
X76.6000 Y42.4000
X79.0000
X78.6000 Y44.8000
X76.4000
X77.0000 Y47.2000
X16.0000
X15.0000 Y44.8000
X12.2000
X11.8000 Y42.4000
X13.8000
Y40.0000
X11.8000
X11.6000 Y37.6000
X13.8000
X12.4000 Y35.2000
X10.2000
X9.4000 Y32.8000
X12.2000
X10.0000 Y30.4000
X7.8000
Y28.0000
X9.8000
X10.0000 Y25.6000
X7.8000
X9.4000 Y23.2000
X12.2000
X12.4000 Y20.8000
X10.2000
X11.6000 Y18.4000
X13.8000
Y16.0000
X11.8000
Y13.6000
X13.8000
X15.0000 Y11.2000
X12.2000
X16.0000 Y8.8000
Z-17.0000
X77.0000
X76.4000 Y11.2000
X78.6000
X79.0000 Y13.6000
X76.6000
X77.6000 Y16.0000
X81.0000
X81.6000 Y18.4000
X79.6000
Y20.8000
X93.6000
X94.6000 Y23.2000
X97.4000
X97.8000 Y25.6000
X95.8000
Y28.0000
X97.8000
Y30.4000
X95.8000
X97.0000 Y32.8000
X82.6000
Y35.2000
X79.6000
Y37.6000
X81.6000
X81.0000 Y40.0000
X77.6000
X76.6000 Y42.4000
X79.0000
X78.6000 Y44.8000
X76.4000
X77.0000 Y47.2000
X16.0000
X15.0000 Y44.8000
X12.2000
X11.8000 Y42.4000
X13.8000
Y40.0000
X11.8000
X11.6000 Y37.6000
X13.8000
X12.4000 Y35.2000
X10.2000
X9.4000 Y32.8000
X12.2000
X10.0000 Y30.4000
X7.8000
Y28.0000
X9.8000
X10.0000 Y25.6000
X7.8000
X9.4000 Y23.2000
X12.2000
X12.4000 Y20.8000
X10.2000
X11.6000 Y18.4000
X13.8000
Y16.0000
X11.8000
Y13.6000
X13.8000
X15.0000 Y11.2000
X12.2000
X16.0000 Y8.8000
Z-18.0000
X77.0000
X76.4000 Y11.2000
X78.6000
X79.0000 Y13.6000
X76.6000
X77.6000 Y16.0000
X81.0000
X81.6000 Y18.4000
X79.6000
Y20.8000
X93.6000
X94.6000 Y23.2000
X97.4000
X97.8000 Y25.6000
X95.8000
Y28.0000
X97.8000
Y30.4000
X95.8000
X97.0000 Y32.8000
X82.6000
Y35.2000
X79.6000
Y37.6000
X81.6000
X81.0000 Y40.0000
X77.6000
X76.6000 Y42.4000
X79.0000
X78.6000 Y44.8000
X76.4000
X77.0000 Y47.2000
X16.0000
X15.0000 Y44.8000
X12.2000
X11.8000 Y42.4000
X13.8000
Y40.0000
X11.8000
X11.6000 Y37.6000
X13.8000
X12.4000 Y35.2000
X10.2000
X9.4000 Y32.8000
X12.2000
X10.0000 Y30.4000
X7.8000
Y28.0000
X9.8000
X10.0000 Y25.6000
X7.8000
X9.4000 Y23.2000
X12.2000
X12.4000 Y20.8000
X10.2000
X11.6000 Y18.4000
X13.8000
Y16.0000
X11.8000
Y13.6000
X13.8000
X15.0000 Y11.2000
X12.2000
X16.0000 Y8.8000
Z-19.0000
X77.0000
X76.4000 Y11.2000
X78.6000
X79.0000 Y13.6000
X76.6000
X77.6000 Y16.0000
X81.0000
X81.6000 Y18.4000
X79.6000
Y20.8000
X93.6000
X94.6000 Y23.2000
X97.4000
X97.8000 Y25.6000
X95.8000
Y28.0000
X97.8000
Y30.4000
X95.8000
X97.0000 Y32.8000
X82.6000
Y35.2000
X79.6000
Y37.6000
X81.6000
X81.0000 Y40.0000
X77.6000
X76.6000 Y42.4000
X79.0000
X78.6000 Y44.8000
X76.4000
X77.0000 Y47.2000
X16.0000
X15.0000 Y44.8000
X12.2000
X11.8000 Y42.4000
X13.8000
Y40.0000
X11.8000
X11.6000 Y37.6000
X13.8000
X12.4000 Y35.2000
X10.2000
X9.4000 Y32.8000
X12.2000
X10.0000 Y30.4000
X7.8000
Y28.0000
X9.8000
X10.0000 Y25.6000
X7.8000
X9.4000 Y23.2000
X12.2000
X12.4000 Y20.8000
X10.2000
X11.6000 Y18.4000
X13.8000
Y16.0000
X11.8000
Y13.6000
X13.8000
X15.0000 Y11.2000
X12.2000
X16.0000 Y8.8000
Z-20.0000
X77.0000
X76.4000 Y11.2000
X78.6000
X79.0000 Y13.6000
X76.6000
X77.6000 Y16.0000
X81.0000
X81.6000 Y18.4000
X79.6000
Y20.8000
X93.6000
X94.6000 Y23.2000
X97.4000
X97.8000 Y25.6000
X95.8000
Y28.0000
X97.8000
Y30.4000
X95.8000
X97.0000 Y32.8000
X82.6000
Y35.2000
X79.6000
Y37.6000
X81.6000
X81.0000 Y40.0000
X77.6000
X76.6000 Y42.4000
X79.0000
X78.6000 Y44.8000
X76.4000
X77.0000 Y47.2000
X16.0000
X15.0000 Y44.8000
X12.2000
X11.8000 Y42.4000
X13.8000
Y40.0000
X11.8000
X11.6000 Y37.6000
X13.8000
X12.4000 Y35.2000
X10.2000
X9.4000 Y32.8000
X12.2000
X10.0000 Y30.4000
X7.8000
Y28.0000
X9.8000
X10.0000 Y25.6000
X7.8000
X9.4000 Y23.2000
X12.2000
X12.4000 Y20.8000
X10.2000
X11.6000 Y18.4000
X13.8000
Y16.0000
X11.8000
Y13.6000
X13.8000
X15.0000 Y11.2000
X12.2000
X16.0000 Y8.8000
Z-21.0000
X77.0000
X76.4000 Y11.2000
X78.6000
X79.0000 Y13.6000
X76.6000
X77.6000 Y16.0000
X81.0000
X81.6000 Y18.4000
X79.6000
Y20.8000
X93.6000
X94.6000 Y23.2000
X97.4000
X97.8000 Y25.6000
X95.8000
Y28.0000
X97.8000
Y30.4000
X95.8000
X97.0000 Y32.8000
X82.6000
Y35.2000
X79.6000
Y37.6000
X81.6000
X81.0000 Y40.0000
X77.6000
X76.6000 Y42.4000
X79.0000
X78.6000 Y44.8000
X76.4000
X77.0000 Y47.2000
X16.0000
X15.0000 Y44.8000
X12.2000
X11.8000 Y42.4000
X13.8000
Y40.0000
X11.8000
X11.6000 Y37.6000
X13.8000
X12.4000 Y35.2000
X10.2000
X9.4000 Y32.8000
X12.2000
X10.0000 Y30.4000
X7.8000
Y28.0000
X9.8000
X10.0000 Y25.6000
X7.8000
X9.4000 Y23.2000
X12.2000
X12.4000 Y20.8000
X10.2000
X11.6000 Y18.4000
X13.8000
Y16.0000
X11.8000
Y13.6000
X13.8000
X15.0000 Y11.2000
X12.2000
X16.0000 Y8.8000
Z-22.0000
X77.0000
X76.4000 Y11.2000
X78.6000
X79.0000 Y13.6000
X76.6000
X77.6000 Y16.0000
X81.0000
X81.6000 Y18.4000
X79.6000
Y20.8000
X93.6000
X94.6000 Y23.2000
X97.4000
X97.8000 Y25.6000
X95.8000
Y28.0000
X97.8000
Y30.4000
X95.8000
X97.0000 Y32.8000
X82.6000
Y35.2000
X79.6000
Y37.6000
X81.6000
X81.0000 Y40.0000
X77.6000
X76.6000 Y42.4000
X79.0000
X78.6000 Y44.8000
X76.4000
X77.0000 Y47.2000
X16.0000
X15.0000 Y44.8000
X12.2000
X11.8000 Y42.4000
X13.8000
Y40.0000
X11.8000
X11.6000 Y37.6000
X13.8000
X12.4000 Y35.2000
X10.2000
X9.4000 Y32.8000
X12.2000
X10.0000 Y30.4000
X7.8000
Y28.0000
X9.8000
X10.0000 Y25.6000
X7.8000
X9.4000 Y23.2000
X12.2000
X12.4000 Y20.8000
X10.2000
X11.6000 Y18.4000
X13.8000
Y16.0000
X11.8000
Y13.6000
X13.8000
X15.0000 Y11.2000
X12.2000
X16.0000 Y8.8000
Z-23.0000
X77.0000
X76.4000 Y11.2000
X78.6000
X79.0000 Y13.6000
X76.6000
X77.6000 Y16.0000
X81.0000
X81.6000 Y18.4000
X79.6000
Y20.8000
X93.6000
X94.6000 Y23.2000
X97.4000
X97.8000 Y25.6000
X95.8000
Y28.0000
X97.8000
Y30.4000
X95.8000
X97.0000 Y32.8000
X82.6000
Y35.2000
X79.6000
Y37.6000
X81.6000
X81.0000 Y40.0000
X77.6000
X76.6000 Y42.4000
X79.0000
X78.6000 Y44.8000
X76.4000
X77.0000 Y47.2000
X16.0000
X15.0000 Y44.8000
X12.2000
X11.8000 Y42.4000
X13.8000
Y40.0000
X11.8000
X11.6000 Y37.6000
X13.8000
X12.4000 Y35.2000
X10.2000
X9.4000 Y32.8000
X12.2000
X10.0000 Y30.4000
X7.8000
Y28.0000
X9.8000
X10.0000 Y25.6000
X7.8000
X9.4000 Y23.2000
X12.2000
X12.4000 Y20.8000
X10.2000
X11.6000 Y18.4000
X13.8000
Y16.0000
X11.8000
Y13.6000
X13.8000
X15.0000 Y11.2000
X12.2000
X16.0000 Y8.8000
Z-24.0000
X77.0000
X76.4000 Y11.2000
X78.6000
X79.0000 Y13.6000
X76.6000
X77.6000 Y16.0000
X81.0000
X81.6000 Y18.4000
X79.6000
Y20.8000
X93.6000
X94.6000 Y23.2000
X97.4000
X97.8000 Y25.6000
X95.8000
Y28.0000
X97.8000
Y30.4000
X95.8000
X97.0000 Y32.8000
X82.6000
Y35.2000
X79.6000
Y37.6000
X81.6000
X81.0000 Y40.0000
X77.6000
X76.6000 Y42.4000
X79.0000
X78.6000 Y44.8000
X76.4000
X77.0000 Y47.2000
X16.0000
X15.0000 Y44.8000
X12.2000
X11.8000 Y42.4000
X13.8000
Y40.0000
X11.8000
X11.6000 Y37.6000
X13.8000
X12.4000 Y35.2000
X10.2000
X9.4000 Y32.8000
X12.2000
X10.0000 Y30.4000
X7.8000
Y28.0000
X9.8000
X10.0000 Y25.6000
X7.8000
X9.4000 Y23.2000
X12.2000
X12.4000 Y20.8000
X10.2000
X11.6000 Y18.4000
X13.8000
Y16.0000
X11.8000
Y13.6000
X13.8000
X15.0000 Y11.2000
X12.2000
X16.0000 Y8.8000
Z-25.0000
X77.0000
X76.4000 Y11.2000
X78.6000
X79.0000 Y13.6000
X76.6000
X77.6000 Y16.0000
X81.0000
X81.6000 Y18.4000
X79.6000
Y20.8000
X93.6000
X94.6000 Y23.2000
X97.4000
X97.8000 Y25.6000
X95.8000
Y28.0000
X97.8000
Y30.4000
X95.8000
X97.0000 Y32.8000
X82.6000
Y35.2000
X79.6000
Y37.6000
X81.6000
X81.0000 Y40.0000
X77.6000
X76.6000 Y42.4000
X79.0000
X78.6000 Y44.8000
X76.4000
X77.0000 Y47.2000
X16.0000
X15.0000 Y44.8000
X12.2000
X11.8000 Y42.4000
X13.8000
Y40.0000
X11.8000
X11.6000 Y37.6000
X13.8000
X12.4000 Y35.2000
X10.2000
X9.4000 Y32.8000
X12.2000
X10.0000 Y30.4000
X7.8000
Y28.0000
X9.8000
X10.0000 Y25.6000
X7.8000
X9.4000 Y23.2000
X12.2000
X12.4000 Y20.8000
X10.2000
X11.6000 Y18.4000
X13.8000
Y16.0000
X11.8000
Y13.6000
X13.8000
X15.0000 Y11.2000
X12.2000
X16.0000 Y8.8000
Z-26.0000
X77.0000
X76.4000 Y11.2000
X78.6000
X79.0000 Y13.6000
X76.6000
X77.6000 Y16.0000
X81.0000
X81.6000 Y18.4000
X79.6000
Y20.8000
X93.6000
X94.6000 Y23.2000
X97.4000
X97.8000 Y25.6000
X95.8000
Y28.0000
X97.8000
Y30.4000
X95.8000
X97.0000 Y32.8000
X82.6000
Y35.2000
X79.6000
Y37.6000
X81.6000
X81.0000 Y40.0000
X77.6000
X76.6000 Y42.4000
X79.0000
X78.6000 Y44.8000
X76.4000
X77.0000 Y47.2000
X16.0000
X15.0000 Y44.8000
X12.2000
X11.8000 Y42.4000
X13.8000
Y40.0000
X11.8000
X11.6000 Y37.6000
X13.8000
X12.4000 Y35.2000
X10.2000
X9.4000 Y32.8000
X12.2000
X10.0000 Y30.4000
X7.8000
Y28.0000
X9.8000
X10.0000 Y25.6000
X7.8000
X9.4000 Y23.2000
X12.2000
X12.4000 Y20.8000
X10.2000
X11.6000 Y18.4000
X13.8000
Y16.0000
X11.8000
Y13.6000
X13.8000
X15.0000 Y11.2000
X12.2000
X16.0000 Y8.8000
Z-27.0000
X77.0000
X76.4000 Y11.2000
X78.6000
X79.0000 Y13.6000
X76.6000
X77.6000 Y16.0000
X81.0000
X81.6000 Y18.4000
X79.6000
Y20.8000
X93.6000
X94.6000 Y23.2000
X97.4000
X97.8000 Y25.6000
X95.8000
Y28.0000
X97.8000
Y30.4000
X95.8000
X97.0000 Y32.8000
X82.6000
Y35.2000
X79.6000
Y37.6000
X81.6000
X81.0000 Y40.0000
X77.6000
X76.6000 Y42.4000
X79.0000
X78.6000 Y44.8000
X76.4000
X77.0000 Y47.2000
X16.0000
X15.0000 Y44.8000
X12.2000
X11.8000 Y42.4000
X13.8000
Y40.0000
X11.8000
X11.6000 Y37.6000
X13.8000
X12.4000 Y35.2000
X10.2000
X9.4000 Y32.8000
X12.2000
X10.0000 Y30.4000
X7.8000
Y28.0000
X9.8000
X10.0000 Y25.6000
X7.8000
X9.4000 Y23.2000
X12.2000
X12.4000 Y20.8000
X10.2000
X11.6000 Y18.4000
X13.8000
Y16.0000
X11.8000
Y13.6000
X13.8000
X15.0000 Y11.2000
X12.2000
X16.0000 Y8.8000
Z-28.0000
X77.0000
X76.4000 Y11.2000
X78.6000
X79.0000 Y13.6000
X76.6000
X77.6000 Y16.0000
X81.0000
X81.6000 Y18.4000
X79.6000
Y20.8000
X93.6000
X94.6000 Y23.2000
X97.4000
X97.8000 Y25.6000
X95.8000
Y28.0000
X97.8000
Y30.4000
X95.8000
X97.0000 Y32.8000
X82.6000
Y35.2000
X79.6000
Y37.6000
X81.6000
X81.0000 Y40.0000
X77.6000
X76.6000 Y42.4000
X79.0000
X78.6000 Y44.8000
X76.4000
X77.0000 Y47.2000
X16.0000
X15.0000 Y44.8000
X12.2000
X11.8000 Y42.4000
X13.8000
Y40.0000
X11.8000
X11.6000 Y37.6000
X13.8000
X12.4000 Y35.2000
X10.2000
X9.4000 Y32.8000
X12.2000
X10.0000 Y30.4000
X7.8000
Y28.0000
X9.8000
X10.0000 Y25.6000
X7.8000
X9.4000 Y23.2000
X12.2000
X12.4000 Y20.8000
X10.2000
X11.6000 Y18.4000
X13.8000
Y16.0000
X11.8000
Y13.6000
X13.8000
X15.0000 Y11.2000
X12.2000
X16.0000 Y8.8000
Z-29.0000
X77.0000
X76.4000 Y11.2000
X78.6000
X79.0000 Y13.6000
X76.6000
X77.6000 Y16.0000
X81.0000
X81.6000 Y18.4000
X79.6000
Y20.8000
X93.6000
X94.6000 Y23.2000
X97.4000
X97.8000 Y25.6000
X95.8000
Y28.0000
X97.8000
Y30.4000
X95.8000
X97.0000 Y32.8000
X82.6000
Y35.2000
X79.6000
Y37.6000
X81.6000
X81.0000 Y40.0000
X77.6000
X76.6000 Y42.4000
X79.0000
X78.6000 Y44.8000
X76.4000
X77.0000 Y47.2000
X16.0000
X15.0000 Y44.8000
X12.2000
X11.8000 Y42.4000
X13.8000
Y40.0000
X11.8000
X11.6000 Y37.6000
X13.8000
X12.4000 Y35.2000
X10.2000
X9.4000 Y32.8000
X12.2000
X10.0000 Y30.4000
X7.8000
Y28.0000
X9.8000
X10.0000 Y25.6000
X7.8000
X9.4000 Y23.2000
X12.2000
X12.4000 Y20.8000
X10.2000
X11.6000 Y18.4000
X13.8000
Y16.0000
X11.8000
Y13.6000
X13.8000
X15.0000 Y11.2000
X12.2000
X16.0000 Y8.8000
Z-30.0000
X77.0000
X76.4000 Y11.2000
X78.6000
X79.0000 Y13.6000
X76.6000
X77.6000 Y16.0000
X81.0000
X81.6000 Y18.4000
X79.6000
Y20.8000
X93.6000
X94.6000 Y23.2000
X97.4000
X97.8000 Y25.6000
X95.8000
Y28.0000
X97.8000
Y30.4000
X95.8000
X97.0000 Y32.8000
X82.6000
Y35.2000
X79.6000
Y37.6000
X81.6000
X81.0000 Y40.0000
X77.6000
X76.6000 Y42.4000
X79.0000
X78.6000 Y44.8000
X76.4000
X77.0000 Y47.2000
X16.0000
X15.0000 Y44.8000
X12.2000
X11.8000 Y42.4000
X13.8000
Y40.0000
X11.8000
X11.6000 Y37.6000
X13.8000
X12.4000 Y35.2000
X10.2000
X9.4000 Y32.8000
X12.2000
X10.0000 Y30.4000
X7.8000
Y28.0000
X9.8000
X10.0000 Y25.6000
X7.8000
X9.4000 Y23.2000
X12.2000
X12.4000 Y20.8000
X10.2000
X11.6000 Y18.4000
X13.8000
Y16.0000
X11.8000
Y13.6000
X13.8000
X15.0000 Y11.2000
X12.2000
X16.0000 Y8.8000
Z-31.0000
X77.0000
X76.4000 Y11.2000
X78.6000
X79.0000 Y13.6000
X76.6000
X77.6000 Y16.0000
X81.0000
X81.6000 Y18.4000
X79.6000
Y20.8000
X93.6000
X94.6000 Y23.2000
X97.4000
X97.8000 Y25.6000
X95.8000
Y28.0000
X97.8000
Y30.4000
X95.8000
X97.0000 Y32.8000
X82.6000
Y35.2000
X79.6000
Y37.6000
X81.6000
X81.0000 Y40.0000
X77.6000
X76.6000 Y42.4000
X79.0000
X78.6000 Y44.8000
X76.4000
X77.0000 Y47.2000
X16.0000
X15.0000 Y44.8000
X12.2000
X11.8000 Y42.4000
X13.8000
Y40.0000
X11.8000
X11.6000 Y37.6000
X13.8000
X12.4000 Y35.2000
X10.2000
X9.4000 Y32.8000
X12.2000
X10.0000 Y30.4000
X7.8000
Y28.0000
X9.8000
X10.0000 Y25.6000
X7.8000
X9.4000 Y23.2000
X12.2000
X12.4000 Y20.8000
X10.2000
X11.6000 Y18.4000
X13.8000
Y16.0000
X11.8000
Y13.6000
X13.8000
X15.0000 Y11.2000
X12.2000
X16.0000 Y8.8000
Z-31.5000
X77.0000
X76.4000 Y11.2000
X78.6000
X79.0000 Y13.6000
X76.6000
X77.6000 Y16.0000
X81.0000
X81.6000 Y18.4000
X79.6000
Y20.8000
X93.6000
X94.6000 Y23.2000
X97.4000
X97.8000 Y25.6000
X95.8000
Y28.0000
X97.8000
Y30.4000
X95.8000
X97.0000 Y32.8000
X82.6000
Y35.2000
X79.6000
Y37.6000
X81.6000
X81.0000 Y40.0000
X77.6000
X76.6000 Y42.4000
X79.0000
X78.6000 Y44.8000
X76.4000
X77.0000 Y47.2000
X16.0000
X15.0000 Y44.8000
X12.2000
X11.8000 Y42.4000
X13.8000
Y40.0000
X11.8000
X11.6000 Y37.6000
X13.8000
X12.4000 Y35.2000
X10.2000
X9.4000 Y32.8000
X12.2000
X10.0000 Y30.4000
X7.8000
Y28.0000
X9.8000
X10.0000 Y25.6000
X7.8000
X9.4000 Y23.2000
X12.2000
X12.4000 Y20.8000
X10.2000
X11.6000 Y18.4000
X13.8000
Y16.0000
X11.8000
Y13.6000
X13.8000
X15.0000 Y11.2000
X12.2000
G00 Z5.0000
X12.0000 Y12.0000
;*************************************
;Nr. 2 Linear schlichten X: 
;*************************************
X53.0625 Y10.4250 Z5.0000
G01 Z-32.0000 F1200
X75.2250
Z0.0000
X75.7875 Y10.8750
Z-32.0000
X75.4500
X75.3375 Z-14.8199
X75.0000 Z-13.0776
X74.6625 Z-12.5024
X73.9875 Z-12.4815
X53.6250 Z-12.5021
X52.9500 Z-14.8196
X52.8375 Z-32.0000
X52.5000
G00 Z5.0000
X76.1250 Y11.3250
G01 Z-32.0000
X75.7875
X75.6750 Z-13.6862
X75.0000 Z-11.3631
X73.8750 Z-10.8573
X54.1875
X53.0625 Z-11.6456
X52.6125 Z-13.6861
X52.5000 Z-32.0000
X15.4875
Z0.0000
X14.8125 Y11.7750
Z-32.0000
X15.1500
X15.2625 Z-14.8168
X15.8250 Z-13.0742
X52.3875 Z-13.1837
X53.0625 Z-10.3741
X53.6250 Z-9.7645
X54.1875 Z-9.7395
X73.8750
X75.0000 Z-10.0686
X75.7875 Z-12.5024
X76.2375 Z-32.0000
Y12.2250
X75.9000 Z-12.1583
X75.6750 Z-10.3743
X75.0000 Z-9.0152
X73.8750 Z-8.6567
X54.1875
X52.9500 Z-9.4628
X52.3875 Z-11.4503
X15.8250 Z-11.3633
X15.2625 Z-12.2133
X14.8125 Z-14.8168
X14.4750 Z-32.0000
X14.2500 Y12.6750
X14.5875
X14.7000 Z-13.0742
X15.2625 Z-10.8070
X15.9375 Z-10.0534
X52.3875 Z-10.0542
X53.2875 Z-8.1419
X54.1875 Z-7.8713
X73.8750
X75.0000 Z-8.1421
X75.6750 Z-9.3130
X75.9000 Z-10.8037
X76.2375 Z-32.0000
Y13.1250
X75.9000 Z-9.4628
X75.2250 Z-7.5780
X73.9875 Z-7.1660
X53.7375 Z-7.2356
X53.0625 Z-7.5781
X52.3875 Z-9.2438
X15.9375 Z-9.2124
X15.0375 Z-10.1894
X14.5875 Z-12.7865
X14.2500 Z-32.0000
Y13.5750
X14.5875 Z-11.0841
X14.9250 Z-9.4699
X15.8250 Z-8.3990
X52.3875 Z-8.4146
X53.0625 Z-6.8905
X53.9625 Z-6.5798
X74.5500 Z-6.5807
X75.2250 Z-6.8905
X75.9000 Z-8.5742
X76.2375 Z-32.0000
Y14.0250
X75.9000 Z-7.7843
X75.3375 Z-6.4388
X73.9875 Z-5.9633
X53.6250 Z-5.9683
X52.6125 Z-6.8905
X52.3875 Z-7.6566
X15.8250 Z-7.6676
X15.0375 Z-8.3990
X14.5875 Z-9.9425
X14.2500 Z-32.0000
Y14.4750
X14.5875 Z-9.0048
X15.2625 Z-7.3817
X15.8250 Z-7.0366
X52.2750 Z-7.0870
X53.0625 Z-5.7154
X53.9625 Z-5.4136
X74.2125
X75.4500 Z-5.9684
X75.9000 Z-7.0262
X76.2375 Z-32.0000
Y14.9250
X75.6750 Z-5.7154
X74.5500 Z-4.9727
X53.9625 Z-4.9724
X53.0625 Z-5.1915
X52.2750 Z-6.4607
X16.2750
X15.3750 Z-6.7186
X14.5875 Z-8.2505
X14.2500 Z-32.0000
Y15.3750
X14.5875 Z-7.5242
X14.9250 Z-6.6470
X15.8250 Z-5.9395
X52.2750 Z-5.9335
X52.6125 Z-5.1915
X53.6250 Z-4.5227
X74.1000 Z-4.5074
X75.3375 Z-4.8527
X75.9000 Z-5.8411
X76.2375 Z-32.0000
Y15.8250
X75.9000 Z-5.3359
X75.3375 Z-4.4070
X73.9875 Z-4.0621
X53.7375 Z-4.0697
X52.9500 Z-4.4070
X52.2750 Z-5.4994
X15.6000 Z-5.5583
X15.0375 Z-5.9395
X14.5875 Z-6.9606
X14.2500 Z-32.0000
Y16.2750
X14.5875 Z-6.4162
X14.9250 Z-5.6171
X15.8250 Z-5.0254
X52.2750 Z-5.0818
X52.7250 Z-4.2027
X53.7375 Z-3.6794
X73.9875 Z-3.6513
X75.2250 Z-3.8936
X75.9000 Z-4.8527
X76.0125 Z-32.0000
X77.9250
Z0.0000
X78.6000 Y16.7250
Z-32.0000
X78.2625
X78.1500 Z-15.5533
X77.5875 Z-13.8891
X76.0125 Z-13.9253
X75.6750 Z-3.8936
X74.5500 Z-3.3686
X53.9625 Z-3.3679
X52.9500 Z-3.5955
X52.2750 Z-4.6815
X15.2625 Z-4.8409
X14.5875 Z-5.8944
X14.2500 Z-32.0000
Y17.1750
X14.5875 Z-5.3945
X15.2625 Z-4.4949
X15.8250 Z-4.2502
X52.2750 Z-4.2991
X52.6125 Z-3.5229
X53.6250 Z-3.0289
X74.1000 Z-3.0030
X75.2250 Z-3.1669
X75.9000 Z-4.0466
X76.0125 Z-12.2155
X77.4750 Z-12.2159
X78.1500 Z-12.9880
X78.4875 Z-14.4895
X78.9375 Z-32.0000
X79.1625 Y17.6250
X78.8250
X78.7125 Z-13.8891
X78.1500 Z-11.9417
X77.4750 Z-11.4024
X76.0125 Z-11.4027
X75.6750 Z-3.1669
X74.2125 Z-2.6695
X53.9625
X52.6125 Z-3.1669
X52.2750 Z-3.9353
X15.9375 Z-3.8848
X15.1500 Z-4.1536
X14.5875 Z-4.9332
X14.2500 Z-32.0000
Y18.0750
X14.5875 Z-4.5791
X15.1500 Z-3.8341
X15.8250 Z-3.5888
X52.2750 Z-3.5904
X52.7250 Z-2.7614
X53.6250 Z-2.4433
X73.9875 Z-2.4136
X75.2250 Z-2.5778
X75.9000 Z-3.3071
X76.0125 Z-10.6267
X77.5875 Z-10.5855
X78.1500 Z-11.0082
X78.7125 Z-12.3535
X79.1625 Z-32.0000
Y18.5250
X78.8250 Z-12.0781
X78.1500 Z-10.2547
X76.0125 Z-9.9726
X75.9000 Z-2.9276
X75.2250 Z-2.2610
X74.2125 Z-2.1434
X53.6250 Z-2.1435
X52.6125 Z-2.5777
X52.2750 Z-3.3187
X15.2625 Z-3.4595
X14.5875 Z-4.1536
X14.2500 Z-32.0000
Y18.9750
X14.5875 Z-3.8341
X15.1500 Z-3.2387
X15.9375 Z-2.9916
X52.2750 Z-3.0103
X52.6125 Z-2.2609
X53.6250 Z-1.8860
X73.9875 Z-1.8754
X75.2250 Z-2.0130
X75.9000 Z-2.6318
X76.0125 Z-9.3947
X78.1500 Z-9.6843
X78.8250 Z-11.1860
X79.1625 Z-32.0000
Y19.4250
X78.8250 Z-10.5015
X78.6000 Z-9.6843
X77.9250 Z-9.0842
X76.0125 Z-8.9585
X75.7875 Z-2.1434
X74.6625 Z-1.6433
X53.6250 Z-1.6432
X52.6125 Z-2.0130
X52.2750 Z-2.8154
X15.9375 Z-2.7618
X14.9250 Z-3.0996
X14.5875 Z-3.5288
X14.2500 Z-32.0000
Z0.0000
X13.6875 Y19.8750
Z-32.0000
X14.4750
X14.5875 Z-3.2387
X15.1500 Z-2.7081
X52.2750 Z-2.5414
X52.6125 Z-1.7627
X53.7375 Z-1.4572
X73.9875 Z-1.4349
X75.2250 Z-1.5664
X75.9000 Z-2.0784
X76.0125 Z-8.5473
X78.1500 Z-8.7833
X78.8250 Z-9.8803
X79.1625 Z-32.0000
Y20.3250
X78.8250 Z-9.3190
X77.8125 Z-8.2348
X76.0125 Z-8.1627
X75.7875 Z-1.6433
X74.5500 Z-1.2457
X54.1875 Z-1.2375
X52.6125 Z-1.5663
X52.2750 Z-2.3300
X15.9375 Z-2.3225
X14.7000 Z-2.7711
X14.4750 Z-13.9335
X13.6875 Z-14.7678
X13.5750 Z-15.9997
X13.4625 Z-32.0000
X13.1250
X12.7875 Y20.7750
X13.1250
X13.2375 Z-14.7678
X13.6875 Z-13.5831
X14.4750 Z-12.9747
X14.5875 Z-2.7081
X14.9250 Z-2.3971
X15.8250 Z-2.1339
X52.2750 Z-2.1705
X52.6125 Z-1.3492
X53.6250 Z-1.0628
X73.9875 Z-1.0424
X75.2250 Z-1.1706
X75.9000 Z-1.6048
X76.0125 Z-7.8061
X77.9250 Z-7.8826
X78.8250 Z-8.8881
X79.1625 Z-32.0000
Y21.2250
X78.8250 Z-8.4804
X77.9250 Z-7.5828
X76.0125 Z-7.4786
X75.9000 Z-1.3900
X75.2250 Z-0.9773
X73.8750 Z-0.8978
X53.7375
X52.6125 Z-1.1706
X52.2750 Z-1.9685
X15.8250 Z-1.9706
X14.8125 Z-2.2472
X14.4750 Z-12.1860
X13.6875 Z-12.5554
X13.1250 Z-14.1696
X12.6750 Z-32.0000
Y21.6750
X13.0125 Z-13.7934
X13.5750 Z-12.0423
X14.4750 Z-11.6342
X14.7000 Z-2.1339
X15.8250 Z-1.7956
X52.2750 Z-1.8008
X52.6125 Z-0.9805
X53.9625 Z-0.7412
X74.5500 Z-0.7423
X75.7875 Z-1.0629
X76.0125 Z-7.2526
X78.1500 Z-7.3785
X78.8250 Z-8.0999
X79.1625 Z-32.0000
Y22.1250
X78.8250 Z-7.7497
X77.9250 Z-7.0679
X76.0125 Z-7.0000
X75.9000 Z-1.0106
X73.9875 Z-0.6164
X53.6250 Z-0.6230
X52.5000 Z-0.9107
X52.2750 Z-1.6622
X15.9375 Z-1.6540
X14.8125 Z-1.9012
X14.4750 Z-11.2114
X13.6875 Z-11.4039
X13.0125 Z-12.7507
X12.6750 Z-32.0000
Y22.5750
X13.0125 Z-12.0423
X13.5750 Z-11.1123
X14.4750 Z-10.8436
X14.7000 Z-1.7956
X15.9375 Z-1.5097
X52.2750 Z-1.5247
X52.6125 Z-0.6727
X54.1875 Z-0.4830
X74.4375 Z-0.4898
X75.9000 Z-0.8722
X76.0125 Z-7.0000
X78.3750
X78.8250 Z-7.4284
X79.1625 Z-32.0000
Y23.0250
X78.8250 Z-7.2071
X76.0125 Z-7.0000
X75.9000 Z-0.7124
X74.2125 Z-0.3920
X53.6250
X52.5000 Z-0.6230
X52.2750 Z-1.4250
X14.8125 Z-1.6055
X14.4750 Z-10.5098
X13.6875 Z-10.6633
X13.0125 Z-11.5573
X12.6750 Z-32.0000
Y23.4750
X13.0125 Z-11.1123
X13.6875 Z-10.3706
X14.4750 Z-10.2712
X14.7000 Z-1.5210
X52.2750 Z-1.3059
X52.5000 Z-0.4956
X53.6250 Z-0.2913
X73.9875 Z-0.2872
X75.9000 Z-0.5953
X76.0125 Z-7.0000
X78.8250
X78.9375 Z-32.0000
X94.4625
Z0.0000
X95.0250 Y23.9250
Z-32.0000
X94.6875
X94.4625 Z-14.9084
X93.7875 Z-14.4632
X78.9375 Z-14.4597
X78.8250 Z-7.0000
X76.0125
X75.6750 Z-0.3440
X54.1875 Z-0.2024
X52.5000 Z-0.3920
X52.2750 Z-1.2145
X14.7000 Z-1.4150
X14.4750 Z-10.0355
X13.6875 Z-10.1385
X13.0125 Z-10.7805
X12.6750 Z-32.0000
Y24.3750
X13.0125 Z-10.4665
X13.5750 Z-9.9953
X14.4750 Z-9.8792
X14.7000 Z-1.3071
X52.2750 Z-1.1525
X52.5000 Z-0.2913
X54.1875 Z-0.1439
X75.6750 Z-0.2509
X76.0125 Z-7.0000
X78.8250
X78.9375 Z-13.8787
X94.2375 Z-14.0244
X94.9125 Z-14.9084
X95.0250 Z-32.0000
X95.3625
X95.4750 Y24.8250
X95.1375 Z-15.2099
X94.5750 Z-13.7690
X93.6750 Z-13.5034
X78.9375 Z-13.5056
X78.8250 Z-7.0000
X76.0125
X75.7875 Z-0.2157
X54.1875 Z-0.0853
X52.3875 Z-0.2684
X52.2750 Z-1.0904
X14.5875 Z-1.2887
X14.4750 Z-9.7151
X13.0125 Z-10.2339
X12.9000 Z-32.0000
X11.4375
Z0.0000
X10.7625 Y25.2750
Z-32.0000
X11.1000
X11.2125 Z-3.5000
X14.4750
X14.5875 Z-1.2152
X15.2625 Z-1.0722
X52.2750 Z-1.0519
X52.3875 Z-0.1949
X53.6250 Z-0.0472
X75.7875 Z-0.1484
X76.0125 Z-7.0000
X78.8250
X78.9375 Z-13.2704
X93.7875 Z-13.2643
X94.9125 Z-13.6910
X95.4750 Z-32.0000
Y25.7250
X94.9125 Z-13.4151
X93.9000 Z-13.1100
X78.9375 Z-13.0934
X78.8250 Z-7.0000
X76.0125
X75.9000 Z-0.1279
X54.1875 Z-0.0182
X52.3875 Z-0.1280
X52.2750 Z-1.0193
X15.0375 Z-1.0494
X14.5875 Z-1.1414
X14.4750 Z-3.5000
X10.7625
X10.4250 Z-32.0000
X10.2000 Y26.1750
X10.5375
X10.6500 Z-3.5000
X14.4750
X14.5875 Z-1.0904
X14.9250 Z-1.0262
X52.2750 Z-1.0045
X52.3875 Z-0.0820
X53.6250 Z-0.0038
X75.9000 Z-0.0820
X76.0125 Z-7.0000
X78.8250
X78.9375 Z-13.0217
X94.9125 Z-13.1830
X95.4750 Z-32.0000
Y26.6250
X95.0250 Z-13.1100
X78.9375 Z-13.0000
X78.8250 Z-7.0000
X76.0125
X75.9000 Z-0.0393
X53.4000 Z0.0000
X52.3875 Z-0.0393
X52.2750 Z-1.0000
X14.8125 Z-1.0119
X14.4750 Z-3.5000
X10.5375
X10.2000 Z-32.0000
Y27.0750
X10.5375 Z-3.5000
X14.4750
X14.7000 Z-1.0037
X52.2750 Z-1.0000
X52.3875 Z-0.0170
X52.8375 Z0.0000
X75.9000 Z-0.0169
X76.0125 Z-7.0000
X78.8250
X78.9375 Z-13.0000
X95.1375 Z-13.0854
X95.4750 Z-32.0000
Y27.5250
X95.1375 Z-13.0072
X78.9375 Z-13.0000
X78.8250 Z-7.0000
X76.0125
X75.9000 Z-0.0015
X52.6125 Z0.0000
X52.2750 Z-1.0000
X14.5875 Z-1.0033
X14.4750 Z-3.5000
X10.5375
X10.2000 Z-32.0000
Y27.9750
X10.5375 Z-3.5000
X14.4750
X14.5875 Z-1.0004
X52.2750 Z-1.0000
X52.5000 Z0.0000
X75.9000 Z-0.0002
X76.0125 Z-7.0000
X78.8250
X78.9375 Z-13.0000
X95.1375 Z-13.0010
X95.4750 Z-32.0000
Y28.4250
X95.1375 Z-13.0081
X78.9375 Z-13.0000
X78.8250 Z-7.0000
X76.0125
X75.9000 Z-0.0007
X52.6125 Z0.0000
X52.2750 Z-1.0000
X14.5875 Z-1.0022
X14.4750 Z-3.5000
X10.5375
X10.2000 Z-32.0000
Y28.8750
X10.5375 Z-3.5000
X14.4750
X14.7000 Z-1.0031
X52.2750 Z-1.0000
X52.3875 Z-0.0149
X52.8375 Z0.0000
X75.9000 Z-0.0149
X76.0125 Z-7.0000
X78.8250
X78.9375 Z-13.0000
X95.1375 Z-13.0829
X95.4750 Z-32.0000
Y29.3250
X95.0250 Z-13.0972
X78.9375 Z-13.0000
X78.8250 Z-7.0000
X76.0125
X75.9000 Z-0.0396
X53.4000 Z0.0000
X52.3875 Z-0.0396
X52.2750 Z-1.0000
X14.8125 Z-1.0117
X14.4750 Z-3.5000
X10.5375
X10.2000 Z-32.0000
Y29.7750
X10.5375 Z-3.5000
X14.4750
X14.5875 Z-1.0839
X52.2750 Z-1.0030
X52.3875 Z-0.0791
X52.8375 Z-0.0170
X73.9875 Z-0.0021
X75.9000 Z-0.0791
X76.0125 Z-7.0000
X78.8250
X78.9375 Z-13.0144
X93.7875 Z-13.0116
X95.0250 Z-13.2679
X95.4750 Z-32.0000
Y30.2250
X95.0250 Z-13.5006
X93.9000 Z-13.0972
X78.9375 Z-13.1053
X78.8250 Z-7.0000
X76.0125
X75.9000 Z-0.1263
X74.1000 Z-0.0151
X53.0625 Z-0.0306
X52.3875 Z-0.1269
X52.2750 Z-1.0168
X14.5875 Z-1.1414
X14.4750 Z-3.5000
X10.7625
X10.6500 Z-32.0000
X10.3125
X10.6500 Y30.6750
X10.9875
X11.1000 Z-3.5000
X14.4750
X14.7000 Z-1.1462
X52.2750 Z-1.0474
X52.3875 Z-0.1949
X53.2875 Z-0.0521
X74.1000 Z-0.0434
X75.9000 Z-0.1944
X76.0125 Z-7.0000
X78.8250
X78.9375 Z-13.2703
X93.7875 Z-13.2637
X94.9125 Z-13.6409
X95.4750 Z-32.0000
X95.3625 Y31.1250
X95.0250
X94.8000 Z-13.9608
X93.4500 Z-13.4848
X78.9375 Z-13.4802
X78.8250 Z-7.0000
X76.0125
X75.9000 Z-0.2672
X74.1000 Z-0.0780
X53.2875 Z-0.0969
X52.3875 Z-0.2679
X52.2750 Z-1.0957
X14.7000 Z-1.2198
X14.4750 Z-9.7058
X13.0125 Z-10.1813
X12.9000 Z-32.0000
X11.2125
Z-31.5000
X12.6750 Y31.5750
Z-32.0000
X13.0125 Z-10.4108
X14.4750 Z-9.8257
X14.7000 Z-1.3011
X52.2750 Z-1.1450
X52.3875 Z-0.3439
X53.2875 Z-0.1519
X74.1000 Z-0.1338
X75.9000 Z-0.3439
X76.0125 Z-7.0000
X78.8250
X78.9375 Z-13.8456
X93.7875 Z-13.8400
X94.4625 Z-14.1446
X94.6875 Z-32.0000
X95.0250
X94.4625 Y32.0250
X82.8750
X82.6500 Z-15.1332
X81.7500 Z-14.4202
X78.9375 Z-14.4174
X78.8250 Z-7.0000
X76.0125
X75.9000 Z-0.4625
X74.1000 Z-0.2050
X53.6250 Z-0.2115
X52.3875 Z-0.4626
X52.2750 Z-1.2228
X14.8125 Z-1.3490
X14.4750 Z-10.0298
X13.6875 Z-10.1092
X13.0125 Z-10.7250
X12.6750 Z-32.0000
Y32.4750
X13.0125 Z-11.1123
X13.6875 Z-10.3410
X14.4750 Z-10.2129
X14.7000 Z-1.5131
X52.2750 Z-1.2955
X52.5000 Z-0.4840
X53.7375 Z-0.2789
X74.5500 Z-0.2791
X75.9000 Z-0.5858
X76.0125 Z-7.0000
X78.8250
X78.9375 Z-15.6087
X81.9750 Z-15.7055
X82.0875 Z-32.0000
X82.7625
Z-31.5000
X79.1625 Y32.9250
Z-32.0000
X78.8250 Z-7.1846
X76.0125 Z-7.0000
X75.9000 Z-0.7118
X74.1000 Z-0.3734
X53.6250 Z-0.3820
X52.5000 Z-0.5985
X52.2750 Z-1.4024
X16.0500
X14.7000 Z-1.6456
X14.4750 Z-10.4768
X13.2375 Z-10.9546
X13.0125 Z-11.5094
X12.6750 Z-32.0000
Y33.3750
X13.0125 Z-12.0423
X13.6875 Z-10.9546
X14.4750 Z-10.7719
X14.7000 Z-1.7857
X15.9375 Z-1.5057
X52.2750 Z-1.5247
X52.3875 Z-0.8336
X53.6250 Z-0.4840
X73.9875 Z-0.4821
X75.9000 Z-0.8336
X76.0125 Z-7.0000
X78.3750
X78.8250 Z-7.4283
X79.1625 Z-32.0000
Y33.8250
X78.8250 Z-7.7496
X77.9250 Z-7.0678
X76.0125 Z-7.0000
X75.9000 Z-1.0107
X73.9875 Z-0.5897
X53.6250 Z-0.5985
X52.6125 Z-0.7995
X52.2750 Z-1.6480
X14.9250 Z-1.8277
X14.5875 Z-2.0771
X14.4750 Z-11.1581
X13.3500 Z-11.7151
X13.0125 Z-12.7005
X12.6750 Z-32.0000
Y34.2750
X13.0125 Z-13.5831
X13.6875 Z-11.8457
X14.4750 Z-11.6182
X14.8125 Z-2.0322
X15.9375 Z-1.7692
X52.2750 Z-1.7847
X52.5000 Z-1.0476
X53.7375 Z-0.7411
X73.9875 Z-0.7290
X75.2250 Z-0.7995
X75.9000 Z-1.2046
X76.0125 Z-7.2288
X77.9250 Z-7.2824
X78.8250 Z-8.0104
X79.1625 Z-32.0000
Y34.7250
X78.8250 Z-8.3850
X77.9250 Z-7.5853
X76.0125 Z-7.4785
X75.9000 Z-1.3740
X74.4375 Z-0.8870
X53.8500 Z-0.8818
X52.6125 Z-1.1551
X52.2750 Z-1.9504
X16.0500
X14.7000 Z-2.3199
X14.4750 Z-12.1019
X13.2375 Z-13.2727
X13.0125 Z-15.3772
X12.6750 Z-32.0000
X12.7875 Y35.1750
X13.1250
X13.2375 Z-14.7678
X13.6875 Z-13.2727
X14.4750 Z-12.8194
X14.5875 Z-2.7081
X14.9250 Z-2.3562
X15.8250 Z-2.1219
X52.2750 Z-2.1328
X52.6125 Z-1.3083
X53.8500 Z-1.0349
X73.9875 Z-1.0277
X75.0000 Z-1.0844
X75.9000 Z-1.6087
X76.0125 Z-7.8059
X78.1500 Z-7.9209
X78.8250 Z-8.7832
X79.1625 Z-32.0000
Y35.6250
X78.8250 Z-9.2426
X77.9250 Z-8.1825
X76.0125 Z-8.1002
X75.9000 Z-1.8222
X75.2250 Z-1.3083
X73.9875 Z-1.2135
X53.7375 Z-1.2178
X52.6125 Z-1.5276
X52.2750 Z-2.3299
X15.0375 Z-2.5262
X14.5875 Z-2.9647
X14.4750 Z-13.8111
X13.9125 Z-14.1698
X13.5750 Z-15.3772
X13.4625 Z-32.0000
X13.1250
X13.6875 Y36.0750
X14.4750
X14.5875 Z-3.2387
X15.1500 Z-2.7081
X52.2750 Z-2.5198
X52.6125 Z-1.7627
X53.6250 Z-1.4159
X73.9875 Z-1.4028
X75.2250 Z-1.5276
X75.9000 Z-2.0820
X76.0125 Z-8.4802
X78.1500 Z-8.6809
X78.8250 Z-9.7751
X79.1625 Z-32.0000
Y36.5250
X78.8250 Z-10.4356
X78.1500 Z-9.1006
X76.0125 Z-8.8871
X75.9000 Z-2.3190
X75.2250 Z-1.7582
X74.1000 Z-1.6237
X53.8500 Z-1.6286
X52.7250 Z-1.9161
X52.2750 Z-2.7687
X15.9375 Z-2.7617
X15.0375 Z-3.0059
X14.5875 Z-3.5288
X14.2500 Z-32.0000
Y36.9750
X14.8125 Z-3.4502
X15.8250 Z-3.0059
X52.2750 Z-3.0101
X52.6125 Z-2.2609
X53.7375 Z-1.8540
X74.5500 Z-1.8542
X75.7875 Z-2.3814
X76.0125 Z-9.3945
X77.9250 Z-9.5343
X78.6000 Z-10.2544
X78.8250 Z-11.1858
X79.1625 Z-32.0000
Y37.4250
X78.8250 Z-12.0871
X78.1500 Z-10.2544
X76.0125 Z-9.9330
X75.6750 Z-2.5051
X74.1000 Z-2.1189
X53.8500
X52.6125 Z-2.5051
X52.2750 Z-3.2651
X16.0500
X14.8125 Z-3.7283
X14.2500 Z-32.0000
Y37.8750
X14.5875 Z-4.4704
X15.1500 Z-3.7768
X52.2750 Z-3.5628
X52.6125 Z-2.8358
X53.8500 Z-2.3478
X73.9875 Z-2.3438
X75.2250 Z-2.5051
X75.9000 Z-3.2713
X76.0125 Z-10.5846
X77.9250 Z-10.7356
X78.7125 Z-12.3532
X79.1625 Z-32.0000
Y38.3250
X78.8250
X78.6000 Z-12.9147
X77.5875 Z-11.2692
X76.0125 Z-11.2697
X75.9000 Z-3.5955
X75.2250 Z-2.8358
X73.9875 Z-2.6631
X53.8500 Z-2.6693
X52.7250 Z-3.0483
X52.2750 Z-3.9060
X15.2625 Z-4.0728
X14.5875 Z-4.9196
X14.2500 Z-32.0000
Y38.7750
X14.5875 Z-5.2845
X15.2625 Z-4.3950
X52.2750 Z-4.1762
X52.8375 Z-3.3073
X53.7375 Z-2.9509
X73.9875 Z-2.9320
X75.2250 Z-3.1668
X75.9000 Z-4.0106
X76.0125 Z-12.2612
X77.5875 Z-12.3532
X78.1500 Z-12.9147
X78.4875 Z-14.1891
X78.9375 Z-32.0000
X78.6000 Y39.2250
X78.2625
X78.1500 Z-14.9562
X77.5875 Z-13.7799
X76.0125 Z-13.6822
X75.9000 Z-4.3614
X75.5625 Z-3.7431
X74.1000 Z-3.2762
X53.8500
X52.7250 Z-3.7516
X52.2750 Z-4.5525
X15.4875 Z-4.6632
X14.5875 Z-5.7677
X14.2500 Z-32.0000
Y39.6750
X14.5875 Z-6.2476
X15.1500 Z-5.2845
X15.9375 Z-4.9390
X52.2750 Z-4.9469
X52.8375 Z-4.0468
X53.8500 Z-3.6478
X74.4375 Z-3.6515
X75.6750 Z-4.2832
X76.0125 Z-32.0000
X77.9250
Z0.5000
X76.2375 Y40.1250
Z-32.0000
X75.6750 Z-4.6863
X74.6625 Z-4.0466
X53.8500 Z-4.0367
X52.9500 Z-4.3614
X52.2750 Z-5.4289
X15.9375 Z-5.3416
X15.2625 Z-5.6422
X14.5875 Z-6.8225
X14.2500 Z-32.0000
Y40.5750
X14.5875 Z-7.4118
X15.4875 Z-6.0226
X52.2750 Z-5.8968
X53.0625 Z-4.6864
X53.8500 Z-4.4423
X73.9875 Z-4.4383
X75.2250 Z-4.6863
X75.9000 Z-5.8411
X76.2375 Z-32.0000
Y41.0250
X75.9000 Z-6.3569
X75.5625 Z-5.5273
X75.0000 Z-5.0209
X74.1000 Z-4.8641
X53.8500
X53.0625 Z-5.1903
X52.3875 Z-6.3456
X16.1625
X15.2625 Z-6.6858
X14.5875 Z-8.1034
X14.2500 Z-32.0000
Y41.4750
X14.5875 Z-8.8734
X15.4875 Z-7.0999
X52.3875 Z-7.0075
X53.0625 Z-5.7152
X53.8500 Z-5.4134
X73.9875 Z-5.4014
X75.2250 Z-5.7152
X75.9000 Z-7.0262
X76.2375 Z-32.0000
Y41.9250
X75.9000 Z-7.7180
X75.2250 Z-6.2261
X74.1000 Z-5.9095
X53.6250 Z-5.9683
X52.8375 Z-6.4887
X52.3875 Z-7.5326
X16.1625
X15.4875 Z-7.8120
X14.8125 Z-8.6996
X14.5875 Z-9.7842
X14.2500 Z-32.0000
Y42.3750
X14.5875 Z-10.8823
X14.9250 Z-9.3140
X15.4875 Z-8.5487
X16.1625 Z-8.2858
X52.3875
X52.7250 Z-7.3006
X53.8500 Z-6.4588
X74.1000
X75.2250 Z-6.8904
X75.9000 Z-8.4292
X76.2375 Z-32.0000
Y42.8250
X75.9000 Z-9.4628
X75.4500 Z-7.8586
X75.0000 Z-7.3006
X74.1000 Z-7.1043
X53.6250 Z-7.1631
X52.8375 Z-7.8586
X52.3875 Z-9.0664
X15.8250 Z-9.1589
X15.1500 Z-9.7842
X14.5875 Z-12.4995
X14.2500 Z-32.0000
Y43.2750
X14.7000 Z-13.0173
X15.1500 Z-10.8823
X15.8250 Z-10.1014
X52.3875 Z-10.0995
X52.9500 Z-8.4292
X53.6250 Z-7.8586
X74.1000 Z-7.8199
X75.3375 Z-8.4292
X75.9000 Z-10.5275
X76.2375 Z-32.0000
Y43.7250
X75.9000 Z-11.9299
X75.2250 Z-9.1636
X74.1000 Z-8.6548
X53.6250 Z-8.7205
X52.8375 Z-9.6133
X52.3875 Z-11.2137
X15.8250 Z-11.3633
X15.2625 Z-11.9285
X14.8125 Z-14.2318
X14.7000 Z-32.0000
X14.3625
X14.7000 Y44.1750
X15.0375
X15.1500 Z-15.7024
X15.2625 Z-14.2318
X15.8250 Z-13.0173
X52.3875 Z-12.9396
X53.0625 Z-10.2211
X53.8500 Z-9.5560
X73.9875 Z-9.5555
X74.6625 Z-9.6133
X75.2250 Z-10.2211
X75.7875 Z-12.5021
X76.2375 Z-32.0000
X76.1250 Y44.6250
X75.7875
X75.6750 Z-13.3655
X75.0000 Z-11.0822
X74.1000 Z-10.7743
X53.6250 Z-10.8037
X53.2875 Z-11.0822
X52.6125 Z-13.3655
X52.5000 Z-32.0000
X15.2625
G00 Z5.0000
X52.5000 Y45.0750
G01 Z-32.0000
X52.8375
X52.9500 Z-14.2351
X53.2875 Z-12.7895
X53.9625 Z-12.3425
X74.2125
X75.0000 Z-12.7895
X75.3375 Z-14.2351
X75.4500 Z-32.0000
X75.7875
X75.2250 Y45.5250
X53.0625
G00 Z5.0000
X12.0000 Y12.0000
X0.0000 Y0.0000
G0 Z100 x-100 Y100
M30
